%
(3_fusion_test_)
(T201  D=0.25 CR=0 - ZMIN=-0.75 - flat end mill)
G90
G17
G20
(When using Fusion 360 for Personal Use, the feedrate of)
(rapid moves is reduced to match the feedrate of cutting)
(moves, which can increase machining time. Unrestricted rapid)
(moves are available with a Fusion 360 Subscription.)
G28 G91 Z0
G90

(2D Adaptive1)
T201 M6
S18000 M3
G54
G0 X0.0753 Y-0.0919
Z0.6
G1 Z0.2 F80
Z0.16
S10000
G3 X-0.0753 Y0.0919 Z0.147 I-0.0753 J0.0919 F60
X0.0753 Y-0.0919 Z0.1339 I0.0753 J-0.0919
X-0.0753 Y0.0919 Z0.1209 I-0.0753 J0.0919
X0.0753 Y-0.0919 Z0.1079 I0.0753 J-0.0919
X-0.0753 Y0.0919 Z0.0949 I-0.0753 J0.0919
X0.0753 Y-0.0919 Z0.0818 I0.0753 J-0.0919
X-0.0753 Y0.0919 Z0.0688 I-0.0753 J0.0919
X0.0753 Y-0.0919 Z0.0558 I0.0753 J-0.0919
X-0.0753 Y0.0919 Z0.0428 I-0.0753 J0.0919
X0.0753 Y-0.0919 Z0.0297 I0.0753 J-0.0919
X-0.0753 Y0.0919 Z0.0167 I-0.0753 J0.0919
X0.0753 Y-0.0919 Z0.0037 I0.0753 J-0.0919
X0.1188 Y0 Z0 I-0.0753 J0.0919
X-0.1188 I-0.1188 J0
X0.1188 I0.1188 J0
S18000
G1 X0.1189 Y0.009 F80
X0.1251 Y0.0447
X0.1272 Y0.0503
X0.1287 Y0.0561
X0.1295 Y0.0621
X0.1298 Y0.0681
X0.1297 Y0.0743
X0.1289 Y0.081
X0.1275 Y0.0881
X0.1255 Y0.0955
X0.1227 Y0.1031
X0.1191 Y0.1109
X0.1147 Y0.1188
X0.1094 Y0.1266
X0.1032 Y0.1344
X0.0962 Y0.1419
X0.0883 Y0.1491
X0.0795 Y0.1558
X0.0699 Y0.1621
X0.0596 Y0.1677
X0.0485 Y0.1726
X0.0367 Y0.1767
X0.0245 Y0.1799
X0.0117 Y0.1821
X-0.0014 Y0.1834
X-0.0149 Y0.1836
X-0.0285 Y0.1827
X-0.0421 Y0.1806
X-0.0557 Y0.1775
X-0.0692 Y0.1732
X-0.0824 Y0.1678
X-0.0952 Y0.1614
X-0.1076 Y0.1538
X-0.1194 Y0.1452
X-0.1305 Y0.1357
X-0.1409 Y0.1252
X-0.1505 Y0.1139
X-0.1591 Y0.1018
X-0.1668 Y0.0891
X-0.1734 Y0.0757
X-0.179 Y0.0617
X-0.1834 Y0.0474
X-0.1867 Y0.0327
X-0.1888 Y0.0177
X-0.1897 Y0.0026
X-0.1893 Y-0.0125
X-0.1878 Y-0.0276
X-0.185 Y-0.0425
X-0.1811 Y-0.0571
X-0.176 Y-0.0714
X-0.1697 Y-0.0853
X-0.1624 Y-0.0986
X-0.154 Y-0.1113
X-0.1446 Y-0.1233
X-0.1343 Y-0.1345
X-0.1231 Y-0.1448
X-0.1111 Y-0.1542
X-0.0984 Y-0.1626
X-0.085 Y-0.17
X-0.0711 Y-0.1763
X-0.0567 Y-0.1814
X-0.042 Y-0.1854
X-0.027 Y-0.1882
X-0.0118 Y-0.1898
X0.0034 Y-0.1901
X0.0187 Y-0.1892
X0.0338 Y-0.1871
X0.0487 Y-0.1838
X0.0633 Y-0.1793
X0.0775 Y-0.1737
X0.0911 Y-0.1669
X0.1042 Y-0.159
X0.1167 Y-0.1502
X0.1283 Y-0.1403
X0.1392 Y-0.1296
X0.1491 Y-0.118
X0.1581 Y-0.1056
X0.1681 Y-0.0893
X0.184 Y-0.0579
X0.1938 Y-0.034
X0.2004 Y-0.0131
X0.2048 Y0.0059
X0.2075 Y0.0241
X0.2087 Y0.0418
X0.2085 Y0.0589
X0.2069 Y0.0755
X0.204 Y0.0918
X0.1999 Y0.1077
X0.1945 Y0.1233
X0.1878 Y0.1384
X0.1799 Y0.153
X0.1708 Y0.167
X0.1605 Y0.1804
X0.149 Y0.193
X0.1364 Y0.2048
X0.1228 Y0.2157
X0.1081 Y0.2256
X0.0924 Y0.2345
X0.0758 Y0.2421
X0.0585 Y0.2485
X0.0404 Y0.2535
X0.0218 Y0.2571
X0.0028 Y0.2592
X-0.0166 Y0.2598
X-0.0362 Y0.2589
X-0.0558 Y0.2563
X-0.0753 Y0.2521
X-0.0945 Y0.2464
X-0.1134 Y0.239
X-0.1317 Y0.2301
X-0.1494 Y0.2197
X-0.1663 Y0.2079
X-0.1822 Y0.1947
X-0.1971 Y0.1801
X-0.2109 Y0.1644
X-0.2234 Y0.1475
X-0.2345 Y0.1296
X-0.2442 Y0.1108
X-0.2524 Y0.0912
X-0.259 Y0.071
X-0.264 Y0.0503
X-0.2673 Y0.0292
X-0.2689 Y0.0079
X-0.2688 Y-0.0135
X-0.2669 Y-0.0349
X-0.2634 Y-0.0561
X-0.2581 Y-0.077
X-0.2512 Y-0.0974
X-0.2427 Y-0.1172
X-0.2326 Y-0.1362
X-0.221 Y-0.1544
X-0.208 Y-0.1716
X-0.1936 Y-0.1877
X-0.1779 Y-0.2027
X-0.1611 Y-0.2163
X-0.1433 Y-0.2285
X-0.1245 Y-0.2393
X-0.105 Y-0.2485
X-0.0847 Y-0.2561
X-0.0639 Y-0.2621
X-0.0427 Y-0.2664
X-0.0212 Y-0.269
X0.0004 Y-0.2698
X0.0221 Y-0.2689
X0.0436 Y-0.2663
X0.0648 Y-0.2619
X0.0856 Y-0.2559
X0.1059 Y-0.2482
X0.1255 Y-0.2389
X0.1442 Y-0.2281
X0.1621 Y-0.2158
X0.1794 Y-0.2016
X0.1983 Y-0.1835
X0.216 Y-0.1635
X0.2327 Y-0.1414
X0.2476 Y-0.1178
X0.2604 Y-0.0936
X0.2709 Y-0.069
X0.2792 Y-0.0443
X0.2854 Y-0.0196
X0.2895 Y0.005
X0.2915 Y0.0295
X0.2916 Y0.0538
X0.2897 Y0.0778
X0.2859 Y0.1014
X0.2803 Y0.1245
X0.2729 Y0.147
X0.2637 Y0.1688
X0.2528 Y0.1898
X0.2402 Y0.2099
X0.2259 Y0.2291
X0.2101 Y0.2471
X0.1928 Y0.264
X0.174 Y0.2794
X0.1539 Y0.2935
X0.1325 Y0.306
X0.11 Y0.3168
X0.0866 Y0.3259
X0.0623 Y0.3331
X0.0372 Y0.3383
X0.0117 Y0.3416
X-0.0142 Y0.3428
X-0.0404 Y0.342
X-0.0665 Y0.339
X-0.0925 Y0.3339
X-0.1181 Y0.3267
X-0.1433 Y0.3174
X-0.1677 Y0.306
X-0.1913 Y0.2926
X-0.2138 Y0.2774
X-0.2352 Y0.2603
X-0.2551 Y0.2414
X-0.2736 Y0.2209
X-0.2905 Y0.199
X-0.3055 Y0.1757
X-0.3187 Y0.1511
X-0.3299 Y0.1256
X-0.339 Y0.0991
X-0.346 Y0.0719
X-0.3508 Y0.0443
X-0.3534 Y0.0162
X-0.3537 Y-0.012
X-0.3517 Y-0.0401
X-0.3475 Y-0.0681
X-0.3411 Y-0.0956
X-0.3324 Y-0.1226
X-0.3216 Y-0.1488
X-0.3088 Y-0.1741
X-0.2939 Y-0.1982
X-0.2771 Y-0.2212
X-0.2586 Y-0.2427
X-0.2383 Y-0.2626
X-0.2166 Y-0.2809
X-0.1934 Y-0.2974
X-0.1689 Y-0.3119
X-0.1434 Y-0.3245
X-0.1169 Y-0.3349
X-0.0897 Y-0.3433
X-0.0619 Y-0.3494
X-0.0337 Y-0.3532
X-0.0052 Y-0.3548
X0.0232 Y-0.3541
X0.0516 Y-0.3511
X0.0796 Y-0.3458
X0.107 Y-0.3383
X0.1338 Y-0.3287
X0.16 Y-0.3168
X0.1859 Y-0.3024
X0.2115 Y-0.2854
X0.2363 Y-0.2658
X0.26 Y-0.2437
X0.2823 Y-0.2195
X0.3026 Y-0.1934
X0.3208 Y-0.1657
X0.3366 Y-0.1368
X0.35 Y-0.107
X0.3608 Y-0.0764
X0.3691 Y-0.0453
X0.3748 Y-0.014
X0.378 Y0.0175
X0.3786 Y0.0489
X0.3767 Y0.0801
X0.3723 Y0.1109
X0.3655 Y0.1411
X0.3563 Y0.1706
X0.3447 Y0.1993
X0.331 Y0.2269
X0.315 Y0.2534
X0.2968 Y0.2786
X0.2767 Y0.3023
X0.2546 Y0.3245
X0.2307 Y0.3448
X0.2051 Y0.3634
X0.178 Y0.3798
X0.1494 Y0.3942
X0.1196 Y0.4062
X0.0888 Y0.4159
X0.0571 Y0.4232
X0.0247 Y0.4279
X-0.0082 Y0.43
X-0.0412 Y0.4294
X-0.0744 Y0.4262
X-0.1073 Y0.4203
X-0.1398 Y0.4117
X-0.1716 Y0.4005
X-0.2026 Y0.3867
X-0.2326 Y0.3704
X-0.2612 Y0.3517
X-0.2883 Y0.3306
X-0.3138 Y0.3074
X-0.3374 Y0.2821
X-0.3589 Y0.2549
X-0.3782 Y0.226
X-0.3952 Y0.1956
X-0.4098 Y0.1638
X-0.4218 Y0.1309
X-0.4311 Y0.0971
X-0.4376 Y0.0626
X-0.4414 Y0.0276
X-0.4424 Y-0.0077
X-0.4405 Y-0.0429
X-0.4358 Y-0.0779
X-0.4283 Y-0.1125
X-0.4181 Y-0.1464
X-0.4051 Y-0.1794
X-0.3896 Y-0.2112
X-0.3715 Y-0.2418
X-0.351 Y-0.2707
X-0.3282 Y-0.298
X-0.3033 Y-0.3234
X-0.2765 Y-0.3467
X-0.2478 Y-0.3677
X-0.2176 Y-0.3864
X-0.1859 Y-0.4027
X-0.1531 Y-0.4163
X-0.1192 Y-0.4272
X-0.0846 Y-0.4354
X-0.0494 Y-0.4408
X-0.0139 Y-0.4434
X0.0218 Y-0.4431
X0.0572 Y-0.4399
X0.0924 Y-0.4339
X0.1271 Y-0.4251
X0.1613 Y-0.4133
X0.1945 Y-0.3989
X0.2264 Y-0.3819
X0.257 Y-0.3624
X0.2859 Y-0.3407
X0.3131 Y-0.3169
X0.3385 Y-0.2911
X0.3619 Y-0.2635
X0.3833 Y-0.2344
X0.4025 Y-0.2037
X0.4195 Y-0.1717
X0.4341 Y-0.1386
X0.4462 Y-0.1045
X0.4557 Y-0.0696
X0.4626 Y-0.0341
X0.4668 Y0.0018
X0.4683 Y0.038
X0.467 Y0.0742
X0.4631 Y0.1101
X0.4564 Y0.1457
X0.4471 Y0.1806
X0.4351 Y0.2148
X0.4206 Y0.2479
X0.4036 Y0.2799
X0.3842 Y0.3104
X0.3626 Y0.3394
X0.3388 Y0.3667
X0.3131 Y0.3922
X0.2855 Y0.4156
X0.2563 Y0.4369
X0.2255 Y0.4559
X0.1934 Y0.4726
X0.1601 Y0.4868
X0.1259 Y0.4986
X0.0909 Y0.5077
X0.0553 Y0.5143
X0.0194 Y0.5184
X-0.0168 Y0.5198
X-0.0529 Y0.5187
X-0.0889 Y0.5149
X-0.1246 Y0.5086
X-0.1596 Y0.4997
X-0.194 Y0.4883
X-0.2274 Y0.4745
X-0.2598 Y0.4584
X-0.291 Y0.4401
X-0.3209 Y0.4196
X-0.3493 Y0.3972
X-0.376 Y0.3728
X-0.4009 Y0.3465
X-0.4239 Y0.3186
X-0.4449 Y0.2892
X-0.4639 Y0.2584
X-0.4807 Y0.2263
X-0.4953 Y0.1932
X-0.5076 Y0.1592
X-0.5174 Y0.1244
X-0.5248 Y0.089
X-0.5298 Y0.0531
X-0.5324 Y0.017
X-0.5325 Y-0.0192
X-0.5302 Y-0.0553
X-0.5253 Y-0.0911
X-0.518 Y-0.1266
X-0.5083 Y-0.1614
X-0.4962 Y-0.1955
X-0.4819 Y-0.2288
X-0.4654 Y-0.261
X-0.4467 Y-0.292
X-0.426 Y-0.3216
X-0.4032 Y-0.3497
X-0.3786 Y-0.3762
X-0.3522 Y-0.401
X-0.3243 Y-0.424
X-0.2949 Y-0.4451
X-0.2641 Y-0.4641
X-0.232 Y-0.4809
X-0.1989 Y-0.4955
X-0.1649 Y-0.5078
X-0.1302 Y-0.5178
X-0.0948 Y-0.5256
X-0.059 Y-0.5308
X-0.0229 Y-0.5336
X0.0132 Y-0.5339
X0.0494 Y-0.5317
X0.0853 Y-0.5272
X0.1208 Y-0.5203
X0.1557 Y-0.511
X0.19 Y-0.4993
X0.2234 Y-0.4854
X0.2558 Y-0.4693
X0.2871 Y-0.4511
X0.3172 Y-0.431
X0.3459 Y-0.4091
X0.3732 Y-0.3853
X0.3989 Y-0.3598
X0.423 Y-0.3328
X0.4454 Y-0.3044
X0.466 Y-0.2747
X0.4848 Y-0.2437
X0.5016 Y-0.2117
X0.5163 Y-0.1786
X0.5289 Y-0.1447
X0.5394 Y-0.1101
X0.5477 Y-0.0749
X0.5539 Y-0.0392
X0.5578 Y-0.0033
X0.5593 Y0.0329
X0.5585 Y0.0691
X0.5555 Y0.1051
X0.5502 Y0.1409
X0.5426 Y0.1763
X0.5329 Y0.2111
X0.5209 Y0.2453
X0.5067 Y0.2785
X0.4904 Y0.3109
X0.4722 Y0.3421
X0.452 Y0.3721
X0.43 Y0.4008
X0.4061 Y0.4281
X0.3806 Y0.4537
X0.3535 Y0.4777
X0.3249 Y0.4999
X0.295 Y0.5203
X0.264 Y0.5388
X0.2317 Y0.5553
X0.1985 Y0.5696
X0.1645 Y0.5819
X0.1298 Y0.5921
X0.0945 Y0.6001
X0.0588 Y0.606
X0.0228 Y0.6097
X-0.0133 Y0.6112
X-0.0495 Y0.6104
X-0.0856 Y0.6074
X-0.1214 Y0.6022
X-0.1568 Y0.5949
X-0.1918 Y0.5855
X-0.2261 Y0.5739
X-0.2596 Y0.5603
X-0.2922 Y0.5447
X-0.3239 Y0.5272
X-0.3545 Y0.5079
X-0.3839 Y0.4868
X-0.412 Y0.464
X-0.4386 Y0.4395
X-0.4638 Y0.4135
X-0.4873 Y0.386
X-0.5092 Y0.3572
X-0.5294 Y0.3272
X-0.5478 Y0.296
X-0.5644 Y0.2639
X-0.579 Y0.2308
X-0.5916 Y0.1969
X-0.6022 Y0.1623
X-0.6107 Y0.1271
X-0.6172 Y0.0915
X-0.6217 Y0.0556
X-0.6241 Y0.0195
X-0.6243 Y-0.0167
X-0.6224 Y-0.0528
X-0.6184 Y-0.0888
X-0.6123 Y-0.1244
X-0.6041 Y-0.1597
X-0.594 Y-0.1944
X-0.5819 Y-0.2285
X-0.5678 Y-0.2618
X-0.5517 Y-0.2942
X-0.5338 Y-0.3257
X-0.5141 Y-0.356
X-0.4927 Y-0.3852
X-0.4696 Y-0.4131
X-0.445 Y-0.4396
X-0.4189 Y-0.4646
X-0.3913 Y-0.4881
X-0.3625 Y-0.5099
X-0.3324 Y-0.53
X-0.3012 Y-0.5484
X-0.269 Y-0.5649
X-0.2359 Y-0.5795
X-0.202 Y-0.5922
X-0.1675 Y-0.6029
X-0.1323 Y-0.6116
X-0.0968 Y-0.6182
X-0.0609 Y-0.6228
X-0.0248 Y-0.6253
X0.0114 Y-0.6257
X0.0475 Y-0.624
X0.0835 Y-0.6202
X0.1192 Y-0.6144
X0.1545 Y-0.6065
X0.1893 Y-0.5967
X0.2235 Y-0.5848
X0.257 Y-0.571
X0.2896 Y-0.5554
X0.3213 Y-0.5379
X0.352 Y-0.5188
X0.3816 Y-0.498
X0.41 Y-0.4756
X0.4372 Y-0.4517
X0.463 Y-0.4263
X0.4874 Y-0.3996
X0.5103 Y-0.3716
X0.5317 Y-0.3424
X0.5515 Y-0.3121
X0.5697 Y-0.2809
X0.5862 Y-0.2487
X0.6009 Y-0.2156
X0.6138 Y-0.1818
X0.6248 Y-0.1473
X0.634 Y-0.1123
X0.6413 Y-0.0769
X0.6467 Y-0.0411
X0.6501 Y-0.0051
X0.6515 Y0.0311
X0.651 Y0.0672
X0.6484 Y0.1033
X0.6439 Y0.1392
X0.6375 Y0.1748
X0.6291 Y0.21
X0.6189 Y0.2447
X0.6068 Y0.2788
X0.5927 Y0.3122
X0.5769 Y0.3447
X0.5593 Y0.3763
X0.54 Y0.4069
X0.5191 Y0.4365
X0.4966 Y0.4648
X0.4727 Y0.4919
X0.4472 Y0.5176
X0.4204 Y0.5419
X0.3922 Y0.5647
X0.3629 Y0.5859
X0.3326 Y0.6055
X0.3011 Y0.6235
X0.2688 Y0.6398
X0.2356 Y0.6542
X0.2017 Y0.6668
X0.1672 Y0.6776
X0.1321 Y0.6865
X0.0967 Y0.6936
X0.0608 Y0.6988
X0.0248 Y0.7022
X-0.0113 Y0.7036
X-0.0475 Y0.703
X-0.0836 Y0.7005
X-0.1195 Y0.6961
X-0.1552 Y0.6899
X-0.1904 Y0.6818
X-0.2252 Y0.6719
X-0.2595 Y0.6602
X-0.293 Y0.6467
X-0.3258 Y0.6314
X-0.3578 Y0.6145
X-0.3889 Y0.596
X-0.419 Y0.5758
X-0.448 Y0.5542
X-0.4758 Y0.5311
X-0.5025 Y0.5066
X-0.5277 Y0.4807
X-0.5516 Y0.4536
X-0.5741 Y0.4253
X-0.5952 Y0.3958
X-0.6147 Y0.3654
X-0.6327 Y0.334
X-0.649 Y0.3017
X-0.6637 Y0.2686
X-0.6765 Y0.2348
X-0.6877 Y0.2003
X-0.6971 Y0.1654
X-0.7047 Y0.13
X-0.7105 Y0.0943
X-0.7146 Y0.0584
X-0.7168 Y0.0223
X-0.7171 Y-0.0139
X-0.7156 Y-0.0501
X-0.7122 Y-0.0861
X-0.707 Y-0.1219
X-0.7001 Y-0.1574
X-0.6914 Y-0.1925
X-0.6809 Y-0.2272
X-0.6687 Y-0.2612
X-0.6547 Y-0.2946
X-0.6391 Y-0.3272
X-0.6218 Y-0.359
X-0.6029 Y-0.3899
X-0.5826 Y-0.4198
X-0.5608 Y-0.4487
X-0.5375 Y-0.4764
X-0.5129 Y-0.5029
X-0.4869 Y-0.5281
X-0.4597 Y-0.5519
X-0.4313 Y-0.5744
X-0.4019 Y-0.5954
X-0.3714 Y-0.6149
X-0.34 Y-0.6329
X-0.3077 Y-0.6493
X-0.2747 Y-0.6639
X-0.2409 Y-0.6769
X-0.2065 Y-0.6882
X-0.1716 Y-0.6977
X-0.1362 Y-0.7054
X-0.1006 Y-0.7114
X-0.0646 Y-0.7156
X-0.0285 Y-0.718
X0.0076 Y-0.7186
X0.0438 Y-0.7173
X0.0799 Y-0.7141
X0.1157 Y-0.7092
X0.1513 Y-0.7025
X0.1864 Y-0.6941
X0.2212 Y-0.684
X0.2554 Y-0.6721
X0.2889 Y-0.6585
X0.3217 Y-0.6433
X0.3537 Y-0.6265
X0.3849 Y-0.6081
X0.4152 Y-0.5883
X0.4445 Y-0.5671
X0.4728 Y-0.5445
X0.4999 Y-0.5205
X0.5258 Y-0.4953
X0.5505 Y-0.4689
X0.574 Y-0.4413
X0.596 Y-0.4126
X0.6168 Y-0.383
X0.6361 Y-0.3524
X0.654 Y-0.321
X0.6704 Y-0.2887
X0.6852 Y-0.2557
X0.6984 Y-0.222
X0.71 Y-0.1877
X0.7199 Y-0.1529
X0.7282 Y-0.1177
X0.7349 Y-0.0821
X0.7399 Y-0.0463
X0.7431 Y-0.0103
X0.7446 Y0.0259
X0.7444 Y0.0621
X0.7424 Y0.0982
X0.7386 Y0.1342
X0.7332 Y0.1699
X0.7261 Y0.2054
X0.7174 Y0.2405
X0.7069 Y0.2752
X0.6948 Y0.3093
X0.681 Y0.3427
X0.6657 Y0.3755
X0.6488 Y0.4075
X0.6303 Y0.4386
X0.6105 Y0.4689
X0.5892 Y0.4981
X0.5666 Y0.5264
X0.5426 Y0.5535
X0.5173 Y0.5794
X0.4908 Y0.604
X0.4632 Y0.6273
X0.4345 Y0.6494
X0.4048 Y0.67
X0.3741 Y0.6892
X0.3426 Y0.707
X0.3103 Y0.7232
X0.2772 Y0.7379
X0.2434 Y0.7509
X0.2091 Y0.7624
X0.1743 Y0.7722
X0.1391 Y0.7804
X0.1035 Y0.787
X0.0676 Y0.792
X0.0316 Y0.7952
X-0.0045 Y0.7968
X-0.0407 Y0.7966
X-0.0769 Y0.7947
X-0.1129 Y0.7911
X-0.1487 Y0.786
X-0.1842 Y0.7791
X-0.2194 Y0.7707
X-0.2542 Y0.7607
X-0.2884 Y0.7491
X-0.3221 Y0.7358
X-0.3551 Y0.721
X-0.3874 Y0.7048
X-0.419 Y0.687
X-0.4497 Y0.6679
X-0.4795 Y0.6474
X-0.5084 Y0.6256
X-0.5362 Y0.6025
X-0.5629 Y0.5781
X-0.5885 Y0.5525
X-0.6129 Y0.5258
X-0.636 Y0.498
X-0.6579 Y0.4691
X-0.6785 Y0.4394
X-0.6977 Y0.4087
X-0.7156 Y0.3773
X-0.732 Y0.345
X-0.7468 Y0.312
X-0.7602 Y0.2784
X-0.772 Y0.2442
X-0.7822 Y0.2095
X-0.791 Y0.1744
X-0.7981 Y0.1389
X-0.8038 Y0.1032
X-0.8077 Y0.0672
X-0.8101 Y0.0311
X-0.8107 Y-0.0051
X-0.8098 Y-0.0413
X-0.8072 Y-0.0773
X-0.803 Y-0.1133
X-0.7972 Y-0.149
X-0.7899 Y-0.1844
X-0.781 Y-0.2195
X-0.7706 Y-0.2541
X-0.7585 Y-0.2883
X-0.7449 Y-0.3218
X-0.7299 Y-0.3547
X-0.7133 Y-0.3869
X-0.6954 Y-0.4183
X-0.6761 Y-0.4489
X-0.6555 Y-0.4787
X-0.6336 Y-0.5075
X-0.6104 Y-0.5352
X-0.586 Y-0.5619
X-0.5604 Y-0.5875
X-0.5336 Y-0.6118
X-0.5058 Y-0.635
X-0.477 Y-0.6569
X-0.4473 Y-0.6776
X-0.4167 Y-0.6969
X-0.3853 Y-0.7148
X-0.3531 Y-0.7313
X-0.3202 Y-0.7463
X-0.2866 Y-0.7598
X-0.2525 Y-0.7718
X-0.2178 Y-0.7822
X-0.1828 Y-0.7912
X-0.1473 Y-0.7986
X-0.1116 Y-0.8044
X-0.0757 Y-0.8087
X-0.0396 Y-0.8112
X-0.0034 Y-0.8122
X0.0327 Y-0.8115
X0.0688 Y-0.8092
X0.1048 Y-0.8053
X0.1406 Y-0.7999
X0.1761 Y-0.793
X0.2113 Y-0.7844
X0.246 Y-0.7744
X0.2803 Y-0.7627
X0.314 Y-0.7496
X0.3471 Y-0.735
X0.3795 Y-0.719
X0.4112 Y-0.7016
X0.4422 Y-0.6828
X0.4723 Y-0.6628
X0.5016 Y-0.6415
X0.5299 Y-0.619
X0.5572 Y-0.5953
X0.5835 Y-0.5704
X0.6087 Y-0.5444
X0.6327 Y-0.5174
X0.6556 Y-0.4894
X0.6774 Y-0.4604
X0.6979 Y-0.4306
X0.7172 Y-0.4
X0.7351 Y-0.3686
X0.7517 Y-0.3364
X0.7668 Y-0.3036
X0.7806 Y-0.2701
X0.7929 Y-0.2361
X0.8038 Y-0.2016
X0.8133 Y-0.1667
X0.8213 Y-0.1314
X0.8278 Y-0.0958
X0.8329 Y-0.06
X0.8363 Y-0.024
X0.8382 Y0.0122
X0.8385 Y0.0484
X0.8373 Y0.0845
X0.8346 Y0.1206
X0.8303 Y0.1565
X0.8246 Y0.1922
X0.8174 Y0.2277
X0.8086 Y0.2628
X0.7984 Y0.2975
X0.7866 Y0.3317
X0.7734 Y0.3654
X0.7587 Y0.3985
X0.7427 Y0.4309
X0.7253 Y0.4627
X0.7066 Y0.4936
X0.6866 Y0.5238
X0.6654 Y0.5531
X0.6429 Y0.5814
X0.6192 Y0.6088
X0.5943 Y0.6351
X0.5684 Y0.6603
X0.5414 Y0.6844
X0.5134 Y0.7073
X0.4845 Y0.729
X0.4547 Y0.7496
X0.4241 Y0.7688
X0.3926 Y0.7868
X0.3605 Y0.8033
X0.3276 Y0.8184
X0.2941 Y0.8322
X0.2601 Y0.8445
X0.2256 Y0.8555
X0.1907 Y0.865
X0.1554 Y0.873
X0.1199 Y0.8796
X0.084 Y0.8847
X0.048 Y0.8883
X0.0119 Y0.8903
X-0.0243 Y0.8908
X-0.0604 Y0.8898
X-0.0965 Y0.8873
X-0.1325 Y0.8834
X-0.1683 Y0.878
X-0.2038 Y0.8712
X-0.239 Y0.8629
X-0.2739 Y0.8531
X-0.3082 Y0.8418
X-0.3421 Y0.8292
X-0.3755 Y0.8151
X-0.4082 Y0.7998
X-0.4403 Y0.7831
X-0.4717 Y0.7651
X-0.5024 Y0.7459
X-0.5323 Y0.7255
X-0.5612 Y0.7038
X-0.5893 Y0.6809
X-0.6164 Y0.6569
X-0.6425 Y0.6319
X-0.6675 Y0.6058
X-0.6915 Y0.5787
X-0.7144 Y0.5506
X-0.7361 Y0.5217
X-0.7567 Y0.492
X-0.776 Y0.4614
X-0.7941 Y0.43
X-0.8108 Y0.398
X-0.8263 Y0.3652
X-0.8404 Y0.3319
X-0.8531 Y0.298
X-0.8645 Y0.2637
X-0.8745 Y0.2289
X-0.8832 Y0.1938
X-0.8904 Y0.1584
X-0.8962 Y0.1226
X-0.9005 Y0.0867
X-0.9033 Y0.0506
X-0.9047 Y0.0145
X-0.9046 Y-0.0217
X-0.9031 Y-0.0578
X-0.9002 Y-0.0939
X-0.8958 Y-0.1298
X-0.89 Y-0.1655
X-0.8828 Y-0.201
X-0.8742 Y-0.2361
X-0.8641 Y-0.2709
X-0.8526 Y-0.3052
X-0.8397 Y-0.339
X-0.8256 Y-0.3723
X-0.8101 Y-0.405
X-0.7933 Y-0.437
X-0.7753 Y-0.4684
X-0.756 Y-0.4991
X-0.7355 Y-0.5289
X-0.7139 Y-0.5579
X-0.691 Y-0.5859
X-0.6671 Y-0.6131
X-0.6421 Y-0.6392
X-0.616 Y-0.6643
X-0.589 Y-0.6884
X-0.5611 Y-0.7114
X-0.5323 Y-0.7333
X-0.5026 Y-0.754
X-0.4722 Y-0.7735
X-0.4409 Y-0.7918
X-0.4089 Y-0.8087
X-0.3763 Y-0.8244
X-0.3431 Y-0.8387
X-0.3094 Y-0.8518
X-0.2751 Y-0.8634
X-0.2404 Y-0.8738
X-0.2054 Y-0.8827
X-0.17 Y-0.8903
X-0.1343 Y-0.8964
X-0.0985 Y-0.901
X-0.0624 Y-0.9042
X-0.0263 Y-0.906
X0.0099 Y-0.9063
X0.0461 Y-0.9052
X0.0822 Y-0.9026
X0.1181 Y-0.8987
X0.1539 Y-0.8934
X0.1895 Y-0.8866
X0.2247 Y-0.8784
X0.2596 Y-0.8688
X0.2941 Y-0.8578
X0.3281 Y-0.8454
X0.3616 Y-0.8318
X0.3945 Y-0.8168
X0.4269 Y-0.8006
X0.4586 Y-0.7832
X0.4896 Y-0.7646
X0.5199 Y-0.7448
X0.5494 Y-0.7238
X0.578 Y-0.7017
X0.6057 Y-0.6784
X0.6326 Y-0.6542
X0.6585 Y-0.6289
X0.6834 Y-0.6027
X0.7073 Y-0.5755
X0.7302 Y-0.5475
X0.752 Y-0.5186
X0.7727 Y-0.489
X0.7922 Y-0.4585
X0.8106 Y-0.4273
X0.8277 Y-0.3954
X0.8436 Y-0.363
X0.8583 Y-0.3299
X0.8717 Y-0.2963
X0.8838 Y-0.2622
X0.8947 Y-0.2277
X0.9043 Y-0.1928
X0.9125 Y-0.1575
X0.9193 Y-0.122
X0.9248 Y-0.0862
X0.9288 Y-0.0503
X0.9315 Y-0.0142
X0.9328 Y0.022
Y0.0581
X0.9313 Y0.0943
X0.9285 Y0.1304
X0.9244 Y0.1663
X0.9189 Y0.2021
X0.912 Y0.2376
X0.9037 Y0.2728
X0.894 Y0.3077
X0.883 Y0.3421
X0.8707 Y0.3762
X0.8571 Y0.4097
X0.8423 Y0.4427
X0.8262 Y0.4751
X0.8089 Y0.5069
X0.7904 Y0.538
X0.7707 Y0.5683
X0.7498 Y0.5979
X0.7278 Y0.6266
X0.7047 Y0.6545
X0.6806 Y0.6814
X0.6555 Y0.7074
X0.6294 Y0.7325
X0.6023 Y0.7566
X0.5744 Y0.7796
X0.5456 Y0.8015
X0.516 Y0.8223
X0.4856 Y0.8419
X0.4545 Y0.8604
X0.4227 Y0.8776
X0.3903 Y0.8937
X0.3573 Y0.9085
X0.3237 Y0.922
X0.2897 Y0.9343
X0.2552 Y0.9454
X0.2204 Y0.9551
X0.1852 Y0.9634
X0.1497 Y0.9705
X0.1139 Y0.9761
X0.078 Y0.9804
X0.042 Y0.9834
X0.0058 Y0.985
X-0.0304 Y0.9853
X-0.0665 Y0.9842
X-0.1026 Y0.9818
X-0.1386 Y0.9781
X-0.1744 Y0.973
X-0.21 Y0.9665
X-0.2454 Y0.9587
X-0.2804 Y0.9496
X-0.3151 Y0.9392
X-0.3493 Y0.9276
X-0.3831 Y0.9146
X-0.4164 Y0.9005
X-0.4492 Y0.8851
X-0.4813 Y0.8686
X-0.5129 Y0.8509
X-0.5437 Y0.832
X-0.5739 Y0.8119
X-0.6032 Y0.7908
X-0.6318 Y0.7686
X-0.6595 Y0.7453
X-0.6863 Y0.7211
X-0.7123 Y0.6958
X-0.7373 Y0.6697
X-0.7614 Y0.6427
X-0.7844 Y0.6148
X-0.8065 Y0.5861
X-0.8274 Y0.5566
X-0.8472 Y0.5263
X-0.8659 Y0.4953
X-0.8834 Y0.4637
X-0.8998 Y0.4314
X-0.915 Y0.3986
X-0.929 Y0.3652
X-0.9418 Y0.3314
X-0.9534 Y0.2971
X-0.9637 Y0.2624
X-0.9727 Y0.2274
X-0.9804 Y0.192
X-0.9868 Y0.1564
X-0.9919 Y0.1206
X-0.9957 Y0.0846
X-0.9982 Y0.0485
X-0.9994 Y0.0123
X-0.9993 Y-0.0238
X-0.9979 Y-0.06
X-0.9952 Y-0.0961
X-0.9912 Y-0.132
X-0.9858 Y-0.1678
X-0.9792 Y-0.2034
X-0.9712 Y-0.2387
X-0.962 Y-0.2737
X-0.9515 Y-0.3083
X-0.9398 Y-0.3425
X-0.9268 Y-0.3763
X-0.9127 Y-0.4096
X-0.8973 Y-0.4424
X-0.8808 Y-0.4746
X-0.8631 Y-0.5061
X-0.8443 Y-0.537
X-0.8244 Y-0.5672
X-0.8033 Y-0.5966
X-0.7812 Y-0.6253
X-0.7581 Y-0.6531
X-0.734 Y-0.6801
X-0.709 Y-0.7063
X-0.683 Y-0.7315
X-0.6562 Y-0.7557
X-0.6285 Y-0.779
X-0.5999 Y-0.8012
X-0.5706 Y-0.8224
X-0.5405 Y-0.8424
X-0.5097 Y-0.8614
X-0.4782 Y-0.8793
X-0.4461 Y-0.896
X-0.4135 Y-0.9116
X-0.3803 Y-0.9259
X-0.3466 Y-0.9391
X-0.3124 Y-0.951
X-0.2778 Y-0.9617
X-0.2429 Y-0.9712
X-0.2076 Y-0.9793
X-0.1721 Y-0.9862
X-0.1364 Y-0.9917
X-0.1004 Y-0.996
X-0.0644 Y-0.999
X-0.0282 Y-1.0007
X0.0079 Y-1.0011
X0.0441 Y-1.0002
X0.0802 Y-0.998
X0.1162 Y-0.9945
X0.1521 Y-0.9897
X0.1878 Y-0.9835
X0.2232 Y-0.9762
X0.2583 Y-0.9675
X0.2931 Y-0.9576
X0.3275 Y-0.9465
X0.3616 Y-0.9342
X0.3951 Y-0.9206
X0.4282 Y-0.9059
X0.4607 Y-0.89
X0.4926 Y-0.873
X0.5239 Y-0.8549
X0.5546 Y-0.8357
X0.5845 Y-0.8154
X0.6138 Y-0.794
X0.6422 Y-0.7717
X0.6699 Y-0.7484
X0.6967 Y-0.7241
X0.7227 Y-0.699
X0.7478 Y-0.6729
X0.772 Y-0.646
X0.7953 Y-0.6183
X0.8175 Y-0.5898
X0.8388 Y-0.5605
X0.859 Y-0.5305
X0.8782 Y-0.4998
X0.8963 Y-0.4685
X0.9133 Y-0.4365
X0.9293 Y-0.4041
X0.9441 Y-0.371
X0.9577 Y-0.3375
X0.9702 Y-0.3036
X0.9814 Y-0.2692
X0.9915 Y-0.2344
X1.0004 Y-0.1994
X1.008 Y-0.164
X1.0144 Y-0.1284
X1.0196 Y-0.0926
X1.0236 Y-0.0566
X1.0263 Y-0.0205
X1.0277 Y0.0156
X1.0279 Y0.0518
X1.0268 Y0.088
X1.0245 Y0.1241
X1.0209 Y0.1601
X1.016 Y0.1959
X1.0099 Y0.2316
X1.0026 Y0.267
X0.994 Y0.3022
X0.9843 Y0.337
X0.9733 Y0.3715
X0.9611 Y0.4056
X0.9478 Y0.4392
X0.9333 Y0.4724
X0.9176 Y0.505
X0.9008 Y0.537
X0.8829 Y0.5685
X0.8639 Y0.5993
X0.8439 Y0.6294
X0.8228 Y0.6588
X0.8007 Y0.6874
X0.7776 Y0.7153
X0.7536 Y0.7424
X0.7287 Y0.7686
X0.7028 Y0.7939
X0.6761 Y0.8183
X0.6486 Y0.8418
X0.6202 Y0.8642
X0.5911 Y0.8857
X0.5613 Y0.9062
X0.5307 Y0.9256
X0.4996 Y0.944
X0.4678 Y0.9613
X0.4354 Y0.9774
X0.4025 Y0.9925
X0.3691 Y1.0064
X0.3352 Y1.0191
X0.3009 Y1.0307
X0.2663 Y1.041
X0.2313 Y1.0502
X0.196 Y1.0582
X0.1604 Y1.065
X0.1247 Y1.0705
X0.0888 Y1.0748
X0.0527 Y1.078
X0.0166 Y1.0798
X-0.0196 Y1.0804
X-0.0558 Y1.0798
X-0.0919 Y1.078
X-0.128 Y1.0749
X-0.1639 Y1.0706
X-0.1996 Y1.0651
X-0.2352 Y1.0583
X-0.2705 Y1.0504
X-0.3055 Y1.0413
X-0.3402 Y1.031
X-0.3745 Y1.0196
X-0.4084 Y1.007
X-0.4419 Y0.9932
X-0.4749 Y0.9783
X-0.5073 Y0.9623
X-0.5392 Y0.9453
X-0.5706 Y0.9271
X-0.6012 Y0.908
X-0.6313 Y0.8878
X-0.6606 Y0.8666
X-0.6892 Y0.8444
X-0.7171 Y0.8213
X-0.7441 Y0.7973
X-0.7703 Y0.7724
X-0.7957 Y0.7466
X-0.8202 Y0.72
X-0.8438 Y0.6925
X-0.8665 Y0.6643
X-0.8882 Y0.6354
X-0.9089 Y0.6057
X-0.9287 Y0.5754
X-0.9474 Y0.5445
X-0.9651 Y0.5129
X-0.9817 Y0.4807
X-0.9972 Y0.4481
X-1.0116 Y0.4149
X-1.0249 Y0.3812
X-1.0371 Y0.3472
X-1.0481 Y0.3127
X-1.058 Y0.2779
X-1.0668 Y0.2428
X-1.0743 Y0.2074
X-1.0807 Y0.1718
X-1.0859 Y0.136
X-1.0899 Y0.1
X-1.0927 Y0.064
X-1.0943 Y0.0278
X-1.0947 Y-0.0084
X-1.094 Y-0.0445
X-1.092 Y-0.0807
X-1.0888 Y-0.1167
X-1.0844 Y-0.1526
X-1.0788 Y-0.1884
X-1.0721 Y-0.2239
X-1.0642 Y-0.2592
X-1.0551 Y-0.2943
X-1.0449 Y-0.329
X-1.0335 Y-0.3633
X-1.021 Y-0.3972
X-1.0073 Y-0.4308
X-0.9926 Y-0.4638
X-0.9768 Y-0.4963
X-0.9599 Y-0.5283
X-0.9419 Y-0.5598
X-0.923 Y-0.5906
X-0.903 Y-0.6208
X-0.8821 Y-0.6503
X-0.8602 Y-0.6791
X-0.8373 Y-0.7071
X-0.8135 Y-0.7344
X-0.7888 Y-0.7608
X-0.7633 Y-0.7865
X-0.7369 Y-0.8112
X-0.7098 Y-0.8351
X-0.6818 Y-0.8581
X-0.6531 Y-0.8802
X-0.6238 Y-0.9013
X-0.5937 Y-0.9214
X-0.563 Y-0.9405
X-0.5316 Y-0.9586
X-0.4997 Y-0.9756
X-0.4672 Y-0.9916
X-0.4343 Y-1.0065
X-0.4008 Y-1.0203
X-0.3669 Y-1.033
X-0.3326 Y-1.0445
X-0.298 Y-1.0549
X-0.263 Y-1.0642
X-0.2278 Y-1.0723
X-0.1922 Y-1.0793
X-0.1565 Y-1.0851
X-0.1206 Y-1.0897
X-0.0846 Y-1.093
X-0.0485 Y-1.0952
X-0.0123 Y-1.0962
X0.0239 Y-1.0961
X0.06 Y-1.0947
X0.0961 Y-1.0922
X0.1321 Y-1.0884
X0.1679 Y-1.0835
X0.2036 Y-1.0775
X0.2391 Y-1.0702
X0.2742 Y-1.0618
X0.3091 Y-1.0523
X0.3437 Y-1.0416
X0.3779 Y-1.0297
X0.4117 Y-1.0168
X0.4451 Y-1.0028
X0.478 Y-0.9877
X0.5103 Y-0.9716
X0.5422 Y-0.9544
X0.5735 Y-0.9363
X0.6042 Y-0.9171
X0.6342 Y-0.897
X0.6636 Y-0.8758
X0.6923 Y-0.8538
X0.7203 Y-0.8308
X0.7475 Y-0.807
X0.7739 Y-0.7823
X0.7996 Y-0.7568
X0.8244 Y-0.7305
X0.8484 Y-0.7034
X0.8715 Y-0.6756
X0.8938 Y-0.647
X0.9151 Y-0.6178
X0.9355 Y-0.5879
X0.9549 Y-0.5574
X0.9733 Y-0.5262
X0.9907 Y-0.4945
X1.0071 Y-0.4623
X1.0225 Y-0.4295
X1.0369 Y-0.3963
X1.0502 Y-0.3626
X1.0624 Y-0.3286
X1.0735 Y-0.2942
X1.0836 Y-0.2594
X1.0925 Y-0.2244
X1.1003 Y-0.189
X1.107 Y-0.1535
X1.1125 Y-0.1177
X1.1169 Y-0.0818
X1.1202 Y-0.0458
X1.1223 Y-0.0096
X1.1232 Y0.0265
X1.1231 Y0.0627
X1.1217 Y0.0989
X1.1192 Y0.135
X1.1156 Y0.171
X1.1109 Y0.2068
X1.1049 Y0.2425
X1.0979 Y0.278
X1.0897 Y0.3133
X1.0804 Y0.3482
X1.0699 Y0.3829
X1.0584 Y0.4172
X1.0458 Y0.4511
X1.0321 Y0.4846
X1.0174 Y0.5176
X1.0016 Y0.5502
X0.9848 Y0.5822
X0.967 Y0.6137
X0.9481 Y0.6446
X0.9283 Y0.6749
X0.9076 Y0.7045
X0.8859 Y0.7335
X0.8632 Y0.7617
X0.8397 Y0.7892
X0.8154 Y0.816
X0.7902 Y0.8419
X0.7642 Y0.8671
X0.7374 Y0.8914
X0.7098 Y0.9148
X0.6815 Y0.9374
X0.6526 Y0.9591
X0.6229 Y0.9798
X0.5926 Y0.9995
X0.5616 Y1.0183
X0.5301 Y1.0361
X0.4981 Y1.0529
X0.4655 Y1.0687
X0.4325 Y1.0834
X0.399 Y1.0971
X0.3651 Y1.1097
X0.3308 Y1.1213
X0.2962 Y1.1318
X0.2612 Y1.1412
X0.226 Y1.1494
X0.1905 Y1.1565
X0.1548 Y1.1626
X0.119 Y1.1675
X0.083 Y1.1712
X0.0469 Y1.1739
X0.0108 Y1.1754
X-0.0254 Y1.1758
X-0.0616 Y1.1751
X-0.0977 Y1.1732
X-0.1338 Y1.1703
X-0.1697 Y1.1661
X-0.2055 Y1.1609
X-0.2411 Y1.1545
X-0.2765 Y1.1471
X-0.3117 Y1.1385
X-0.3466 Y1.1289
X-0.3811 Y1.1181
X-0.4153 Y1.1063
X-0.4491 Y1.0935
X-0.4826 Y1.0796
X-0.5155 Y1.0647
X-0.548 Y1.0488
X-0.58 Y1.0319
X-0.6115 Y1.014
X-0.6423 Y0.9951
X-0.6726 Y0.9753
X-0.7022 Y0.9545
X-0.7312 Y0.9329
X-0.7595 Y0.9103
X-0.7871 Y0.8869
X-0.814 Y0.8627
X-0.8401 Y0.8377
X-0.8654 Y0.8118
X-0.89 Y0.7852
X-0.9137 Y0.7579
X-0.9365 Y0.7299
X-0.9585 Y0.7011
X-0.9796 Y0.6717
X-0.9997 Y0.6416
X-1.0189 Y0.611
X-1.0372 Y0.5798
X-1.0545 Y0.548
X-1.0709 Y0.5157
X-1.0862 Y0.4829
X-1.1005 Y0.4497
X-1.1139 Y0.4161
X-1.1262 Y0.382
X-1.1374 Y0.3476
X-1.1476 Y0.3129
X-1.1567 Y0.2779
X-1.1647 Y0.2426
X-1.1716 Y0.2071
X-1.1775 Y0.1714
X-1.1822 Y0.1355
X-1.1859 Y0.0995
X-1.1884 Y0.0635
X-1.1899 Y0.0273
X-1.1903 Y-0.0089
X-1.1896 Y-0.0451
X-1.1877 Y-0.0812
X-1.1848 Y-0.1173
X-1.1808 Y-0.1532
X-1.1756 Y-0.189
X-1.1694 Y-0.2247
X-1.1621 Y-0.2601
X-1.1537 Y-0.2953
X-1.1442 Y-0.3302
X-1.1337 Y-0.3648
X-1.1221 Y-0.3991
X-1.1095 Y-0.433
X-1.0959 Y-0.4666
X-1.0813 Y-0.4997
X-1.0657 Y-0.5323
X-1.0491 Y-0.5644
X-1.0315 Y-0.596
X-1.0129 Y-0.6271
X-0.9934 Y-0.6576
X-0.973 Y-0.6875
X-0.9517 Y-0.7167
X-0.9295 Y-0.7453
X-0.9065 Y-0.7732
X-0.8826 Y-0.8004
X-0.8579 Y-0.8268
X-0.8325 Y-0.8525
X-0.8062 Y-0.8774
X-0.7792 Y-0.9015
X-0.7515 Y-0.9248
X-0.7231 Y-0.9472
X-0.694 Y-0.9687
X-0.6643 Y-0.9893
X-0.6339 Y-1.0091
X-0.603 Y-1.0278
X-0.5715 Y-1.0457
X-0.5395 Y-1.0626
X-0.507 Y-1.0785
X-0.4741 Y-1.0934
X-0.4407 Y-1.1073
X-0.4069 Y-1.1202
X-0.3727 Y-1.132
X-0.3381 Y-1.1428
X-0.3033 Y-1.1526
X-0.2682 Y-1.1613
X-0.2328 Y-1.1689
X-0.1972 Y-1.1754
X-0.1614 Y-1.1808
X-0.1255 Y-1.1852
X-0.0895 Y-1.1885
X-0.0534 Y-1.1907
X-0.0172 Y-1.1918
X0.019
X0.0551 Y-1.1907
X0.0913 Y-1.1885
X0.1273 Y-1.1852
X0.1632 Y-1.1808
X0.199 Y-1.1754
X0.2346 Y-1.1688
X0.2699 Y-1.1612
X0.3051 Y-1.1525
X0.3399 Y-1.1428
X0.3745 Y-1.1321
X0.4087 Y-1.1203
X0.4425 Y-1.1075
X0.476 Y-1.0937
X0.509 Y-1.0789
X0.5415 Y-1.0631
X0.5736 Y-1.0464
X0.6052 Y-1.0287
X0.6362 Y-1.0101
X0.6666 Y-0.9905
X0.6965 Y-0.9701
X0.7258 Y-0.9488
X0.7544 Y-0.9267
X0.7823 Y-0.9037
X0.8096 Y-0.8799
X0.8361 Y-0.8553
X0.862 Y-0.83
X0.887 Y-0.8039
X0.9113 Y-0.777
X0.9348 Y-0.7495
X0.9574 Y-0.7213
X0.9793 Y-0.6925
X1.0002 Y-0.663
X1.0204 Y-0.6329
X1.0396 Y-0.6022
X1.0579 Y-0.571
X1.0753 Y-0.5393
X1.0918 Y-0.5071
X1.1073 Y-0.4744
X1.1219 Y-0.4413
X1.1354 Y-0.4078
X1.148 Y-0.3738
X1.1596 Y-0.3396
X1.1702 Y-0.305
X1.1798 Y-0.2701
X1.1883 Y-0.2349
X1.1958 Y-0.1995
X1.2023 Y-0.1639
X1.2077 Y-0.1281
X1.2121 Y-0.0922
X1.2154 Y-0.0562
X1.2177 Y-0.0201
X1.2189 Y0.0161
X1.219 Y0.0523
X1.2181 Y0.0884
X1.2161 Y0.1246
X1.213 Y0.1606
X1.2089 Y0.1966
X1.2037 Y0.2324
X1.1975 Y0.268
X1.1902 Y0.3035
X1.1819 Y0.3387
X1.1726 Y0.3736
X1.1623 Y0.4083
X1.1509 Y0.4427
X1.1385 Y0.4767
X1.1252 Y0.5103
X1.1108 Y0.5435
X1.0955 Y0.5763
X1.0792 Y0.6086
X1.062 Y0.6404
X1.0438 Y0.6717
X1.0247 Y0.7024
X1.0048 Y0.7326
X0.9839 Y0.7622
X0.9622 Y0.7911
X0.9397 Y0.8194
X0.9163 Y0.8471
X0.8922 Y0.874
X0.8672 Y0.9002
X0.8415 Y0.9257
X0.8151 Y0.9504
X0.7879 Y0.9743
X0.7601 Y0.9974
X0.7315 Y1.0196
X0.7024 Y1.0411
X0.6726 Y1.0616
X0.6423 Y1.0813
X0.6114 Y1.1001
X0.5799 Y1.118
X0.548 Y1.135
X0.5155 Y1.151
X0.4826 Y1.1661
X0.4493 Y1.1801
X0.4156 Y1.1933
X0.3815 Y1.2054
X0.347 Y1.2165
X0.3123 Y1.2267
X0.2773 Y1.2358
X0.242 Y1.2439
X0.2065 Y1.2509
X0.1709 Y1.257
X0.135 Y1.262
X0.0991 Y1.266
X0.063 Y1.2689
X0.0269 Y1.2708
X-0.0093 Y1.2716
X-0.0455 Y1.2714
X-0.0816 Y1.2701
X-0.1177 Y1.2678
X-0.1538 Y1.2644
X-0.1897 Y1.2601
X-0.2255 Y1.2547
X-0.2611 Y1.2482
X-0.2965 Y1.2408
X-0.3317 Y1.2323
X-0.3666 Y1.2228
X-0.4012 Y1.2124
X-0.4355 Y1.2009
X-0.4695 Y1.1884
X-0.5031 Y1.175
X-0.5363 Y1.1606
X-0.5691 Y1.1453
X-0.6014 Y1.1291
X-0.6332 Y1.1119
X-0.6646 Y1.0938
X-0.6954 Y1.0749
X-0.7257 Y1.055
X-0.7554 Y1.0344
X-0.7845 Y1.0128
X-0.8129 Y0.9905
X-0.8407 Y0.9673
X-0.8678 Y0.9434
X-0.8943 Y0.9187
X-0.92 Y0.8933
X-0.945 Y0.8671
X-0.9693 Y0.8403
X-0.9927 Y0.8127
X-1.0154 Y0.7845
X-1.0373 Y0.7557
X-1.0583 Y0.7263
X-1.0785 Y0.6963
X-1.0979 Y0.6657
X-1.1164 Y0.6346
X-1.1339 Y0.6029
X-1.1506 Y0.5708
X-1.1663 Y0.5382
X-1.1812 Y0.5052
X-1.195 Y0.4718
X-1.208 Y0.438
X-1.2199 Y0.4039
X-1.2309 Y0.3694
X-1.241 Y0.3347
X-1.25 Y0.2996
X-1.2581 Y0.2644
X-1.2651 Y0.2289
X-1.2712 Y0.1932
X-1.2762 Y0.1574
X-1.2802 Y0.1214
X-1.2832 Y0.0853
X-1.2851 Y0.0492
X-1.2861 Y0.013
X-1.286 Y-0.0231
X-1.2849 Y-0.0593
X-1.2828 Y-0.0954
X-1.2797 Y-0.1315
X-1.2756 Y-0.1674
X-1.2704 Y-0.2032
X-1.2643 Y-0.2389
X-1.2571 Y-0.2744
X-1.249 Y-0.3096
X-1.2398 Y-0.3446
X-1.2297 Y-0.3793
X-1.2186 Y-0.4138
X-1.2065 Y-0.4479
X-1.1934 Y-0.4816
X-1.1795 Y-0.515
X-1.1646 Y-0.548
X-1.1487 Y-0.5805
X-1.132 Y-0.6126
X-1.1144 Y-0.6442
X-1.0959 Y-0.6753
X-1.0765 Y-0.7058
X-1.0563 Y-0.7358
X-1.0352 Y-0.7652
X-1.0133 Y-0.794
X-0.9906 Y-0.8222
X-0.9671 Y-0.8497
X-0.9428 Y-0.8766
X-0.9178 Y-0.9028
X-0.8921 Y-0.9282
X-0.8657 Y-0.9529
X-0.8386 Y-0.9769
X-0.8108 Y-1.0001
X-0.7824 Y-1.0225
X-0.7534 Y-1.0441
X-0.7238 Y-1.0649
X-0.6936 Y-1.0848
X-0.6628 Y-1.1039
X-0.6316 Y-1.1221
X-0.5998 Y-1.1394
X-0.5675 Y-1.1558
X-0.5348 Y-1.1713
X-0.5017 Y-1.1859
X-0.4682 Y-1.1995
X-0.4343 Y-1.2122
X-0.4001 Y-1.2239
X-0.3656 Y-1.2347
X-0.3307 Y-1.2445
X-0.2957 Y-1.2533
X-0.2603 Y-1.2612
X-0.2248 Y-1.268
X-0.1891 Y-1.2738
X-0.1532 Y-1.2786
X-0.1172 Y-1.2824
X-0.0812 Y-1.2852
X-0.045 Y-1.287
X-0.0089 Y-1.2878
X0.0273 Y-1.2875
X0.0635 Y-1.2863
X0.0996 Y-1.284
X0.1356 Y-1.2808
X0.1716 Y-1.2765
X0.2074 Y-1.2712
X0.243 Y-1.2649
X0.2784 Y-1.2577
X0.3137 Y-1.2494
X0.3486 Y-1.2401
X0.3833 Y-1.2299
X0.4178 Y-1.2188
X0.4519 Y-1.2066
X0.4856 Y-1.1936
X0.519 Y-1.1796
X0.5519 Y-1.1647
X0.5845 Y-1.1489
X0.6166 Y-1.1322
X0.6482 Y-1.1147
X0.6794 Y-1.0962
X0.71 Y-1.0769
X0.74 Y-1.0568
X0.7695 Y-1.0358
X0.7985 Y-1.0141
X0.8268 Y-0.9916
X0.8545 Y-0.9683
X0.8815 Y-0.9443
X0.9079 Y-0.9195
X0.9336 Y-0.894
X0.9586 Y-0.8679
X0.9829 Y-0.841
X1.0064 Y-0.8136
X1.0292 Y-0.7855
X1.0512 Y-0.7567
X1.0724 Y-0.7274
X1.0928 Y-0.6976
X1.1124 Y-0.6671
X1.1312 Y-0.6362
X1.1491 Y-0.6048
X1.1661 Y-0.5728
X1.1823 Y-0.5405
X1.1976 Y-0.5077
X1.212 Y-0.4745
X1.2255 Y-0.4409
X1.2381 Y-0.407
X1.2498 Y-0.3728
X1.2606 Y-0.3382
X1.2703 Y-0.3034
X1.2792 Y-0.2683
X1.287 Y-0.233
X1.2939 Y-0.1975
X1.2998 Y-0.1618
X1.3048 Y-0.1259
X1.3088 Y-0.09
X1.3118 Y-0.0539
X1.3138 Y-0.0178
X1.3149 Y0.0184
X1.315 Y0.0546
X1.3141 Y0.0907
X1.3122 Y0.1269
X1.3093 Y0.1629
X1.3054 Y0.1989
X1.3005 Y0.2348
X1.2947 Y0.2705
X1.2879 Y0.306
X1.2801 Y0.3413
X1.2714 Y0.3764
X1.2617 Y0.4113
X1.251 Y0.4459
X1.2395 Y0.4802
X1.227 Y0.5141
X1.2135 Y0.5477
X1.1992 Y0.581
X1.184 Y0.6138
X1.1679 Y0.6462
X1.1509 Y0.6781
X1.133 Y0.7096
X1.1143 Y0.7405
X1.0947 Y0.7709
X1.0743 Y0.8008
X1.0531 Y0.8302
X1.0311 Y0.8589
X1.0084 Y0.887
X0.9848 Y0.9145
X0.9606 Y0.9414
X0.9356 Y0.9676
X0.91 Y0.9931
X0.8836 Y1.0178
X0.8566 Y1.0419
X0.8289 Y1.0652
X0.8006 Y1.0877
X0.7717 Y1.1095
X0.7422 Y1.1305
X0.7121 Y1.1506
X0.6816 Y1.17
X0.6505 Y1.1885
X0.6189 Y1.2061
X0.5868 Y1.2229
X0.5543 Y1.2388
X0.5214 Y1.2539
X0.4881 Y1.268
X0.4545 Y1.2813
X0.4205 Y1.2936
X0.3861 Y1.305
X0.3515 Y1.3154
X0.3166 Y1.325
X0.2814 Y1.3335
X0.246 Y1.3411
X0.2105 Y1.3478
X0.1747 Y1.3535
X0.1389 Y1.3583
X0.1029 Y1.3621
X0.0668 Y1.3649
X0.0307 Y1.3667
X-0.0055 Y1.3676
X-0.0417
X-0.0778 Y1.3665
X-0.114 Y1.3645
X-0.15 Y1.3614
X-0.186 Y1.3575
X-0.2218 Y1.3525
X-0.2575 Y1.3466
X-0.293 Y1.3398
X-0.3284 Y1.332
X-0.3635 Y1.3233
X-0.3984 Y1.3136
X-0.433 Y1.3031
X-0.4673 Y1.2916
X-0.5013 Y1.2792
X-0.5349 Y1.2659
X-0.5682 Y1.2517
X-0.6011 Y1.2366
X-0.6336 Y1.2206
X-0.6656 Y1.2038
X-0.6972 Y1.1861
X-0.7283 Y1.1676
X-0.7589 Y1.1483
X-0.7889 Y1.1282
X-0.8185 Y1.1073
X-0.8474 Y1.0856
X-0.8758 Y1.0632
X-0.9036 Y1.04
X-0.9308 Y1.0161
X-0.9573 Y0.9915
X-0.9831 Y0.9662
X-1.0083 Y0.9402
X-1.0328 Y0.9136
X-1.0565 Y0.8863
X-1.0796 Y0.8584
X-1.1019 Y0.8299
X-1.1234 Y0.8008
X-1.1441 Y0.7711
X-1.1641 Y0.741
X-1.1833 Y0.7103
X-1.2016 Y0.6791
X-1.2191 Y0.6474
X-1.2358 Y0.6153
X-1.2517 Y0.5828
X-1.2666 Y0.5499
X-1.2807 Y0.5165
X-1.2939 Y0.4828
X-1.3062 Y0.4488
X-1.3176 Y0.4145
X-1.3281 Y0.3799
X-1.3377 Y0.345
X-1.3464 Y0.3098
X-1.3542 Y0.2745
X-1.361 Y0.239
X-1.3669 Y0.2033
X-1.3718 Y0.1674
X-1.3758 Y0.1315
X-1.3789 Y0.0954
X-1.381 Y0.0593
X-1.3821 Y0.0231
X-1.3823 Y-0.0131
X-1.3816 Y-0.0492
X-1.3799 Y-0.0854
X-1.3772 Y-0.1215
X-1.3736 Y-0.1575
X-1.3691 Y-0.1934
X-1.3636 Y-0.2291
X-1.3572 Y-0.2647
X-1.3499 Y-0.3002
X-1.3416 Y-0.3354
X-1.3324 Y-0.3704
X-1.3223 Y-0.4051
X-1.3114 Y-0.4396
X-1.2995 Y-0.4738
X-1.2867 Y-0.5076
X-1.273 Y-0.5411
X-1.2584 Y-0.5742
X-1.243 Y-0.607
X-1.2267 Y-0.6393
X-1.2096 Y-0.6711
X-1.1916 Y-0.7026
X-1.1729 Y-0.7335
X-1.1533 Y-0.7639
X-1.133 Y-0.7939
X-1.1119 Y-0.8232
X-1.09 Y-0.8521
X-1.0673 Y-0.8803
X-1.044 Y-0.9079
X-1.0199 Y-0.9349
X-0.9951 Y-0.9613
X-0.9697 Y-0.987
X-0.9435 Y-1.012
X-0.9167 Y-1.0363
X-0.8893 Y-1.06
X-0.8613 Y-1.0829
X-0.8327 Y-1.105
X-0.8036 Y-1.1265
X-0.7738 Y-1.1471
X-0.7436 Y-1.1669
X-0.7128 Y-1.186
X-0.6816 Y-1.2043
X-0.6499 Y-1.2217
X-0.6177 Y-1.2383
X-0.5852 Y-1.254
X-0.5522 Y-1.2689
X-0.5188 Y-1.2829
X-0.4851 Y-1.296
X-0.4511 Y-1.3083
X-0.4167 Y-1.3196
X-0.3821 Y-1.3301
X-0.3472 Y-1.3396
X-0.312 Y-1.3482
X-0.2767 Y-1.3559
X-0.2411 Y-1.3627
X-0.2054 Y-1.3686
X-0.1696 Y-1.3735
X-0.1336 Y-1.3775
X-0.0976 Y-1.3805
X-0.0614 Y-1.3826
X-0.0253 Y-1.3838
X0.0109 Y-1.384
X0.0471 Y-1.3832
X0.0832 Y-1.3815
X0.1193 Y-1.3789
X0.1553 Y-1.3754
X0.1912 Y-1.3709
X0.227 Y-1.3654
X0.2626 Y-1.3591
X0.298 Y-1.3518
X0.3333 Y-1.3436
X0.3683 Y-1.3345
X0.4031 Y-1.3245
X0.4376 Y-1.3136
X0.4718 Y-1.3018
X0.5057 Y-1.2891
X0.5392 Y-1.2756
X0.5724 Y-1.2612
X0.6052 Y-1.2459
X0.6376 Y-1.2298
X0.6696 Y-1.2129
X0.7012 Y-1.1952
X0.7322 Y-1.1767
X0.7628 Y-1.1573
X0.7929 Y-1.1372
X0.8225 Y-1.1164
X0.8515 Y-1.0948
X0.88 Y-1.0724
X0.9078 Y-1.0494
X0.9351 Y-1.0256
X0.9618 Y-1.0011
X0.9878 Y-0.976
X1.0132 Y-0.9502
X1.0379 Y-0.9238
X1.062 Y-0.8968
X1.0853 Y-0.8692
X1.108 Y-0.841
X1.1299 Y-0.8122
X1.1511 Y-0.7829
X1.1716 Y-0.753
X1.1913 Y-0.7227
X1.2102 Y-0.6918
X1.2283 Y-0.6605
X1.2456 Y-0.6287
X1.2621 Y-0.5965
X1.2778 Y-0.5639
X1.2927 Y-0.5309
X1.3067 Y-0.4976
X1.3198 Y-0.4639
X1.3322 Y-0.4299
X1.3436 Y-0.3955
X1.3542 Y-0.3609
X1.3639 Y-0.3261
X1.3727 Y-0.291
X1.3806 Y-0.2557
X1.3877 Y-0.2202
X1.3938 Y-0.1845
X1.399 Y-0.1487
X1.4033 Y-0.1128
X1.4067 Y-0.0768
X1.4091 Y-0.0407
X1.4107 Y-0.0045
X1.4113 Y0.0317
X1.411 Y0.0678
X1.4098 Y0.104
X1.4077 Y0.1401
X1.4047 Y0.1762
X1.4007 Y0.2121
X1.3959 Y0.248
X1.3901 Y0.2837
X1.3835 Y0.3193
X1.3759 Y0.3547
X1.3674 Y0.3898
X1.358 Y0.4248
X1.3477 Y0.4595
X1.3366 Y0.4939
X1.3246 Y0.528
X1.3117 Y0.5618
X1.298 Y0.5953
X1.2834 Y0.6284
X1.268 Y0.6612
X1.2518 Y0.6935
X1.2347 Y0.7254
X1.2168 Y0.7569
X1.1982 Y0.7879
X1.1788 Y0.8184
X1.1586 Y0.8484
X1.1376 Y0.8779
X1.1159 Y0.9068
X1.0934 Y0.9352
X1.0702 Y0.963
X1.0464 Y0.9902
X1.0219 Y1.0168
X0.9967 Y1.0428
X0.9708 Y1.0681
X0.9443 Y1.0927
X0.9172 Y1.1167
X0.8895 Y1.14
X0.8612 Y1.1625
X0.8324 Y1.1844
X0.803 Y1.2055
X0.7731 Y1.2258
X0.7427 Y1.2454
X0.7117 Y1.2642
X0.6804 Y1.2822
X0.6485 Y1.2994
X0.6163 Y1.3158
X0.5836 Y1.3314
X0.5506 Y1.3462
X0.5172 Y1.3601
X0.4835 Y1.3732
X0.4494 Y1.3854
X0.4151 Y1.3968
X0.3805 Y1.4073
X0.3456 Y1.4169
X0.3105 Y1.4257
X0.2751 Y1.4335
X0.2396 Y1.4405
X0.204 Y1.4465
X0.1682 Y1.4517
X0.1322 Y1.456
X0.0962 Y1.4593
X0.0601 Y1.4618
X0.024 Y1.4633
X-0.0122 Y1.464
X-0.0484 Y1.4637
X-0.0846 Y1.4626
X-0.1207 Y1.4605
X-0.1568 Y1.4576
X-0.1927 Y1.4537
X-0.2286 Y1.449
X-0.2643 Y1.4433
X-0.2999 Y1.4367
X-0.3353 Y1.4293
X-0.3705 Y1.421
X-0.4055 Y1.4118
X-0.4403 Y1.4017
X-0.4748 Y1.3908
X-0.509 Y1.379
X-0.5429 Y1.3664
X-0.5765 Y1.3529
X-0.6097 Y1.3386
X-0.6426 Y1.3235
X-0.6751 Y1.3076
X-0.7072 Y1.2909
X-0.7388 Y1.2734
X-0.77 Y1.2551
X-0.8008 Y1.236
X-0.8311 Y1.2162
X-0.8608 Y1.1956
X-0.8901 Y1.1743
X-0.9188 Y1.1522
X-0.9469 Y1.1295
X-0.9745 Y1.1061
X-1.0015 Y1.082
X-1.0279 Y1.0573
X-1.0537 Y1.0319
X-1.0788 Y1.0059
X-1.1033 Y0.9792
X-1.1272 Y0.952
X-1.1503 Y0.9242
X-1.1728 Y0.8958
X-1.1945 Y0.8669
X-1.2155 Y0.8375
X-1.2358 Y0.8075
X-1.2553 Y0.7771
X-1.2741 Y0.7461
X-1.2922 Y0.7148
X-1.3094 Y0.683
X-1.3259 Y0.6507
X-1.3415 Y0.6181
X-1.3564 Y0.5851
X-1.3704 Y0.5518
X-1.3836 Y0.5181
X-1.396 Y0.4841
X-1.4076 Y0.4498
X-1.4183 Y0.4152
X-1.4281 Y0.3804
X-1.4371 Y0.3454
X-1.4452 Y0.3101
X-1.4524 Y0.2747
X-1.4588 Y0.239
X-1.4643 Y0.2033
X-1.4689 Y0.1674
X-1.4726 Y0.1314
X-1.4755 Y0.0953
X-1.4774 Y0.0592
X-1.4785 Y0.023
X-1.4787 Y-0.0131
X-1.478 Y-0.0493
X-1.4765 Y-0.0855
X-1.474 Y-0.1216
X-1.4706 Y-0.1576
X-1.4664 Y-0.1935
X-1.4613 Y-0.2293
X-1.4553 Y-0.265
X-1.4484 Y-0.3005
X-1.4406 Y-0.3359
X-1.432 Y-0.371
X-1.4226 Y-0.4059
X-1.4123 Y-0.4406
X-1.4011 Y-0.475
X-1.3891 Y-0.5092
X-1.3763 Y-0.543
X-1.3626 Y-0.5765
X-1.3482 Y-0.6097
X-1.3329 Y-0.6425
X-1.3168 Y-0.6749
X-1.3 Y-0.7069
X-1.2823 Y-0.7385
X-1.2639 Y-0.7696
X-1.2447 Y-0.8003
X-1.2248 Y-0.8305
X-1.2041 Y-0.8602
X-1.1828 Y-0.8894
X-1.1607 Y-0.9181
X-1.1379 Y-0.9462
X-1.1145 Y-0.9738
X-1.0903 Y-1.0007
X-1.0656 Y-1.0271
X-1.0402 Y-1.0529
X-1.0141 Y-1.078
X-0.9875 Y-1.1025
X-0.9603 Y-1.1263
X-0.9325 Y-1.1495
X-0.9041 Y-1.1719
X-0.8752 Y-1.1937
X-0.8457 Y-1.2147
X-0.8158 Y-1.235
X-0.7854 Y-1.2546
X-0.7545 Y-1.2734
X-0.7231 Y-1.2915
X-0.6914 Y-1.3088
X-0.6592 Y-1.3253
X-0.6266 Y-1.3411
X-0.5936 Y-1.356
X-0.5603 Y-1.3701
X-0.5267 Y-1.3834
X-0.4927 Y-1.3959
X-0.4584 Y-1.4075
X-0.4239 Y-1.4183
X-0.3891 Y-1.4282
X-0.3541 Y-1.4373
X-0.3189 Y-1.4455
X-0.2834 Y-1.4529
X-0.2478 Y-1.4594
X-0.2121 Y-1.4651
X-0.1762 Y-1.4698
X-0.1403 Y-1.4737
X-0.1042 Y-1.4767
X-0.0681 Y-1.4788
X-0.0319 Y-1.4801
X0.0043 Y-1.4805
X0.0404 Y-1.4799
X0.0766 Y-1.4785
X0.1127 Y-1.4762
X0.1487 Y-1.473
X0.1847 Y-1.469
X0.2205 Y-1.4641
X0.2563 Y-1.4583
X0.2918 Y-1.4516
X0.3272 Y-1.4441
X0.3624 Y-1.4357
X0.3974 Y-1.4265
X0.4322 Y-1.4165
X0.4667 Y-1.4056
X0.5009 Y-1.3938
X0.5348 Y-1.3813
X0.5685 Y-1.3679
X0.6017 Y-1.3538
X0.6347 Y-1.3388
X0.6672 Y-1.323
X0.6994 Y-1.3064
X0.7312 Y-1.2891
X0.7625 Y-1.271
X0.7934 Y-1.2522
X0.8239 Y-1.2327
X0.8538 Y-1.2124
X0.8833 Y-1.1914
X0.9123 Y-1.1697
X0.9407 Y-1.1474
X0.9686 Y-1.1243
X0.996 Y-1.1006
X1.0227 Y-1.0763
X1.0489 Y-1.0513
X1.0745 Y-1.0257
X1.0994 Y-0.9995
X1.1238 Y-0.9727
X1.1475 Y-0.9454
X1.1705 Y-0.9175
X1.1928 Y-0.889
X1.2145 Y-0.8601
X1.2355 Y-0.8306
X1.2558 Y-0.8006
X1.2754 Y-0.7702
X1.2942 Y-0.7393
X1.3123 Y-0.708
X1.3297 Y-0.6762
X1.3463 Y-0.6441
X1.3621 Y-0.6116
X1.3772 Y-0.5787
X1.3914 Y-0.5454
X1.4049 Y-0.5118
X1.4176 Y-0.4779
X1.4294 Y-0.4437
X1.4405 Y-0.4093
X1.4507 Y-0.3746
X1.4601 Y-0.3396
X1.4687 Y-0.3045
X1.4764 Y-0.2692
X1.4833 Y-0.2336
X1.4894 Y-0.198
X1.4946 Y-0.1622
X1.4989 Y-0.1262
X1.5024 Y-0.0902
X1.5051 Y-0.0541
X1.5068 Y-0.018
X1.5077 Y0.0182
X1.5078 Y0.0543
X1.507 Y0.0905
X1.5053 Y0.1267
X1.5028 Y0.1628
X1.4994 Y0.1988
X1.4951 Y0.2347
X1.4901 Y0.2705
X1.4841 Y0.3062
X1.4773 Y0.3418
X1.4697 Y0.3771
X1.4612 Y0.4123
X1.4519 Y0.4473
X1.4418 Y0.482
X1.4308 Y0.5165
X1.419 Y0.5507
X1.4064 Y0.5846
X1.393 Y0.6182
X1.3788 Y0.6515
X1.3638 Y0.6844
X1.3481 Y0.717
X1.3315 Y0.7492
X1.3142 Y0.7809
X1.2962 Y0.8123
X1.2774 Y0.8432
X1.2579 Y0.8737
X1.2376 Y0.9037
X1.2167 Y0.9332
X1.195 Y0.9622
X1.1727 Y0.9907
X1.1497 Y1.0186
X1.126 Y1.046
X1.1017 Y1.0728
X1.0768 Y1.099
X1.0512 Y1.1246
X1.0251 Y1.1496
X0.9983 Y1.1739
X0.971 Y1.1977
X0.9431 Y1.2207
X0.9147 Y1.2431
X0.8858 Y1.2649
X0.8564 Y1.2859
X0.8264 Y1.3062
X0.796 Y1.3259
X0.7652 Y1.3448
X0.7339 Y1.3629
X0.7022 Y1.3803
X0.67 Y1.397
X0.6375 Y1.4128
X0.6046 Y1.4279
X0.5714 Y1.4423
X0.5379 Y1.4558
X0.504 Y1.4685
X0.4698 Y1.4805
X0.4354 Y1.4916
X0.4007 Y1.5019
X0.3658 Y1.5114
X0.3307 Y1.5201
X0.2954 Y1.5279
X0.2599 Y1.5349
X0.2242 Y1.5411
X0.1884 Y1.5464
X0.1525 Y1.5509
X0.1165 Y1.5545
X0.0805 Y1.5573
X0.0443 Y1.5592
X0.0082 Y1.5603
X-0.028 Y1.5606
X-0.0642 Y1.5599
X-0.1004 Y1.5585
X-0.1365 Y1.5562
X-0.1725 Y1.553
X-0.2085 Y1.549
X-0.2443 Y1.5442
X-0.2801 Y1.5385
X-0.3157 Y1.532
X-0.3511 Y1.5247
X-0.3863 Y1.5166
X-0.4214 Y1.5076
X-0.4562 Y1.4978
X-0.4908 Y1.4871
X-0.5251 Y1.4757
X-0.5592 Y1.4635
X-0.5929 Y1.4505
X-0.6264 Y1.4367
X-0.6595 Y1.4221
X-0.6923 Y1.4068
X-0.7247 Y1.3907
X-0.7567 Y1.3739
X-0.7883 Y1.3563
X-0.8196 Y1.338
X-0.8503 Y1.3189
X-0.8807 Y1.2992
X-0.9105 Y1.2788
X-0.9399 Y1.2576
X-0.9687 Y1.2358
X-0.9971 Y1.2133
X-1.0249 Y1.1902
X-1.0522 Y1.1664
X-1.0789 Y1.142
X-1.105 Y1.117
X-1.1306 Y1.0914
X-1.1556 Y1.0652
X-1.1799 Y1.0385
X-1.2037 Y1.0111
X-1.2267 Y0.9833
X-1.2492 Y0.9549
X-1.271 Y0.926
X-1.2921 Y0.8966
X-1.3125 Y0.8667
X-1.3322 Y0.8364
X-1.3512 Y0.8056
X-1.3695 Y0.7744
X-1.387 Y0.7427
X-1.4038 Y0.7107
X-1.4199 Y0.6783
X-1.4352 Y0.6455
X-1.4498 Y0.6124
X-1.4636 Y0.579
X-1.4766 Y0.5452
X-1.4889 Y0.5112
X-1.5003 Y0.4768
X-1.511 Y0.4423
X-1.5209 Y0.4074
X-1.5299 Y0.3724
X-1.5382 Y0.3372
X-1.5456 Y0.3018
X-1.5522 Y0.2662
X-1.558 Y0.2305
X-1.5629 Y0.1946
X-1.5671 Y0.1587
X-1.5704 Y0.1227
X-1.5728 Y0.0866
X-1.5745 Y0.0504
X-1.5753 Y0.0143
X-1.5752 Y-0.0219
X-1.5744 Y-0.0581
X-1.5727 Y-0.0942
X-1.5702 Y-0.1303
X-1.5669 Y-0.1664
X-1.5627 Y-0.2023
X-1.5577 Y-0.2381
X-1.5519 Y-0.2739
X-1.5452 Y-0.3094
X-1.5377 Y-0.3448
X-1.5294 Y-0.38
X-1.5203 Y-0.4151
X-1.5104 Y-0.4499
X-1.4998 Y-0.4844
X-1.4883 Y-0.5187
X-1.476 Y-0.5528
X-1.463 Y-0.5865
X-1.4492 Y-0.62
X-1.4346 Y-0.6531
X-1.4192 Y-0.6859
X-1.4032 Y-0.7183
X-1.3863 Y-0.7503
X-1.3688 Y-0.7819
X-1.3505 Y-0.8132
X-1.3315 Y-0.844
X-1.3118 Y-0.8743
X-1.2914 Y-0.9042
X-1.2703 Y-0.9336
X-1.2486 Y-0.9625
X-1.2262 Y-0.9909
X-1.2031 Y-1.0188
X-1.1794 Y-1.0462
X-1.1551 Y-1.073
X-1.1302 Y-1.0992
X-1.1047 Y-1.1249
X-1.0786 Y-1.15
X-1.052 Y-1.1744
X-1.0248 Y-1.1983
X-0.997 Y-1.2215
X-0.9688 Y-1.2441
X-0.94 Y-1.266
X-0.9107 Y-1.2872
X-0.8809 Y-1.3078
X-0.8507 Y-1.3276
X-0.82 Y-1.3468
X-0.7889 Y-1.3653
X-0.7573 Y-1.383
X-0.7254 Y-1.4
X-0.6931 Y-1.4163
X-0.6604 Y-1.4319
X-0.6274 Y-1.4467
X-0.594 Y-1.4607
X-0.5604 Y-1.474
X-0.5264 Y-1.4864
X-0.4922 Y-1.4981
X-0.4577 Y-1.5091
X-0.423 Y-1.5192
X-0.388 Y-1.5285
X-0.3528 Y-1.537
X-0.3175 Y-1.5447
X-0.2819 Y-1.5516
X-0.2463 Y-1.5576
X-0.2105 Y-1.5629
X-0.1746 Y-1.5673
X-0.1386 Y-1.5709
X-0.1025 Y-1.5737
X-0.0664 Y-1.5756
X-0.0302 Y-1.5768
X0.006 Y-1.5771
X0.0422 Y-1.5765
X0.0783 Y-1.5752
X0.1144 Y-1.573
X0.1505 Y-1.57
X0.1865 Y-1.5662
X0.2224 Y-1.5615
X0.2581 Y-1.556
X0.2938 Y-1.5497
X0.3292 Y-1.5426
X0.3645 Y-1.5347
X0.3997 Y-1.526
X0.4346 Y-1.5165
X0.4692 Y-1.5062
X0.5037 Y-1.4951
X0.5379 Y-1.4833
X0.5718 Y-1.4706
X0.6054 Y-1.4572
X0.6387 Y-1.4431
X0.6717 Y-1.4282
X0.7043 Y-1.4126
X0.7366 Y-1.3962
X0.7684 Y-1.3791
X0.7999 Y-1.3612
X0.831 Y-1.3427
X0.8616 Y-1.3235
X0.8919 Y-1.3036
X0.9216 Y-1.283
X0.9509 Y-1.2617
X0.9797 Y-1.2398
X1.008 Y-1.2173
X1.0358 Y-1.1941
X1.0631 Y-1.1703
X1.0898 Y-1.146
X1.116 Y-1.121
X1.1416 Y-1.0954
X1.1666 Y-1.0693
X1.1911 Y-1.0426
X1.2149 Y-1.0154
X1.2381 Y-0.9877
X1.2607 Y-0.9594
X1.2827 Y-0.9306
X1.304 Y-0.9014
X1.3246 Y-0.8717
X1.3446 Y-0.8415
X1.3639 Y-0.8109
X1.3825 Y-0.7799
X1.4005 Y-0.7485
X1.4177 Y-0.7167
X1.4342 Y-0.6845
X1.45 Y-0.6519
X1.4651 Y-0.619
X1.4794 Y-0.5858
X1.4857 Y-0.5703
X1.4863 Y-0.5686
X1.4911 Y-0.5548
X1.5238 Y-0.4602
X1.5251 Y-0.4561
X1.532 Y-0.4312
X1.536 Y-0.415
X1.5579 Y-0.3246
X1.5598 Y-0.3164
X1.5649 Y-0.2918
X1.5697 Y-0.2589
X1.5838 Y-0.1603
X1.585 Y-0.152
X1.5867 Y-0.1192
X1.5914 Y-0.0205
X1.5917 Y-0.0123
Y0.0123
X1.5914 Y0.0205
X1.5863 Y0.1274
X1.585 Y0.152
X1.5838 Y0.1603
X1.5661 Y0.2835
X1.5649 Y0.2919
X1.5598 Y0.3164
X1.5579 Y0.3246
X1.534 Y0.4233
X1.5319 Y0.4315
X1.5251 Y0.4561
X1.5238 Y0.4602
X1.4883 Y0.563
X1.4854 Y0.5712
X1.4763 Y0.5959
X1.4745 Y0.6
X1.4252 Y0.7079
X1.4118 Y0.7356
X1.4088 Y0.7409
X1.3502 Y0.8424
X1.3452 Y0.8506
X1.3293 Y0.8753
X1.2692 Y0.9597
X1.2609 Y0.9711
X1.2527 Y0.9825
X1.2464 Y0.9904
X1.1542 Y1.0968
X1.1538 Y1.0972
X1.1454 Y1.1054
X1.1369 Y1.1136
X1.0474 Y1.199
X1.0418 Y1.204
X1.0309 Y1.2127
X0.9324 Y1.2902
X0.9264 Y1.2945
X0.9077 Y1.3072
X0.9022 Y1.3109
X0.8091 Y1.3707
X0.8009 Y1.3759
X0.7927 Y1.3808
X0.6859 Y1.4358
X0.6777 Y1.4399
X0.6557 Y1.4506
X0.6531 Y1.4518
X0.5463 Y1.4946
X0.5381 Y1.4977
X0.5216 Y1.5039
X0.5134 Y1.5069
X0.382 Y1.5455
X0.3738 Y1.5477
X0.2752 Y1.5668
X0.2382 Y1.5739
X0.2341 Y1.5745
X0.2095 Y1.5777
X0.2013 Y1.5785
X0.1027 Y1.588
X0.0945 Y1.5887
X0.0698 Y1.5905
X0.0534
X-0.0616
X-0.0698
X-0.0945 Y1.5887
X-0.1027 Y1.588
X-0.2013 Y1.5785
X-0.2095 Y1.5777
X-0.2341 Y1.5745
X-0.2382 Y1.5739
X-0.366 Y1.5492
X-0.3738 Y1.5477
X-0.382 Y1.5455
X-0.5134 Y1.5069
X-0.5216 Y1.5039
X-0.5381 Y1.4977
X-0.5463 Y1.4946
X-0.6531 Y1.4518
X-0.6557 Y1.4506
X-0.6777 Y1.4399
X-0.6859 Y1.4358
X-0.7927 Y1.3808
X-0.8009 Y1.3759
X-0.8091 Y1.3707
X-0.9022 Y1.3109
X-0.9077 Y1.3072
X-0.9264 Y1.2945
X-0.9324 Y1.2902
X-1.0315 Y1.2123
X-1.0418 Y1.204
X-1.0474 Y1.199
X-1.1377 Y1.1129
X-1.1459 Y1.1049
X-1.1538 Y1.0972
X-1.1966 Y1.0479
X-1.2464 Y0.9904
X-1.253 Y0.9821
X-1.2649 Y0.9657
X-1.2825 Y0.941
X-1.3293 Y0.8753
X-1.3452 Y0.8506
X-1.3502 Y0.8424
X-1.4088 Y0.7409
X-1.4118 Y0.7356
X-1.4252 Y0.7079
X-1.4745 Y0.6
X-1.4763 Y0.5959
X-1.4854 Y0.5712
X-1.4883 Y0.563
X-1.5238 Y0.4602
X-1.5251 Y0.4561
X-1.532 Y0.4312
X-1.536 Y0.415
X-1.5579 Y0.3246
X-1.5598 Y0.3164
X-1.5649 Y0.2918
X-1.5697 Y0.2589
X-1.5838 Y0.1603
X-1.585 Y0.152
X-1.5867 Y0.1192
X-1.5914 Y0.0205
X-1.5917 Y0.0123
Y-0.0123
X-1.5914 Y-0.0205
X-1.5863 Y-0.1274
X-1.585 Y-0.152
X-1.5838 Y-0.1603
X-1.5661 Y-0.2835
X-1.5649 Y-0.2919
X-1.5598 Y-0.3164
X-1.5579 Y-0.3246
X-1.534 Y-0.4233
X-1.5319 Y-0.4315
X-1.5251 Y-0.4561
X-1.5238 Y-0.4602
X-1.4883 Y-0.563
X-1.4854 Y-0.5712
X-1.4763 Y-0.5959
X-1.4745 Y-0.6
X-1.4252 Y-0.7079
X-1.4118 Y-0.7356
X-1.4088 Y-0.7409
X-1.3502 Y-0.8424
X-1.3452 Y-0.8506
X-1.3293 Y-0.8753
X-1.2692 Y-0.9597
X-1.2609 Y-0.9711
X-1.2527 Y-0.9825
X-1.2464 Y-0.9904
X-1.1542 Y-1.0968
X-1.1538 Y-1.0972
X-1.1454 Y-1.1054
X-1.1369 Y-1.1136
X-1.0474 Y-1.199
X-1.0418 Y-1.204
X-1.0309 Y-1.2127
X-0.9324 Y-1.2902
X-0.9264 Y-1.2945
X-0.9077 Y-1.3072
X-0.9022 Y-1.3109
X-0.8091 Y-1.3707
X-0.8009 Y-1.3759
X-0.7927 Y-1.3808
X-0.6859 Y-1.4358
X-0.6777 Y-1.4399
X-0.6557 Y-1.4506
X-0.6531 Y-1.4518
X-0.5463 Y-1.4946
X-0.5381 Y-1.4977
X-0.5216 Y-1.5039
X-0.5134 Y-1.5069
X-0.382 Y-1.5455
X-0.3738 Y-1.5477
X-0.2752 Y-1.5668
X-0.2382 Y-1.5739
X-0.2341 Y-1.5745
X-0.2095 Y-1.5777
X-0.2013 Y-1.5785
X-0.1027 Y-1.588
X-0.0945 Y-1.5887
X-0.0698 Y-1.5905
X-0.0534
X0.0616
X0.0698
X0.0945 Y-1.5887
X0.1027 Y-1.588
X0.2013 Y-1.5785
X0.2095 Y-1.5777
X0.2341 Y-1.5745
X0.2382 Y-1.5739
X0.366 Y-1.5492
X0.3738 Y-1.5477
X0.382 Y-1.5455
X0.5134 Y-1.5069
X0.5216 Y-1.5039
X0.5381 Y-1.4977
X0.5463 Y-1.4946
X0.6531 Y-1.4518
X0.6557 Y-1.4506
X0.6777 Y-1.4399
X0.6859 Y-1.4358
X0.7927 Y-1.3808
X0.8009 Y-1.3759
X0.8091 Y-1.3707
X0.9022 Y-1.3109
X0.9077 Y-1.3072
X0.9264 Y-1.2945
X0.9324 Y-1.2902
X1.0315 Y-1.2123
X1.0418 Y-1.204
X1.0474 Y-1.199
X1.1377 Y-1.1129
X1.1459 Y-1.1049
X1.1538 Y-1.0972
X1.1966 Y-1.0479
X1.2464 Y-0.9904
X1.253 Y-0.9821
X1.2649 Y-0.9657
X1.2825 Y-0.941
X1.3293 Y-0.8753
X1.3452 Y-0.8506
X1.3502 Y-0.8424
X1.4088 Y-0.7409
X1.4118 Y-0.7356
X1.4252 Y-0.7079
X1.4745 Y-0.6
X1.4763 Y-0.5959
X1.4859 Y-0.5698
X1.4863 Y-0.5686
G3 X1.4773 Y-0.541 I-0.0239 J0.0075 F90
G1 X1.4742 Y-0.5387 Z0.0003
X1.4711 Y-0.5364 Z0.0012
X1.4682 Y-0.5343 Z0.0027
X1.4655 Y-0.5323 Z0.0048
X1.4631 Y-0.5305 Z0.0073
X1.4611 Y-0.529 Z0.0103
X1.4594 Y-0.5278 Z0.0137
X1.4582 Y-0.5269 Z0.0173
X1.4575 Y-0.5263 Z0.0211
X1.4572 Y-0.5261 Z0.025
Z0.6 F80
X-0.1114 Y-0.0412
Z0.2
Z0.1
S10000
G3 X0.1114 Y0.0412 Z0.087 I0.1114 J0.0412 F60
X-0.1114 Y-0.0412 Z0.0739 I-0.1114 J-0.0412
X0.1114 Y0.0412 Z0.0609 I0.1114 J0.0412
X-0.1114 Y-0.0412 Z0.0479 I-0.1114 J-0.0412
X0.1114 Y0.0412 Z0.0349 I0.1114 J0.0412
X-0.1114 Y-0.0412 Z0.0218 I-0.1114 J-0.0412
X0.1114 Y0.0412 Z0.0088 I0.1114 J0.0412
X-0.1114 Y-0.0412 Z-0.0042 I-0.1114 J-0.0412
X0.1114 Y0.0412 Z-0.0172 I0.1114 J0.0412
X-0.1114 Y-0.0412 Z-0.0303 I-0.1114 J-0.0412
X0.1114 Y0.0412 Z-0.0433 I0.1114 J0.0412
X-0.1114 Y-0.0412 Z-0.0563 I-0.1114 J-0.0412
X0.1114 Y0.0412 Z-0.0694 I0.1114 J0.0412
X-0.1114 Y-0.0412 Z-0.0824 I-0.1114 J-0.0412
X0.1114 Y0.0412 Z-0.0954 I0.1114 J0.0412
X-0.1114 Y-0.0412 Z-0.1084 I-0.1114 J-0.0412
X0.1188 Y0 Z-0.12 I0.1114 J0.0412
X-0.1188 I-0.1188 J0
X0.1188 I0.1188 J0
S18000
G1 X0.1189 Y0.009 F80
X0.1251 Y0.0447
X0.1272 Y0.0503
X0.1287 Y0.0561
X0.1295 Y0.0621
X0.1298 Y0.0681
X0.1297 Y0.0743
X0.1289 Y0.0811
X0.1275 Y0.0881
X0.1255 Y0.0955
X0.1227 Y0.1031
X0.1191 Y0.1109
X0.1147 Y0.1188
X0.1094 Y0.1266
X0.1032 Y0.1344
X0.0962 Y0.1419
X0.0883 Y0.1491
X0.0795 Y0.1558
X0.0699 Y0.1621
X0.0596 Y0.1677
X0.0485 Y0.1726
X0.0367 Y0.1767
X0.0245 Y0.1799
X0.0117 Y0.1821
X-0.0014 Y0.1834
X-0.0149 Y0.1836
X-0.0285 Y0.1827
X-0.0421 Y0.1807
X-0.0557 Y0.1775
X-0.0692 Y0.1732
X-0.0824 Y0.1679
X-0.0952 Y0.1614
X-0.1076 Y0.1538
X-0.1194 Y0.1453
X-0.1305 Y0.1357
X-0.1409 Y0.1252
X-0.1505 Y0.1139
X-0.1591 Y0.1019
X-0.1668 Y0.0891
X-0.1734 Y0.0757
X-0.179 Y0.0617
X-0.1834 Y0.0474
X-0.1867 Y0.0327
X-0.1888 Y0.0177
X-0.1897 Y0.0027
X-0.1893 Y-0.0125
X-0.1878 Y-0.0275
X-0.185 Y-0.0425
X-0.1811 Y-0.0571
X-0.176 Y-0.0714
X-0.1697 Y-0.0853
X-0.1624 Y-0.0986
X-0.154 Y-0.1113
X-0.1446 Y-0.1233
X-0.1343 Y-0.1345
X-0.1231 Y-0.1448
X-0.1111 Y-0.1542
X-0.0984 Y-0.1626
X-0.085 Y-0.17
X-0.0711 Y-0.1763
X-0.0567 Y-0.1814
X-0.042 Y-0.1854
X-0.027 Y-0.1882
X-0.0118 Y-0.1897
X0.0034 Y-0.1901
X0.0187 Y-0.1892
X0.0338 Y-0.1871
X0.0487 Y-0.1838
X0.0633 Y-0.1793
X0.0775 Y-0.1736
X0.0911 Y-0.1669
X0.1042 Y-0.159
X0.1167 Y-0.1501
X0.1283 Y-0.1403
X0.1392 Y-0.1295
X0.1491 Y-0.118
X0.1581 Y-0.1056
X0.1681 Y-0.0893
X0.184 Y-0.0578
X0.1938 Y-0.034
X0.2004 Y-0.0131
X0.2048 Y0.0059
X0.2075 Y0.0241
X0.2087 Y0.0418
X0.2084 Y0.0589
X0.2069 Y0.0755
X0.204 Y0.0918
X0.1999 Y0.1077
X0.1945 Y0.1233
X0.1878 Y0.1384
X0.1799 Y0.153
X0.1708 Y0.167
X0.1605 Y0.1804
X0.149 Y0.193
X0.1364 Y0.2048
X0.1228 Y0.2157
X0.1081 Y0.2257
X0.0924 Y0.2345
X0.0758 Y0.2421
X0.0585 Y0.2485
X0.0404 Y0.2535
X0.0218 Y0.2571
X0.0028 Y0.2592
X-0.0166 Y0.2598
X-0.0362 Y0.2589
X-0.0558 Y0.2563
X-0.0753 Y0.2521
X-0.0945 Y0.2464
X-0.1134 Y0.239
X-0.1317 Y0.2302
X-0.1494 Y0.2198
X-0.1663 Y0.2079
X-0.1822 Y0.1947
X-0.1971 Y0.1801
X-0.2109 Y0.1644
X-0.2234 Y0.1475
X-0.2345 Y0.1296
X-0.2442 Y0.1108
X-0.2524 Y0.0913
X-0.259 Y0.071
X-0.264 Y0.0503
X-0.2673 Y0.0292
X-0.2689 Y0.0079
X-0.2688 Y-0.0135
X-0.2669 Y-0.0349
X-0.2634 Y-0.0561
X-0.2581 Y-0.077
X-0.2512 Y-0.0974
X-0.2427 Y-0.1171
X-0.2326 Y-0.1362
X-0.221 Y-0.1544
X-0.208 Y-0.1716
X-0.1936 Y-0.1877
X-0.1779 Y-0.2026
X-0.1611 Y-0.2163
X-0.1433 Y-0.2285
X-0.1246 Y-0.2393
X-0.105 Y-0.2485
X-0.0847 Y-0.2561
X-0.0639 Y-0.2621
X-0.0427 Y-0.2664
X-0.0212 Y-0.269
X0.0004 Y-0.2698
X0.0221 Y-0.2689
X0.0436 Y-0.2663
X0.0648 Y-0.2619
X0.0856 Y-0.2559
X0.1059 Y-0.2482
X0.1255 Y-0.2389
X0.1442 Y-0.2281
X0.1621 Y-0.2158
X0.1794 Y-0.2016
X0.1983 Y-0.1835
X0.216 Y-0.1635
X0.2327 Y-0.1414
X0.2476 Y-0.1178
X0.2604 Y-0.0936
X0.2709 Y-0.069
X0.2792 Y-0.0443
X0.2854 Y-0.0196
X0.2895 Y0.005
X0.2915 Y0.0295
X0.2916 Y0.0538
X0.2897 Y0.0778
X0.2859 Y0.1014
X0.2803 Y0.1245
X0.2729 Y0.147
X0.2637 Y0.1688
X0.2528 Y0.1898
X0.2402 Y0.21
X0.2259 Y0.2291
X0.2101 Y0.2471
X0.1928 Y0.264
X0.174 Y0.2795
X0.1539 Y0.2935
X0.1325 Y0.306
X0.11 Y0.3168
X0.0866 Y0.3259
X0.0623 Y0.3331
X0.0372 Y0.3383
X0.0117 Y0.3416
X-0.0142 Y0.3428
X-0.0404 Y0.342
X-0.0665 Y0.339
X-0.0925 Y0.3339
X-0.1181 Y0.3267
X-0.1433 Y0.3174
X-0.1677 Y0.306
X-0.1913 Y0.2927
X-0.2138 Y0.2774
X-0.2352 Y0.2603
X-0.2551 Y0.2414
X-0.2736 Y0.221
X-0.2905 Y0.199
X-0.3055 Y0.1757
X-0.3187 Y0.1511
X-0.3299 Y0.1256
X-0.339 Y0.0991
X-0.346 Y0.0719
X-0.3508 Y0.0443
X-0.3534 Y0.0162
X-0.3537 Y-0.012
X-0.3517 Y-0.0401
X-0.3475 Y-0.0681
X-0.3411 Y-0.0956
X-0.3324 Y-0.1226
X-0.3216 Y-0.1488
X-0.3088 Y-0.1741
X-0.2939 Y-0.1982
X-0.2771 Y-0.2211
X-0.2586 Y-0.2426
X-0.2383 Y-0.2626
X-0.2166 Y-0.2809
X-0.1934 Y-0.2973
X-0.1689 Y-0.3119
X-0.1434 Y-0.3245
X-0.1169 Y-0.3349
X-0.0897 Y-0.3433
X-0.0619 Y-0.3494
X-0.0337 Y-0.3532
X-0.0052 Y-0.3548
X0.0232 Y-0.3541
X0.0516 Y-0.3511
X0.0796 Y-0.3458
X0.107 Y-0.3383
X0.1338 Y-0.3286
X0.16 Y-0.3168
X0.1859 Y-0.3023
X0.2115 Y-0.2854
X0.2363 Y-0.2658
X0.26 Y-0.2437
X0.2823 Y-0.2195
X0.3026 Y-0.1934
X0.3208 Y-0.1657
X0.3366 Y-0.1368
X0.35 Y-0.107
X0.3608 Y-0.0764
X0.3691 Y-0.0453
X0.3748 Y-0.0139
X0.378 Y0.0175
X0.3786 Y0.0489
X0.3767 Y0.0801
X0.3723 Y0.1109
X0.3655 Y0.1411
X0.3563 Y0.1706
X0.3447 Y0.1993
X0.331 Y0.2269
X0.315 Y0.2534
X0.2968 Y0.2786
X0.2767 Y0.3023
X0.2546 Y0.3245
X0.2307 Y0.3449
X0.2051 Y0.3634
X0.178 Y0.3798
X0.1494 Y0.3942
X0.1196 Y0.4062
X0.0888 Y0.4159
X0.0571 Y0.4232
X0.0247 Y0.4279
X-0.0082 Y0.43
X-0.0412 Y0.4294
X-0.0744 Y0.4262
X-0.1073 Y0.4203
X-0.1398 Y0.4117
X-0.1716 Y0.4005
X-0.2026 Y0.3867
X-0.2326 Y0.3704
X-0.2612 Y0.3517
X-0.2883 Y0.3306
X-0.3138 Y0.3074
X-0.3374 Y0.2821
X-0.3589 Y0.255
X-0.3782 Y0.2261
X-0.3952 Y0.1956
X-0.4098 Y0.1639
X-0.4218 Y0.1309
X-0.4311 Y0.0971
X-0.4376 Y0.0626
X-0.4414 Y0.0276
X-0.4424 Y-0.0077
X-0.4405 Y-0.0429
X-0.4358 Y-0.0779
X-0.4283 Y-0.1125
X-0.4181 Y-0.1464
X-0.4051 Y-0.1794
X-0.3896 Y-0.2112
X-0.3715 Y-0.2417
X-0.351 Y-0.2707
X-0.3282 Y-0.298
X-0.3033 Y-0.3234
X-0.2765 Y-0.3467
X-0.2478 Y-0.3677
X-0.2176 Y-0.3864
X-0.1859 Y-0.4027
X-0.1531 Y-0.4163
X-0.1192 Y-0.4272
X-0.0846 Y-0.4354
X-0.0494 Y-0.4408
X-0.0139 Y-0.4434
X0.0218 Y-0.4431
X0.0572 Y-0.4399
X0.0924 Y-0.4339
X0.1271 Y-0.4251
X0.1613 Y-0.4133
X0.1945 Y-0.3989
X0.2264 Y-0.3819
X0.257 Y-0.3624
X0.2859 Y-0.3407
X0.3131 Y-0.3169
X0.3385 Y-0.2911
X0.3619 Y-0.2635
X0.3833 Y-0.2343
X0.4025 Y-0.2037
X0.4195 Y-0.1717
X0.4341 Y-0.1386
X0.4462 Y-0.1045
X0.4557 Y-0.0696
X0.4626 Y-0.0341
X0.4668 Y0.0019
X0.4683 Y0.038
X0.467 Y0.0742
X0.4631 Y0.1101
X0.4564 Y0.1457
X0.4471 Y0.1806
X0.4351 Y0.2148
X0.4206 Y0.2479
X0.4036 Y0.2799
X0.3842 Y0.3104
X0.3626 Y0.3394
X0.3388 Y0.3667
X0.3131 Y0.3922
X0.2855 Y0.4156
X0.2563 Y0.4369
X0.2255 Y0.456
X0.1934 Y0.4726
X0.1601 Y0.4868
X0.1259 Y0.4986
X0.0909 Y0.5077
X0.0553 Y0.5144
X0.0194 Y0.5184
X-0.0168 Y0.5198
X-0.0529 Y0.5187
X-0.0889 Y0.5149
X-0.1246 Y0.5086
X-0.1596 Y0.4997
X-0.194 Y0.4883
X-0.2274 Y0.4745
X-0.2598 Y0.4584
X-0.291 Y0.4401
X-0.3209 Y0.4197
X-0.3493 Y0.3972
X-0.376 Y0.3728
X-0.4009 Y0.3465
X-0.4239 Y0.3186
X-0.4449 Y0.2892
X-0.4639 Y0.2584
X-0.4807 Y0.2263
X-0.4953 Y0.1932
X-0.5076 Y0.1592
X-0.5174 Y0.1244
X-0.5248 Y0.089
X-0.5298 Y0.0531
X-0.5324 Y0.017
X-0.5325 Y-0.0192
X-0.5302 Y-0.0553
X-0.5253 Y-0.0911
X-0.518 Y-0.1265
X-0.5083 Y-0.1614
X-0.4962 Y-0.1955
X-0.4819 Y-0.2287
X-0.4654 Y-0.2609
X-0.4467 Y-0.2919
X-0.426 Y-0.3216
X-0.4032 Y-0.3497
X-0.3786 Y-0.3762
X-0.3522 Y-0.401
X-0.3243 Y-0.424
X-0.2949 Y-0.4451
X-0.2641 Y-0.4641
X-0.232 Y-0.4809
X-0.1989 Y-0.4955
X-0.1649 Y-0.5078
X-0.1302 Y-0.5178
X-0.0948 Y-0.5255
X-0.059 Y-0.5308
X-0.0229 Y-0.5336
X0.0132 Y-0.5338
X0.0494 Y-0.5317
X0.0853 Y-0.5272
X0.1208 Y-0.5203
X0.1557 Y-0.511
X0.19 Y-0.4993
X0.2234 Y-0.4854
X0.2558 Y-0.4693
X0.2871 Y-0.4511
X0.3172 Y-0.431
X0.3459 Y-0.4091
X0.3732 Y-0.3853
X0.3989 Y-0.3598
X0.423 Y-0.3328
X0.4454 Y-0.3044
X0.466 Y-0.2747
X0.4848 Y-0.2437
X0.5016 Y-0.2117
X0.5163 Y-0.1786
X0.5289 Y-0.1447
X0.5394 Y-0.1101
X0.5477 Y-0.0749
X0.5539 Y-0.0392
X0.5578 Y-0.0033
X0.5593 Y0.0329
X0.5585 Y0.0691
X0.5555 Y0.1051
X0.5502 Y0.1409
X0.5426 Y0.1763
X0.5329 Y0.2111
X0.5209 Y0.2453
X0.5067 Y0.2786
X0.4904 Y0.3109
X0.4722 Y0.3421
X0.452 Y0.3721
X0.43 Y0.4009
X0.4061 Y0.4281
X0.3806 Y0.4537
X0.3535 Y0.4777
X0.3249 Y0.4999
X0.295 Y0.5203
X0.264 Y0.5388
X0.2317 Y0.5553
X0.1985 Y0.5696
X0.1645 Y0.5819
X0.1298 Y0.5921
X0.0945 Y0.6001
X0.0588 Y0.606
X0.0228 Y0.6097
X-0.0133 Y0.6112
X-0.0495 Y0.6104
X-0.0856 Y0.6074
X-0.1214 Y0.6022
X-0.1568 Y0.5949
X-0.1918 Y0.5855
X-0.2261 Y0.5739
X-0.2596 Y0.5603
X-0.2922 Y0.5447
X-0.3239 Y0.5272
X-0.3545 Y0.5079
X-0.3839 Y0.4868
X-0.412 Y0.464
X-0.4386 Y0.4395
X-0.4638 Y0.4135
X-0.4873 Y0.386
X-0.5092 Y0.3572
X-0.5294 Y0.3272
X-0.5478 Y0.2961
X-0.5644 Y0.2639
X-0.579 Y0.2308
X-0.5916 Y0.1969
X-0.6022 Y0.1623
X-0.6107 Y0.1271
X-0.6172 Y0.0915
X-0.6217 Y0.0556
X-0.6241 Y0.0195
X-0.6243 Y-0.0167
X-0.6224 Y-0.0528
X-0.6184 Y-0.0887
X-0.6123 Y-0.1244
X-0.6041 Y-0.1597
X-0.594 Y-0.1944
X-0.5819 Y-0.2285
X-0.5678 Y-0.2618
X-0.5517 Y-0.2942
X-0.5338 Y-0.3257
X-0.5141 Y-0.356
X-0.4927 Y-0.3852
X-0.4696 Y-0.4131
X-0.445 Y-0.4396
X-0.4189 Y-0.4646
X-0.3913 Y-0.488
X-0.3625 Y-0.5099
X-0.3324 Y-0.53
X-0.3012 Y-0.5483
X-0.269 Y-0.5649
X-0.2359 Y-0.5795
X-0.202 Y-0.5922
X-0.1675 Y-0.6029
X-0.1323 Y-0.6115
X-0.0968 Y-0.6182
X-0.0609 Y-0.6228
X-0.0248 Y-0.6253
X0.0114 Y-0.6257
X0.0475 Y-0.624
X0.0835 Y-0.6202
X0.1192 Y-0.6144
X0.1545 Y-0.6065
X0.1893 Y-0.5966
X0.2235 Y-0.5848
X0.257 Y-0.571
X0.2896 Y-0.5554
X0.3213 Y-0.5379
X0.352 Y-0.5188
X0.3816 Y-0.498
X0.41 Y-0.4756
X0.4372 Y-0.4517
X0.463 Y-0.4263
X0.4874 Y-0.3996
X0.5103 Y-0.3716
X0.5317 Y-0.3424
X0.5515 Y-0.3121
X0.5697 Y-0.2809
X0.5862 Y-0.2487
X0.6009 Y-0.2156
X0.6138 Y-0.1818
X0.6248 Y-0.1473
X0.634 Y-0.1123
X0.6413 Y-0.0769
X0.6466 Y-0.0411
X0.6501 Y-0.0051
X0.6515 Y0.0311
X0.651 Y0.0672
X0.6484 Y0.1033
X0.6439 Y0.1392
X0.6375 Y0.1748
X0.6291 Y0.21
X0.6189 Y0.2447
X0.6068 Y0.2788
X0.5927 Y0.3122
X0.5769 Y0.3447
X0.5593 Y0.3763
X0.54 Y0.4069
X0.5191 Y0.4365
X0.4966 Y0.4648
X0.4727 Y0.4919
X0.4472 Y0.5176
X0.4204 Y0.5419
X0.3922 Y0.5647
X0.3629 Y0.5859
X0.3325 Y0.6055
X0.3011 Y0.6235
X0.2688 Y0.6398
X0.2356 Y0.6542
X0.2017 Y0.6668
X0.1672 Y0.6776
X0.1321 Y0.6865
X0.0967 Y0.6936
X0.0608 Y0.6988
X0.0248 Y0.7022
X-0.0113 Y0.7036
X-0.0475 Y0.703
X-0.0836 Y0.7005
X-0.1195 Y0.6961
X-0.1552 Y0.6899
X-0.1904 Y0.6818
X-0.2252 Y0.6719
X-0.2595 Y0.6602
X-0.293 Y0.6467
X-0.3258 Y0.6315
X-0.3578 Y0.6145
X-0.3889 Y0.596
X-0.419 Y0.5759
X-0.448 Y0.5542
X-0.4758 Y0.5311
X-0.5025 Y0.5066
X-0.5277 Y0.4808
X-0.5516 Y0.4536
X-0.5741 Y0.4253
X-0.5952 Y0.3958
X-0.6147 Y0.3654
X-0.6327 Y0.334
X-0.649 Y0.3017
X-0.6637 Y0.2686
X-0.6765 Y0.2348
X-0.6877 Y0.2004
X-0.6971 Y0.1654
X-0.7047 Y0.13
X-0.7105 Y0.0943
X-0.7146 Y0.0584
X-0.7168 Y0.0223
X-0.7171 Y-0.0139
X-0.7156 Y-0.0501
X-0.7122 Y-0.0861
X-0.707 Y-0.1219
X-0.7001 Y-0.1574
X-0.6914 Y-0.1925
X-0.6809 Y-0.2272
X-0.6687 Y-0.2612
X-0.6547 Y-0.2946
X-0.6391 Y-0.3272
X-0.6218 Y-0.359
X-0.6029 Y-0.3899
X-0.5826 Y-0.4198
X-0.5608 Y-0.4487
X-0.5375 Y-0.4764
X-0.5129 Y-0.5029
X-0.4869 Y-0.5281
X-0.4597 Y-0.5519
X-0.4313 Y-0.5744
X-0.4019 Y-0.5954
X-0.3714 Y-0.6149
X-0.34 Y-0.6329
X-0.3077 Y-0.6492
X-0.2747 Y-0.6639
X-0.2409 Y-0.6769
X-0.2065 Y-0.6881
X-0.1716 Y-0.6977
X-0.1362 Y-0.7054
X-0.1006 Y-0.7114
X-0.0646 Y-0.7156
X-0.0285 Y-0.718
X0.0076 Y-0.7186
X0.0438 Y-0.7173
X0.0799 Y-0.7141
X0.1157 Y-0.7092
X0.1513 Y-0.7025
X0.1864 Y-0.6941
X0.2212 Y-0.684
X0.2554 Y-0.6721
X0.2889 Y-0.6585
X0.3217 Y-0.6433
X0.3537 Y-0.6264
X0.3849 Y-0.6081
X0.4152 Y-0.5883
X0.4445 Y-0.5671
X0.4728 Y-0.5445
X0.4999 Y-0.5205
X0.5258 Y-0.4953
X0.5505 Y-0.4689
X0.574 Y-0.4413
X0.596 Y-0.4126
X0.6168 Y-0.383
X0.6361 Y-0.3524
X0.654 Y-0.3209
X0.6704 Y-0.2887
X0.6852 Y-0.2557
X0.6984 Y-0.222
X0.71 Y-0.1877
X0.7199 Y-0.1529
X0.7282 Y-0.1177
X0.7349 Y-0.0821
X0.7399 Y-0.0463
X0.7431 Y-0.0103
X0.7446 Y0.0259
X0.7444 Y0.0621
X0.7424 Y0.0982
X0.7386 Y0.1342
X0.7332 Y0.17
X0.7261 Y0.2054
X0.7174 Y0.2405
X0.7069 Y0.2752
X0.6948 Y0.3093
X0.681 Y0.3427
X0.6657 Y0.3755
X0.6488 Y0.4075
X0.6303 Y0.4386
X0.6105 Y0.4689
X0.5892 Y0.4981
X0.5666 Y0.5264
X0.5426 Y0.5535
X0.5173 Y0.5794
X0.4908 Y0.604
X0.4632 Y0.6273
X0.4345 Y0.6494
X0.4048 Y0.67
X0.3741 Y0.6892
X0.3426 Y0.707
X0.3103 Y0.7232
X0.2772 Y0.7379
X0.2434 Y0.7509
X0.2091 Y0.7624
X0.1743 Y0.7722
X0.1391 Y0.7804
X0.1035 Y0.787
X0.0676 Y0.792
X0.0316 Y0.7952
X-0.0045 Y0.7968
X-0.0407 Y0.7966
X-0.0769 Y0.7947
X-0.1129 Y0.7911
X-0.1487 Y0.786
X-0.1842 Y0.7791
X-0.2194 Y0.7707
X-0.2542 Y0.7607
X-0.2884 Y0.7491
X-0.3221 Y0.7358
X-0.3551 Y0.721
X-0.3874 Y0.7048
X-0.419 Y0.687
X-0.4497 Y0.6679
X-0.4795 Y0.6474
X-0.5084 Y0.6256
X-0.5362 Y0.6025
X-0.5629 Y0.5781
X-0.5885 Y0.5525
X-0.6129 Y0.5258
X-0.636 Y0.498
X-0.6579 Y0.4691
X-0.6785 Y0.4394
X-0.6977 Y0.4087
X-0.7156 Y0.3773
X-0.732 Y0.345
X-0.7468 Y0.312
X-0.7602 Y0.2784
X-0.772 Y0.2442
X-0.7822 Y0.2095
X-0.791 Y0.1744
X-0.7981 Y0.1389
X-0.8038 Y0.1032
X-0.8077 Y0.0672
X-0.8101 Y0.0311
X-0.8107 Y-0.0051
X-0.8098 Y-0.0412
X-0.8072 Y-0.0773
X-0.803 Y-0.1133
X-0.7972 Y-0.149
X-0.7899 Y-0.1844
X-0.781 Y-0.2195
X-0.7706 Y-0.2541
X-0.7585 Y-0.2883
X-0.7449 Y-0.3218
X-0.7299 Y-0.3547
X-0.7133 Y-0.3869
X-0.6954 Y-0.4183
X-0.6761 Y-0.4489
X-0.6555 Y-0.4787
X-0.6336 Y-0.5075
X-0.6104 Y-0.5352
X-0.586 Y-0.5619
X-0.5604 Y-0.5874
X-0.5336 Y-0.6118
X-0.5058 Y-0.635
X-0.477 Y-0.6569
X-0.4473 Y-0.6775
X-0.4167 Y-0.6969
X-0.3853 Y-0.7148
X-0.3531 Y-0.7313
X-0.3202 Y-0.7463
X-0.2866 Y-0.7598
X-0.2525 Y-0.7718
X-0.2178 Y-0.7822
X-0.1828 Y-0.7912
X-0.1473 Y-0.7986
X-0.1116 Y-0.8044
X-0.0757 Y-0.8086
X-0.0396 Y-0.8112
X-0.0034 Y-0.8122
X0.0327 Y-0.8115
X0.0688 Y-0.8092
X0.1048 Y-0.8053
X0.1406 Y-0.7999
X0.1761 Y-0.7929
X0.2113 Y-0.7844
X0.246 Y-0.7744
X0.2803 Y-0.7627
X0.314 Y-0.7496
X0.3471 Y-0.735
X0.3795 Y-0.7189
X0.4112 Y-0.7016
X0.4422 Y-0.6828
X0.4723 Y-0.6628
X0.5016 Y-0.6415
X0.5299 Y-0.619
X0.5572 Y-0.5953
X0.5835 Y-0.5704
X0.6087 Y-0.5444
X0.6327 Y-0.5174
X0.6556 Y-0.4894
X0.6774 Y-0.4604
X0.6979 Y-0.4306
X0.7172 Y-0.4
X0.7351 Y-0.3686
X0.7517 Y-0.3364
X0.7668 Y-0.3036
X0.7806 Y-0.2701
X0.7929 Y-0.2361
X0.8038 Y-0.2016
X0.8133 Y-0.1667
X0.8213 Y-0.1314
X0.8278 Y-0.0958
X0.8329 Y-0.06
X0.8363 Y-0.024
X0.8382 Y0.0122
X0.8385 Y0.0484
X0.8373 Y0.0845
X0.8346 Y0.1206
X0.8303 Y0.1565
X0.8246 Y0.1923
X0.8174 Y0.2277
X0.8086 Y0.2628
X0.7984 Y0.2975
X0.7866 Y0.3317
X0.7734 Y0.3654
X0.7587 Y0.3985
X0.7427 Y0.4309
X0.7253 Y0.4627
X0.7066 Y0.4936
X0.6866 Y0.5238
X0.6654 Y0.5531
X0.6429 Y0.5814
X0.6192 Y0.6088
X0.5943 Y0.6351
X0.5684 Y0.6603
X0.5414 Y0.6844
X0.5134 Y0.7073
X0.4845 Y0.7291
X0.4547 Y0.7496
X0.4241 Y0.7689
X0.3926 Y0.7868
X0.3605 Y0.8033
X0.3276 Y0.8184
X0.2941 Y0.8322
X0.2601 Y0.8445
X0.2256 Y0.8555
X0.1907 Y0.865
X0.1554 Y0.873
X0.1199 Y0.8796
X0.084 Y0.8847
X0.048 Y0.8883
X0.0119 Y0.8903
X-0.0243 Y0.8908
X-0.0604 Y0.8898
X-0.0965 Y0.8873
X-0.1325 Y0.8834
X-0.1683 Y0.878
X-0.2038 Y0.8712
X-0.239 Y0.8629
X-0.2739 Y0.8531
X-0.3082 Y0.8418
X-0.3421 Y0.8292
X-0.3755 Y0.8151
X-0.4082 Y0.7998
X-0.4403 Y0.7831
X-0.4717 Y0.7651
X-0.5024 Y0.7459
X-0.5323 Y0.7255
X-0.5612 Y0.7038
X-0.5893 Y0.6809
X-0.6164 Y0.657
X-0.6425 Y0.6319
X-0.6675 Y0.6058
X-0.6915 Y0.5787
X-0.7144 Y0.5506
X-0.7361 Y0.5217
X-0.7567 Y0.492
X-0.776 Y0.4614
X-0.7941 Y0.43
X-0.8108 Y0.398
X-0.8263 Y0.3652
X-0.8404 Y0.3319
X-0.8531 Y0.298
X-0.8645 Y0.2637
X-0.8745 Y0.2289
X-0.8832 Y0.1938
X-0.8904 Y0.1584
X-0.8962 Y0.1226
X-0.9005 Y0.0867
X-0.9033 Y0.0506
X-0.9047 Y0.0145
X-0.9046 Y-0.0217
X-0.9031 Y-0.0578
X-0.9002 Y-0.0939
X-0.8958 Y-0.1298
X-0.89 Y-0.1655
X-0.8828 Y-0.201
X-0.8742 Y-0.2361
X-0.8641 Y-0.2709
X-0.8526 Y-0.3052
X-0.8397 Y-0.339
X-0.8256 Y-0.3723
X-0.8101 Y-0.405
X-0.7933 Y-0.437
X-0.7753 Y-0.4684
X-0.756 Y-0.4991
X-0.7355 Y-0.5289
X-0.7139 Y-0.5579
X-0.691 Y-0.5859
X-0.6671 Y-0.613
X-0.6421 Y-0.6392
X-0.616 Y-0.6643
X-0.589 Y-0.6884
X-0.5611 Y-0.7114
X-0.5323 Y-0.7333
X-0.5026 Y-0.754
X-0.4722 Y-0.7735
X-0.4409 Y-0.7918
X-0.409 Y-0.8087
X-0.3763 Y-0.8244
X-0.3431 Y-0.8387
X-0.3094 Y-0.8517
X-0.2751 Y-0.8634
X-0.2404 Y-0.8738
X-0.2054 Y-0.8827
X-0.17 Y-0.8903
X-0.1343 Y-0.8964
X-0.0985 Y-0.901
X-0.0624 Y-0.9042
X-0.0263 Y-0.906
X0.0099 Y-0.9063
X0.0461 Y-0.9051
X0.0822 Y-0.9026
X0.1181 Y-0.8987
X0.1539 Y-0.8934
X0.1895 Y-0.8866
X0.2247 Y-0.8784
X0.2596 Y-0.8688
X0.2941 Y-0.8578
X0.3281 Y-0.8454
X0.3616 Y-0.8318
X0.3945 Y-0.8168
X0.4269 Y-0.8006
X0.4586 Y-0.7832
X0.4896 Y-0.7646
X0.5199 Y-0.7448
X0.5494 Y-0.7238
X0.578 Y-0.7017
X0.6057 Y-0.6784
X0.6326 Y-0.6542
X0.6585 Y-0.6289
X0.6834 Y-0.6027
X0.7073 Y-0.5755
X0.7302 Y-0.5475
X0.752 Y-0.5186
X0.7727 Y-0.489
X0.7922 Y-0.4585
X0.8106 Y-0.4273
X0.8277 Y-0.3954
X0.8436 Y-0.3629
X0.8583 Y-0.3299
X0.8717 Y-0.2963
X0.8838 Y-0.2622
X0.8947 Y-0.2277
X0.9043 Y-0.1928
X0.9125 Y-0.1575
X0.9193 Y-0.122
X0.9247 Y-0.0862
X0.9288 Y-0.0503
X0.9315 Y-0.0142
X0.9328 Y0.022
Y0.0581
X0.9313 Y0.0943
X0.9285 Y0.1304
X0.9244 Y0.1663
X0.9189 Y0.2021
X0.912 Y0.2376
X0.9037 Y0.2728
X0.894 Y0.3077
X0.883 Y0.3421
X0.8707 Y0.3762
X0.8571 Y0.4097
X0.8423 Y0.4427
X0.8262 Y0.4751
X0.8089 Y0.5069
X0.7904 Y0.538
X0.7707 Y0.5683
X0.7498 Y0.5979
X0.7278 Y0.6266
X0.7047 Y0.6545
X0.6806 Y0.6814
X0.6555 Y0.7075
X0.6294 Y0.7325
X0.6023 Y0.7566
X0.5744 Y0.7796
X0.5456 Y0.8015
X0.516 Y0.8223
X0.4856 Y0.8419
X0.4545 Y0.8604
X0.4227 Y0.8777
X0.3903 Y0.8937
X0.3573 Y0.9085
X0.3237 Y0.922
X0.2897 Y0.9343
X0.2552 Y0.9454
X0.2204 Y0.9551
X0.1852 Y0.9634
X0.1497 Y0.9705
X0.1139 Y0.9761
X0.078 Y0.9804
X0.042 Y0.9834
X0.0058 Y0.985
X-0.0304 Y0.9853
X-0.0665 Y0.9842
X-0.1026 Y0.9818
X-0.1386 Y0.9781
X-0.1744 Y0.973
X-0.21 Y0.9665
X-0.2454 Y0.9587
X-0.2804 Y0.9496
X-0.3151 Y0.9392
X-0.3493 Y0.9276
X-0.3831 Y0.9146
X-0.4164 Y0.9005
X-0.4492 Y0.8851
X-0.4813 Y0.8686
X-0.5129 Y0.8509
X-0.5437 Y0.832
X-0.5739 Y0.8119
X-0.6032 Y0.7908
X-0.6318 Y0.7686
X-0.6595 Y0.7453
X-0.6863 Y0.7211
X-0.7123 Y0.6958
X-0.7373 Y0.6697
X-0.7614 Y0.6427
X-0.7844 Y0.6148
X-0.8065 Y0.5861
X-0.8274 Y0.5566
X-0.8472 Y0.5263
X-0.8659 Y0.4953
X-0.8834 Y0.4637
X-0.8998 Y0.4314
X-0.915 Y0.3986
X-0.929 Y0.3652
X-0.9418 Y0.3314
X-0.9534 Y0.2971
X-0.9637 Y0.2624
X-0.9727 Y0.2274
X-0.9804 Y0.192
X-0.9868 Y0.1564
X-0.9919 Y0.1206
X-0.9957 Y0.0846
X-0.9982 Y0.0485
X-0.9994 Y0.0124
X-0.9993 Y-0.0238
X-0.9979 Y-0.06
X-0.9952 Y-0.0961
X-0.9912 Y-0.132
X-0.9858 Y-0.1678
X-0.9792 Y-0.2034
X-0.9712 Y-0.2387
X-0.962 Y-0.2736
X-0.9515 Y-0.3083
X-0.9398 Y-0.3425
X-0.9268 Y-0.3763
X-0.9127 Y-0.4096
X-0.8973 Y-0.4424
X-0.8808 Y-0.4745
X-0.8631 Y-0.5061
X-0.8443 Y-0.537
X-0.8244 Y-0.5672
X-0.8033 Y-0.5966
X-0.7812 Y-0.6253
X-0.7581 Y-0.6531
X-0.734 Y-0.6801
X-0.709 Y-0.7063
X-0.683 Y-0.7315
X-0.6562 Y-0.7557
X-0.6285 Y-0.779
X-0.5999 Y-0.8012
X-0.5706 Y-0.8224
X-0.5405 Y-0.8424
X-0.5097 Y-0.8614
X-0.4782 Y-0.8793
X-0.4461 Y-0.896
X-0.4135 Y-0.9116
X-0.3803 Y-0.9259
X-0.3466 Y-0.9391
X-0.3124 Y-0.951
X-0.2778 Y-0.9617
X-0.2429 Y-0.9711
X-0.2076 Y-0.9793
X-0.1721 Y-0.9862
X-0.1364 Y-0.9917
X-0.1004 Y-0.996
X-0.0644 Y-0.999
X-0.0282 Y-1.0007
X0.0079 Y-1.0011
X0.0441 Y-1.0002
X0.0802 Y-0.998
X0.1162 Y-0.9945
X0.1521 Y-0.9896
X0.1878 Y-0.9835
X0.2232 Y-0.9761
X0.2583 Y-0.9675
X0.2931 Y-0.9576
X0.3275 Y-0.9465
X0.3616 Y-0.9341
X0.3951 Y-0.9206
X0.4282 Y-0.9059
X0.4607 Y-0.89
X0.4926 Y-0.873
X0.5239 Y-0.8549
X0.5546 Y-0.8357
X0.5845 Y-0.8154
X0.6137 Y-0.794
X0.6422 Y-0.7717
X0.6699 Y-0.7484
X0.6967 Y-0.7241
X0.7227 Y-0.699
X0.7478 Y-0.6729
X0.772 Y-0.646
X0.7953 Y-0.6183
X0.8175 Y-0.5897
X0.8388 Y-0.5605
X0.859 Y-0.5305
X0.8782 Y-0.4998
X0.8963 Y-0.4685
X0.9133 Y-0.4365
X0.9293 Y-0.404
X0.9441 Y-0.371
X0.9577 Y-0.3375
X0.9702 Y-0.3035
X0.9814 Y-0.2692
X0.9915 Y-0.2344
X1.0004 Y-0.1993
X1.008 Y-0.164
X1.0144 Y-0.1284
X1.0196 Y-0.0926
X1.0236 Y-0.0566
X1.0263 Y-0.0205
X1.0277 Y0.0156
X1.0279 Y0.0518
X1.0268 Y0.088
X1.0245 Y0.1241
X1.0209 Y0.1601
X1.016 Y0.196
X1.0099 Y0.2316
X1.0026 Y0.267
X0.994 Y0.3022
X0.9843 Y0.337
X0.9733 Y0.3715
X0.9611 Y0.4056
X0.9478 Y0.4392
X0.9333 Y0.4724
X0.9176 Y0.505
X0.9008 Y0.537
X0.8829 Y0.5685
X0.8639 Y0.5993
X0.8439 Y0.6294
X0.8228 Y0.6588
X0.8007 Y0.6875
X0.7776 Y0.7153
X0.7536 Y0.7424
X0.7287 Y0.7686
X0.7028 Y0.7939
X0.6761 Y0.8183
X0.6486 Y0.8418
X0.6202 Y0.8643
X0.5911 Y0.8857
X0.5613 Y0.9062
X0.5307 Y0.9256
X0.4996 Y0.944
X0.4678 Y0.9613
X0.4354 Y0.9775
X0.4025 Y0.9925
X0.3691 Y1.0064
X0.3352 Y1.0191
X0.3009 Y1.0307
X0.2663 Y1.0411
X0.2313 Y1.0502
X0.196 Y1.0582
X0.1604 Y1.065
X0.1247 Y1.0705
X0.0888 Y1.0749
X0.0527 Y1.078
X0.0166 Y1.0798
X-0.0196 Y1.0804
X-0.0558 Y1.0798
X-0.0919 Y1.078
X-0.128 Y1.0749
X-0.1639 Y1.0706
X-0.1996 Y1.0651
X-0.2352 Y1.0583
X-0.2705 Y1.0504
X-0.3055 Y1.0413
X-0.3402 Y1.031
X-0.3745 Y1.0196
X-0.4084 Y1.007
X-0.4419 Y0.9932
X-0.4749 Y0.9783
X-0.5073 Y0.9623
X-0.5392 Y0.9453
X-0.5706 Y0.9271
X-0.6012 Y0.908
X-0.6313 Y0.8878
X-0.6606 Y0.8666
X-0.6892 Y0.8445
X-0.7171 Y0.8213
X-0.7441 Y0.7973
X-0.7703 Y0.7724
X-0.7957 Y0.7466
X-0.8202 Y0.72
X-0.8438 Y0.6925
X-0.8665 Y0.6643
X-0.8882 Y0.6354
X-0.9089 Y0.6057
X-0.9287 Y0.5754
X-0.9474 Y0.5445
X-0.9651 Y0.5129
X-0.9817 Y0.4807
X-0.9972 Y0.4481
X-1.0116 Y0.4149
X-1.0249 Y0.3812
X-1.0371 Y0.3472
X-1.0481 Y0.3127
X-1.058 Y0.2779
X-1.0668 Y0.2428
X-1.0743 Y0.2074
X-1.0807 Y0.1718
X-1.0859 Y0.136
X-1.0899 Y0.1
X-1.0927 Y0.064
X-1.0943 Y0.0278
X-1.0947 Y-0.0084
X-1.094 Y-0.0445
X-1.092 Y-0.0807
X-1.0888 Y-0.1167
X-1.0844 Y-0.1526
X-1.0788 Y-0.1884
X-1.0721 Y-0.2239
X-1.0642 Y-0.2592
X-1.0551 Y-0.2943
X-1.0449 Y-0.329
X-1.0335 Y-0.3633
X-1.021 Y-0.3972
X-1.0073 Y-0.4308
X-0.9926 Y-0.4638
X-0.9768 Y-0.4963
X-0.9599 Y-0.5283
X-0.9419 Y-0.5598
X-0.923 Y-0.5906
X-0.903 Y-0.6208
X-0.8821 Y-0.6503
X-0.8602 Y-0.679
X-0.8373 Y-0.7071
X-0.8135 Y-0.7344
X-0.7888 Y-0.7608
X-0.7633 Y-0.7865
X-0.7369 Y-0.8112
X-0.7098 Y-0.8351
X-0.6818 Y-0.8581
X-0.6531 Y-0.8802
X-0.6238 Y-0.9013
X-0.5937 Y-0.9214
X-0.563 Y-0.9405
X-0.5316 Y-0.9586
X-0.4997 Y-0.9756
X-0.4672 Y-0.9916
X-0.4343 Y-1.0065
X-0.4008 Y-1.0203
X-0.3669 Y-1.0329
X-0.3326 Y-1.0445
X-0.298 Y-1.0549
X-0.263 Y-1.0642
X-0.2278 Y-1.0723
X-0.1922 Y-1.0793
X-0.1565 Y-1.0851
X-0.1206 Y-1.0896
X-0.0846 Y-1.093
X-0.0485 Y-1.0952
X-0.0123 Y-1.0962
X0.0239 Y-1.0961
X0.06 Y-1.0947
X0.0961 Y-1.0921
X0.1321 Y-1.0884
X0.1679 Y-1.0835
X0.2036 Y-1.0775
X0.2391 Y-1.0702
X0.2742 Y-1.0618
X0.3091 Y-1.0522
X0.3437 Y-1.0415
X0.3779 Y-1.0297
X0.4117 Y-1.0168
X0.4451 Y-1.0028
X0.478 Y-0.9877
X0.5103 Y-0.9716
X0.5422 Y-0.9544
X0.5735 Y-0.9363
X0.6042 Y-0.9171
X0.6342 Y-0.897
X0.6636 Y-0.8758
X0.6923 Y-0.8538
X0.7203 Y-0.8308
X0.7475 Y-0.807
X0.7739 Y-0.7823
X0.7996 Y-0.7568
X0.8244 Y-0.7305
X0.8484 Y-0.7034
X0.8715 Y-0.6756
X0.8938 Y-0.647
X0.9151 Y-0.6178
X0.9355 Y-0.5879
X0.9549 Y-0.5574
X0.9733 Y-0.5262
X0.9907 Y-0.4945
X1.0071 Y-0.4623
X1.0225 Y-0.4295
X1.0369 Y-0.3963
X1.0502 Y-0.3626
X1.0624 Y-0.3286
X1.0735 Y-0.2942
X1.0836 Y-0.2594
X1.0925 Y-0.2243
X1.1003 Y-0.189
X1.107 Y-0.1535
X1.1125 Y-0.1177
X1.1169 Y-0.0818
X1.1202 Y-0.0457
X1.1223 Y-0.0096
X1.1232 Y0.0265
X1.1231 Y0.0627
X1.1217 Y0.0989
X1.1192 Y0.135
X1.1156 Y0.171
X1.1109 Y0.2068
X1.1049 Y0.2425
X1.0979 Y0.278
X1.0897 Y0.3133
X1.0804 Y0.3482
X1.0699 Y0.3829
X1.0584 Y0.4172
X1.0458 Y0.4511
X1.0321 Y0.4846
X1.0174 Y0.5176
X1.0016 Y0.5502
X0.9848 Y0.5822
X0.967 Y0.6137
X0.9481 Y0.6446
X0.9283 Y0.6749
X0.9076 Y0.7045
X0.8859 Y0.7335
X0.8632 Y0.7617
X0.8397 Y0.7892
X0.8154 Y0.816
X0.7902 Y0.8419
X0.7642 Y0.8671
X0.7374 Y0.8914
X0.7098 Y0.9149
X0.6815 Y0.9374
X0.6526 Y0.9591
X0.6229 Y0.9798
X0.5926 Y0.9995
X0.5616 Y1.0183
X0.5301 Y1.0361
X0.4981 Y1.0529
X0.4655 Y1.0687
X0.4325 Y1.0834
X0.399 Y1.0971
X0.3651 Y1.1097
X0.3308 Y1.1213
X0.2962 Y1.1318
X0.2612 Y1.1412
X0.226 Y1.1494
X0.1905 Y1.1566
X0.1548 Y1.1626
X0.119 Y1.1675
X0.083 Y1.1713
X0.0469 Y1.1739
X0.0108 Y1.1754
X-0.0254 Y1.1758
X-0.0616 Y1.1751
X-0.0977 Y1.1732
X-0.1338 Y1.1703
X-0.1697 Y1.1662
X-0.2055 Y1.1609
X-0.2411 Y1.1546
X-0.2765 Y1.1471
X-0.3117 Y1.1385
X-0.3466 Y1.1289
X-0.3811 Y1.1181
X-0.4153 Y1.1063
X-0.4491 Y1.0935
X-0.4826 Y1.0796
X-0.5155 Y1.0647
X-0.548 Y1.0488
X-0.58 Y1.0319
X-0.6115 Y1.014
X-0.6423 Y0.9951
X-0.6726 Y0.9753
X-0.7022 Y0.9545
X-0.7312 Y0.9329
X-0.7595 Y0.9103
X-0.7871 Y0.8869
X-0.814 Y0.8627
X-0.8401 Y0.8377
X-0.8654 Y0.8118
X-0.89 Y0.7852
X-0.9137 Y0.7579
X-0.9365 Y0.7299
X-0.9585 Y0.7011
X-0.9796 Y0.6717
X-0.9997 Y0.6416
X-1.0189 Y0.611
X-1.0372 Y0.5798
X-1.0545 Y0.548
X-1.0709 Y0.5157
X-1.0862 Y0.4829
X-1.1005 Y0.4497
X-1.1139 Y0.4161
X-1.1262 Y0.3821
X-1.1374 Y0.3477
X-1.1476 Y0.3129
X-1.1567 Y0.2779
X-1.1647 Y0.2426
X-1.1716 Y0.2071
X-1.1775 Y0.1714
X-1.1822 Y0.1355
X-1.1859 Y0.0995
X-1.1884 Y0.0635
X-1.1899 Y0.0273
X-1.1903 Y-0.0089
X-1.1896 Y-0.045
X-1.1877 Y-0.0812
X-1.1848 Y-0.1172
X-1.1808 Y-0.1532
X-1.1756 Y-0.189
X-1.1694 Y-0.2247
X-1.1621 Y-0.2601
X-1.1537 Y-0.2953
X-1.1442 Y-0.3302
X-1.1337 Y-0.3648
X-1.1221 Y-0.3991
X-1.1095 Y-0.433
X-1.0959 Y-0.4666
X-1.0813 Y-0.4997
X-1.0657 Y-0.5323
X-1.0491 Y-0.5644
X-1.0315 Y-0.596
X-1.0129 Y-0.6271
X-0.9934 Y-0.6576
X-0.973 Y-0.6875
X-0.9517 Y-0.7167
X-0.9295 Y-0.7453
X-0.9065 Y-0.7732
X-0.8826 Y-0.8004
X-0.8579 Y-0.8268
X-0.8325 Y-0.8525
X-0.8062 Y-0.8774
X-0.7792 Y-0.9015
X-0.7515 Y-0.9248
X-0.7231 Y-0.9472
X-0.694 Y-0.9687
X-0.6643 Y-0.9893
X-0.6339 Y-1.009
X-0.603 Y-1.0278
X-0.5715 Y-1.0457
X-0.5395 Y-1.0626
X-0.507 Y-1.0785
X-0.4741 Y-1.0934
X-0.4407 Y-1.1073
X-0.4069 Y-1.1202
X-0.3727 Y-1.132
X-0.3381 Y-1.1428
X-0.3033 Y-1.1526
X-0.2682 Y-1.1612
X-0.2328 Y-1.1689
X-0.1972 Y-1.1754
X-0.1614 Y-1.1808
X-0.1255 Y-1.1852
X-0.0895 Y-1.1885
X-0.0534 Y-1.1907
X-0.0172 Y-1.1918
X0.019
X0.0551 Y-1.1907
X0.0913 Y-1.1885
X0.1273 Y-1.1852
X0.1632 Y-1.1808
X0.199 Y-1.1753
X0.2346 Y-1.1688
X0.2699 Y-1.1612
X0.3051 Y-1.1525
X0.3399 Y-1.1428
X0.3745 Y-1.1321
X0.4087 Y-1.1203
X0.4425 Y-1.1075
X0.476 Y-1.0937
X0.509 Y-1.0789
X0.5415 Y-1.0631
X0.5736 Y-1.0464
X0.6052 Y-1.0287
X0.6362 Y-1.01
X0.6666 Y-0.9905
X0.6965 Y-0.9701
X0.7258 Y-0.9488
X0.7544 Y-0.9266
X0.7823 Y-0.9037
X0.8096 Y-0.8799
X0.8361 Y-0.8553
X0.862 Y-0.83
X0.887 Y-0.8039
X0.9113 Y-0.777
X0.9348 Y-0.7495
X0.9574 Y-0.7213
X0.9793 Y-0.6924
X1.0002 Y-0.663
X1.0204 Y-0.6329
X1.0396 Y-0.6022
X1.0579 Y-0.571
X1.0753 Y-0.5393
X1.0918 Y-0.5071
X1.1073 Y-0.4744
X1.1219 Y-0.4413
X1.1354 Y-0.4078
X1.148 Y-0.3738
X1.1596 Y-0.3396
X1.1702 Y-0.305
X1.1798 Y-0.2701
X1.1883 Y-0.2349
X1.1958 Y-0.1995
X1.2023 Y-0.1639
X1.2077 Y-0.1281
X1.2121 Y-0.0922
X1.2154 Y-0.0562
X1.2177 Y-0.0201
X1.2189 Y0.0161
X1.219 Y0.0523
X1.2181 Y0.0884
X1.2161 Y0.1246
X1.213 Y0.1606
X1.2089 Y0.1966
X1.2037 Y0.2324
X1.1975 Y0.268
X1.1902 Y0.3035
X1.1819 Y0.3387
X1.1726 Y0.3736
X1.1623 Y0.4083
X1.1509 Y0.4427
X1.1385 Y0.4767
X1.1252 Y0.5103
X1.1108 Y0.5435
X1.0955 Y0.5763
X1.0792 Y0.6086
X1.062 Y0.6404
X1.0438 Y0.6717
X1.0247 Y0.7024
X1.0048 Y0.7326
X0.9839 Y0.7622
X0.9622 Y0.7911
X0.9397 Y0.8195
X0.9163 Y0.8471
X0.8922 Y0.874
X0.8672 Y0.9002
X0.8415 Y0.9257
X0.8151 Y0.9504
X0.7879 Y0.9743
X0.7601 Y0.9974
X0.7315 Y1.0196
X0.7024 Y1.0411
X0.6726 Y1.0616
X0.6423 Y1.0813
X0.6114 Y1.1001
X0.5799 Y1.118
X0.548 Y1.135
X0.5155 Y1.151
X0.4826 Y1.1661
X0.4493 Y1.1802
X0.4156 Y1.1933
X0.3815 Y1.2054
X0.347 Y1.2165
X0.3123 Y1.2267
X0.2773 Y1.2358
X0.242 Y1.2439
X0.2065 Y1.251
X0.1709 Y1.257
X0.135 Y1.262
X0.0991 Y1.266
X0.063 Y1.2689
X0.0269 Y1.2708
X-0.0093 Y1.2716
X-0.0455 Y1.2714
X-0.0816 Y1.2701
X-0.1177 Y1.2678
X-0.1538 Y1.2645
X-0.1897 Y1.2601
X-0.2255 Y1.2547
X-0.2611 Y1.2482
X-0.2965 Y1.2408
X-0.3317 Y1.2323
X-0.3666 Y1.2229
X-0.4012 Y1.2124
X-0.4355 Y1.2009
X-0.4695 Y1.1884
X-0.5031 Y1.175
X-0.5363 Y1.1606
X-0.5691 Y1.1453
X-0.6014 Y1.1291
X-0.6332 Y1.1119
X-0.6646 Y1.0938
X-0.6954 Y1.0749
X-0.7257 Y1.055
X-0.7554 Y1.0344
X-0.7845 Y1.0129
X-0.8129 Y0.9905
X-0.8407 Y0.9674
X-0.8678 Y0.9434
X-0.8943 Y0.9187
X-0.92 Y0.8933
X-0.945 Y0.8671
X-0.9693 Y0.8403
X-0.9927 Y0.8127
X-1.0154 Y0.7845
X-1.0373 Y0.7557
X-1.0583 Y0.7263
X-1.0785 Y0.6963
X-1.0979 Y0.6657
X-1.1164 Y0.6346
X-1.1339 Y0.603
X-1.1506 Y0.5708
X-1.1663 Y0.5383
X-1.1812 Y0.5053
X-1.195 Y0.4718
X-1.208 Y0.438
X-1.2199 Y0.4039
X-1.2309 Y0.3694
X-1.241 Y0.3347
X-1.25 Y0.2996
X-1.2581 Y0.2644
X-1.2651 Y0.2289
X-1.2712 Y0.1932
X-1.2762 Y0.1574
X-1.2802 Y0.1214
X-1.2832 Y0.0853
X-1.2851 Y0.0492
X-1.2861 Y0.0131
X-1.286 Y-0.0231
X-1.2849 Y-0.0593
X-1.2828 Y-0.0954
X-1.2797 Y-0.1315
X-1.2756 Y-0.1674
X-1.2704 Y-0.2032
X-1.2643 Y-0.2389
X-1.2571 Y-0.2743
X-1.249 Y-0.3096
X-1.2398 Y-0.3446
X-1.2297 Y-0.3793
X-1.2186 Y-0.4138
X-1.2065 Y-0.4479
X-1.1934 Y-0.4816
X-1.1795 Y-0.515
X-1.1646 Y-0.548
X-1.1487 Y-0.5805
X-1.132 Y-0.6126
X-1.1144 Y-0.6442
X-1.0959 Y-0.6753
X-1.0765 Y-0.7058
X-1.0563 Y-0.7358
X-1.0352 Y-0.7652
X-1.0133 Y-0.794
X-0.9906 Y-0.8222
X-0.9671 Y-0.8497
X-0.9428 Y-0.8766
X-0.9178 Y-0.9027
X-0.8921 Y-0.9282
X-0.8657 Y-0.9529
X-0.8386 Y-0.9769
X-0.8108 Y-1.0001
X-0.7824 Y-1.0225
X-0.7534 Y-1.0441
X-0.7238 Y-1.0649
X-0.6936 Y-1.0848
X-0.6628 Y-1.1039
X-0.6316 Y-1.1221
X-0.5998 Y-1.1394
X-0.5675 Y-1.1558
X-0.5348 Y-1.1713
X-0.5017 Y-1.1858
X-0.4682 Y-1.1995
X-0.4343 Y-1.2122
X-0.4001 Y-1.2239
X-0.3656 Y-1.2347
X-0.3307 Y-1.2445
X-0.2957 Y-1.2533
X-0.2603 Y-1.2612
X-0.2248 Y-1.268
X-0.1891 Y-1.2738
X-0.1532 Y-1.2786
X-0.1172 Y-1.2824
X-0.0812 Y-1.2852
X-0.045 Y-1.287
X-0.0089 Y-1.2878
X0.0273 Y-1.2875
X0.0635 Y-1.2863
X0.0996 Y-1.284
X0.1356 Y-1.2808
X0.1716 Y-1.2765
X0.2074 Y-1.2712
X0.243 Y-1.2649
X0.2784 Y-1.2576
X0.3137 Y-1.2494
X0.3486 Y-1.2401
X0.3833 Y-1.2299
X0.4178 Y-1.2187
X0.4519 Y-1.2066
X0.4856 Y-1.1936
X0.519 Y-1.1796
X0.5519 Y-1.1647
X0.5845 Y-1.1489
X0.6166 Y-1.1322
X0.6482 Y-1.1146
X0.6794 Y-1.0962
X0.71 Y-1.0769
X0.74 Y-1.0568
X0.7695 Y-1.0358
X0.7985 Y-1.0141
X0.8268 Y-0.9916
X0.8545 Y-0.9683
X0.8815 Y-0.9442
X0.9079 Y-0.9195
X0.9336 Y-0.894
X0.9586 Y-0.8679
X0.9829 Y-0.841
X1.0064 Y-0.8136
X1.0292 Y-0.7855
X1.0512 Y-0.7567
X1.0724 Y-0.7274
X1.0928 Y-0.6975
X1.1124 Y-0.6671
X1.1312 Y-0.6362
X1.1491 Y-0.6047
X1.1661 Y-0.5728
X1.1823 Y-0.5405
X1.1976 Y-0.5077
X1.212 Y-0.4745
X1.2255 Y-0.4409
X1.2381 Y-0.407
X1.2498 Y-0.3728
X1.2606 Y-0.3382
X1.2703 Y-0.3034
X1.2792 Y-0.2683
X1.287 Y-0.233
X1.2939 Y-0.1975
X1.2998 Y-0.1618
X1.3048 Y-0.1259
X1.3088 Y-0.09
X1.3118 Y-0.0539
X1.3138 Y-0.0178
X1.3149 Y0.0184
X1.315 Y0.0546
X1.3141 Y0.0907
X1.3122 Y0.1269
X1.3093 Y0.1629
X1.3054 Y0.1989
X1.3005 Y0.2348
X1.2947 Y0.2705
X1.2879 Y0.306
X1.2801 Y0.3413
X1.2714 Y0.3765
X1.2617 Y0.4113
X1.251 Y0.4459
X1.2395 Y0.4802
X1.227 Y0.5141
X1.2135 Y0.5477
X1.1992 Y0.581
X1.184 Y0.6138
X1.1679 Y0.6462
X1.1509 Y0.6781
X1.133 Y0.7096
X1.1143 Y0.7405
X1.0947 Y0.771
X1.0743 Y0.8008
X1.0531 Y0.8302
X1.0311 Y0.8589
X1.0084 Y0.887
X0.9848 Y0.9145
X0.9606 Y0.9414
X0.9356 Y0.9676
X0.9099 Y0.9931
X0.8836 Y1.0179
X0.8566 Y1.0419
X0.8289 Y1.0652
X0.8006 Y1.0877
X0.7717 Y1.1095
X0.7422 Y1.1305
X0.7121 Y1.1506
X0.6816 Y1.17
X0.6505 Y1.1885
X0.6189 Y1.2061
X0.5868 Y1.2229
X0.5543 Y1.2388
X0.5214 Y1.2539
X0.4881 Y1.268
X0.4545 Y1.2813
X0.4205 Y1.2936
X0.3861 Y1.305
X0.3515 Y1.3154
X0.3166 Y1.325
X0.2814 Y1.3335
X0.246 Y1.3412
X0.2105 Y1.3478
X0.1747 Y1.3535
X0.1389 Y1.3583
X0.1029 Y1.3621
X0.0668 Y1.3649
X0.0307 Y1.3668
X-0.0055 Y1.3676
X-0.0417
X-0.0778 Y1.3665
X-0.114 Y1.3645
X-0.15 Y1.3615
X-0.186 Y1.3575
X-0.2218 Y1.3525
X-0.2575 Y1.3466
X-0.293 Y1.3398
X-0.3284 Y1.332
X-0.3635 Y1.3233
X-0.3984 Y1.3136
X-0.433 Y1.3031
X-0.4673 Y1.2916
X-0.5013 Y1.2792
X-0.5349 Y1.2659
X-0.5682 Y1.2517
X-0.6011 Y1.2366
X-0.6336 Y1.2206
X-0.6656 Y1.2038
X-0.6972 Y1.1861
X-0.7283 Y1.1676
X-0.7589 Y1.1483
X-0.7889 Y1.1282
X-0.8185 Y1.1073
X-0.8474 Y1.0856
X-0.8758 Y1.0632
X-0.9036 Y1.04
X-0.9308 Y1.0161
X-0.9573 Y0.9915
X-0.9831 Y0.9662
X-1.0083 Y0.9402
X-1.0328 Y0.9136
X-1.0565 Y0.8863
X-1.0796 Y0.8584
X-1.1019 Y0.8299
X-1.1234 Y0.8008
X-1.1441 Y0.7711
X-1.1641 Y0.741
X-1.1833 Y0.7103
X-1.2016 Y0.6791
X-1.2191 Y0.6474
X-1.2358 Y0.6153
X-1.2517 Y0.5828
X-1.2666 Y0.5499
X-1.2807 Y0.5165
X-1.2939 Y0.4829
X-1.3062 Y0.4488
X-1.3176 Y0.4145
X-1.3281 Y0.3799
X-1.3377 Y0.345
X-1.3464 Y0.3099
X-1.3542 Y0.2745
X-1.361 Y0.239
X-1.3669 Y0.2033
X-1.3718 Y0.1674
X-1.3758 Y0.1315
X-1.3789 Y0.0954
X-1.381 Y0.0593
X-1.3821 Y0.0231
X-1.3823 Y-0.013
X-1.3816 Y-0.0492
X-1.3799 Y-0.0854
X-1.3772 Y-0.1214
X-1.3736 Y-0.1574
X-1.3691 Y-0.1933
X-1.3636 Y-0.2291
X-1.3572 Y-0.2647
X-1.3499 Y-0.3001
X-1.3416 Y-0.3354
X-1.3324 Y-0.3704
X-1.3223 Y-0.4051
X-1.3114 Y-0.4396
X-1.2995 Y-0.4738
X-1.2867 Y-0.5076
X-1.273 Y-0.5411
X-1.2584 Y-0.5742
X-1.243 Y-0.6069
X-1.2267 Y-0.6393
X-1.2096 Y-0.6711
X-1.1916 Y-0.7026
X-1.1729 Y-0.7335
X-1.1533 Y-0.7639
X-1.133 Y-0.7939
X-1.1119 Y-0.8232
X-1.09 Y-0.852
X-1.0673 Y-0.8803
X-1.044 Y-0.9079
X-1.0199 Y-0.9349
X-0.9951 Y-0.9613
X-0.9697 Y-0.987
X-0.9435 Y-1.012
X-0.9167 Y-1.0363
X-0.8893 Y-1.06
X-0.8613 Y-1.0829
X-0.8327 Y-1.105
X-0.8036 Y-1.1264
X-0.7738 Y-1.1471
X-0.7436 Y-1.1669
X-0.7128 Y-1.186
X-0.6816 Y-1.2043
X-0.6499 Y-1.2217
X-0.6177 Y-1.2383
X-0.5852 Y-1.254
X-0.5522 Y-1.2689
X-0.5188 Y-1.2829
X-0.4851 Y-1.296
X-0.4511 Y-1.3083
X-0.4167 Y-1.3196
X-0.3821 Y-1.3301
X-0.3472 Y-1.3396
X-0.312 Y-1.3482
X-0.2767 Y-1.3559
X-0.2411 Y-1.3627
X-0.2054 Y-1.3686
X-0.1696 Y-1.3735
X-0.1336 Y-1.3775
X-0.0976 Y-1.3805
X-0.0614 Y-1.3826
X-0.0253 Y-1.3838
X0.0109 Y-1.384
X0.0471 Y-1.3832
X0.0832 Y-1.3815
X0.1193 Y-1.3789
X0.1553 Y-1.3753
X0.1912 Y-1.3709
X0.227 Y-1.3654
X0.2626 Y-1.3591
X0.298 Y-1.3518
X0.3333 Y-1.3436
X0.3683 Y-1.3345
X0.4031 Y-1.3245
X0.4376 Y-1.3136
X0.4718 Y-1.3018
X0.5057 Y-1.2891
X0.5392 Y-1.2756
X0.5724 Y-1.2612
X0.6052 Y-1.2459
X0.6376 Y-1.2298
X0.6696 Y-1.2129
X0.7012 Y-1.1952
X0.7322 Y-1.1766
X0.7628 Y-1.1573
X0.7929 Y-1.1372
X0.8225 Y-1.1164
X0.8515 Y-1.0948
X0.88 Y-1.0724
X0.9078 Y-1.0494
X0.9351 Y-1.0256
X0.9618 Y-1.0011
X0.9878 Y-0.976
X1.0132 Y-0.9502
X1.0379 Y-0.9238
X1.062 Y-0.8968
X1.0853 Y-0.8692
X1.108 Y-0.841
X1.1299 Y-0.8122
X1.1511 Y-0.7829
X1.1716 Y-0.753
X1.1913 Y-0.7227
X1.2102 Y-0.6918
X1.2283 Y-0.6605
X1.2456 Y-0.6287
X1.2621 Y-0.5965
X1.2778 Y-0.5639
X1.2927 Y-0.5309
X1.3067 Y-0.4976
X1.3198 Y-0.4639
X1.3322 Y-0.4298
X1.3436 Y-0.3955
X1.3542 Y-0.3609
X1.3639 Y-0.3261
X1.3727 Y-0.291
X1.3806 Y-0.2557
X1.3877 Y-0.2202
X1.3938 Y-0.1845
X1.399 Y-0.1487
X1.4033 Y-0.1128
X1.4067 Y-0.0768
X1.4091 Y-0.0407
X1.4107 Y-0.0045
X1.4113 Y0.0317
X1.411 Y0.0678
X1.4098 Y0.104
X1.4077 Y0.1401
X1.4047 Y0.1762
X1.4007 Y0.2121
X1.3959 Y0.248
X1.3901 Y0.2837
X1.3835 Y0.3193
X1.3759 Y0.3547
X1.3674 Y0.3898
X1.358 Y0.4248
X1.3477 Y0.4595
X1.3366 Y0.4939
X1.3246 Y0.528
X1.3117 Y0.5618
X1.298 Y0.5953
X1.2834 Y0.6284
X1.268 Y0.6612
X1.2518 Y0.6935
X1.2347 Y0.7254
X1.2168 Y0.7569
X1.1982 Y0.7879
X1.1788 Y0.8184
X1.1585 Y0.8484
X1.1376 Y0.8779
X1.1159 Y0.9068
X1.0934 Y0.9352
X1.0702 Y0.963
X1.0464 Y0.9902
X1.0219 Y1.0168
X0.9967 Y1.0428
X0.9708 Y1.0681
X0.9443 Y1.0927
X0.9172 Y1.1167
X0.8895 Y1.14
X0.8612 Y1.1625
X0.8324 Y1.1844
X0.803 Y1.2055
X0.7731 Y1.2259
X0.7427 Y1.2454
X0.7117 Y1.2642
X0.6804 Y1.2822
X0.6485 Y1.2994
X0.6163 Y1.3159
X0.5836 Y1.3314
X0.5506 Y1.3462
X0.5172 Y1.3601
X0.4835 Y1.3732
X0.4494 Y1.3855
X0.4151 Y1.3968
X0.3805 Y1.4073
X0.3456 Y1.417
X0.3105 Y1.4257
X0.2751 Y1.4335
X0.2396 Y1.4405
X0.204 Y1.4466
X0.1682 Y1.4517
X0.1322 Y1.456
X0.0962 Y1.4593
X0.0601 Y1.4618
X0.024 Y1.4633
X-0.0122 Y1.464
X-0.0484 Y1.4638
X-0.0846 Y1.4626
X-0.1207 Y1.4605
X-0.1568 Y1.4576
X-0.1927 Y1.4537
X-0.2286 Y1.449
X-0.2643 Y1.4433
X-0.2999 Y1.4367
X-0.3353 Y1.4293
X-0.3705 Y1.421
X-0.4055 Y1.4118
X-0.4403 Y1.4017
X-0.4748 Y1.3908
X-0.509 Y1.379
X-0.5429 Y1.3664
X-0.5765 Y1.3529
X-0.6097 Y1.3386
X-0.6426 Y1.3235
X-0.6751 Y1.3076
X-0.7072 Y1.2909
X-0.7388 Y1.2734
X-0.77 Y1.2551
X-0.8008 Y1.236
X-0.8311 Y1.2162
X-0.8608 Y1.1956
X-0.8901 Y1.1743
X-0.9188 Y1.1522
X-0.9469 Y1.1295
X-0.9745 Y1.1061
X-1.0015 Y1.082
X-1.0279 Y1.0573
X-1.0537 Y1.0319
X-1.0788 Y1.0059
X-1.1033 Y0.9793
X-1.1272 Y0.952
X-1.1503 Y0.9242
X-1.1728 Y0.8959
X-1.1945 Y0.8669
X-1.2155 Y0.8375
X-1.2358 Y0.8075
X-1.2553 Y0.7771
X-1.2741 Y0.7461
X-1.2922 Y0.7148
X-1.3094 Y0.683
X-1.3259 Y0.6507
X-1.3415 Y0.6181
X-1.3564 Y0.5851
X-1.3704 Y0.5518
X-1.3836 Y0.5181
X-1.396 Y0.4841
X-1.4076 Y0.4498
X-1.4183 Y0.4153
X-1.4281 Y0.3804
X-1.4371 Y0.3454
X-1.4452 Y0.3101
X-1.4524 Y0.2747
X-1.4588 Y0.2391
X-1.4643 Y0.2033
X-1.4689 Y0.1674
X-1.4726 Y0.1314
X-1.4755 Y0.0953
X-1.4774 Y0.0592
X-1.4785 Y0.0231
X-1.4787 Y-0.0131
X-1.478 Y-0.0493
X-1.4765 Y-0.0855
X-1.474 Y-0.1216
X-1.4706 Y-0.1576
X-1.4664 Y-0.1935
X-1.4613 Y-0.2293
X-1.4553 Y-0.265
X-1.4484 Y-0.3005
X-1.4406 Y-0.3359
X-1.432 Y-0.371
X-1.4226 Y-0.4059
X-1.4123 Y-0.4406
X-1.4011 Y-0.475
X-1.3891 Y-0.5092
X-1.3763 Y-0.543
X-1.3626 Y-0.5765
X-1.3482 Y-0.6097
X-1.3329 Y-0.6425
X-1.3168 Y-0.6749
X-1.3 Y-0.7069
X-1.2823 Y-0.7385
X-1.2639 Y-0.7696
X-1.2447 Y-0.8003
X-1.2248 Y-0.8305
X-1.2041 Y-0.8602
X-1.1828 Y-0.8894
X-1.1607 Y-0.9181
X-1.1379 Y-0.9462
X-1.1145 Y-0.9738
X-1.0903 Y-1.0007
X-1.0656 Y-1.0271
X-1.0402 Y-1.0529
X-1.0141 Y-1.078
X-0.9875 Y-1.1025
X-0.9603 Y-1.1263
X-0.9325 Y-1.1494
X-0.9041 Y-1.1719
X-0.8752 Y-1.1936
X-0.8457 Y-1.2147
X-0.8158 Y-1.235
X-0.7854 Y-1.2546
X-0.7545 Y-1.2734
X-0.7231 Y-1.2915
X-0.6914 Y-1.3088
X-0.6592 Y-1.3253
X-0.6266 Y-1.3411
X-0.5936 Y-1.356
X-0.5603 Y-1.3701
X-0.5267 Y-1.3834
X-0.4927 Y-1.3959
X-0.4584 Y-1.4075
X-0.4239 Y-1.4183
X-0.3891 Y-1.4282
X-0.3541 Y-1.4373
X-0.3189 Y-1.4455
X-0.2834 Y-1.4529
X-0.2478 Y-1.4594
X-0.2121 Y-1.465
X-0.1762 Y-1.4698
X-0.1403 Y-1.4737
X-0.1042 Y-1.4767
X-0.0681 Y-1.4788
X-0.0319 Y-1.4801
X0.0043 Y-1.4804
X0.0404 Y-1.4799
X0.0766 Y-1.4785
X0.1127 Y-1.4762
X0.1487 Y-1.473
X0.1847 Y-1.469
X0.2205 Y-1.4641
X0.2563 Y-1.4583
X0.2918 Y-1.4516
X0.3272 Y-1.4441
X0.3624 Y-1.4357
X0.3974 Y-1.4265
X0.4322 Y-1.4165
X0.4667 Y-1.4056
X0.5009 Y-1.3938
X0.5348 Y-1.3813
X0.5685 Y-1.3679
X0.6017 Y-1.3537
X0.6347 Y-1.3388
X0.6672 Y-1.323
X0.6994 Y-1.3064
X0.7312 Y-1.2891
X0.7625 Y-1.271
X0.7934 Y-1.2522
X0.8239 Y-1.2327
X0.8538 Y-1.2124
X0.8833 Y-1.1914
X0.9123 Y-1.1697
X0.9407 Y-1.1474
X0.9686 Y-1.1243
X0.996 Y-1.1006
X1.0227 Y-1.0763
X1.0489 Y-1.0513
X1.0745 Y-1.0257
X1.0994 Y-0.9995
X1.1238 Y-0.9727
X1.1475 Y-0.9454
X1.1705 Y-0.9175
X1.1928 Y-0.889
X1.2145 Y-0.8601
X1.2355 Y-0.8306
X1.2558 Y-0.8006
X1.2754 Y-0.7702
X1.2942 Y-0.7393
X1.3123 Y-0.708
X1.3297 Y-0.6762
X1.3463 Y-0.6441
X1.3621 Y-0.6116
X1.3772 Y-0.5787
X1.3914 Y-0.5454
X1.4049 Y-0.5118
X1.4176 Y-0.4779
X1.4294 Y-0.4437
X1.4405 Y-0.4093
X1.4507 Y-0.3746
X1.4601 Y-0.3396
X1.4687 Y-0.3045
X1.4764 Y-0.2691
X1.4833 Y-0.2336
X1.4894 Y-0.198
X1.4946 Y-0.1622
X1.4989 Y-0.1262
X1.5024 Y-0.0902
X1.5051 Y-0.0541
X1.5068 Y-0.018
X1.5077 Y0.0182
X1.5078 Y0.0544
X1.507 Y0.0905
X1.5053 Y0.1267
X1.5028 Y0.1628
X1.4994 Y0.1988
X1.4951 Y0.2347
X1.4901 Y0.2705
X1.4841 Y0.3062
X1.4773 Y0.3418
X1.4697 Y0.3771
X1.4612 Y0.4123
X1.4519 Y0.4473
X1.4418 Y0.482
X1.4308 Y0.5165
X1.419 Y0.5507
X1.4064 Y0.5846
X1.393 Y0.6182
X1.3788 Y0.6515
X1.3638 Y0.6844
X1.3481 Y0.717
X1.3315 Y0.7492
X1.3142 Y0.781
X1.2962 Y0.8123
X1.2774 Y0.8432
X1.2579 Y0.8737
X1.2376 Y0.9037
X1.2167 Y0.9332
X1.195 Y0.9622
X1.1727 Y0.9907
X1.1497 Y1.0186
X1.126 Y1.046
X1.1017 Y1.0728
X1.0768 Y1.099
X1.0512 Y1.1246
X1.0251 Y1.1496
X0.9983 Y1.1739
X0.971 Y1.1977
X0.9431 Y1.2207
X0.9147 Y1.2432
X0.8858 Y1.2649
X0.8564 Y1.2859
X0.8264 Y1.3063
X0.796 Y1.3259
X0.7652 Y1.3448
X0.7339 Y1.3629
X0.7022 Y1.3803
X0.67 Y1.397
X0.6375 Y1.4128
X0.6046 Y1.4279
X0.5714 Y1.4423
X0.5379 Y1.4558
X0.504 Y1.4685
X0.4698 Y1.4805
X0.4354 Y1.4916
X0.4007 Y1.5019
X0.3658 Y1.5114
X0.3307 Y1.5201
X0.2954 Y1.5279
X0.2599 Y1.5349
X0.2242 Y1.5411
X0.1884 Y1.5464
X0.1525 Y1.5509
X0.1165 Y1.5545
X0.0805 Y1.5573
X0.0443 Y1.5592
X0.0082 Y1.5603
X-0.028 Y1.5606
X-0.0642 Y1.5599
X-0.1004 Y1.5585
X-0.1365 Y1.5562
X-0.1725 Y1.553
X-0.2085 Y1.5491
X-0.2443 Y1.5442
X-0.2801 Y1.5386
X-0.3157 Y1.5321
X-0.3511 Y1.5247
X-0.3863 Y1.5166
X-0.4214 Y1.5076
X-0.4562 Y1.4978
X-0.4908 Y1.4871
X-0.5251 Y1.4757
X-0.5592 Y1.4635
X-0.5929 Y1.4505
X-0.6264 Y1.4367
X-0.6595 Y1.4221
X-0.6923 Y1.4068
X-0.7247 Y1.3907
X-0.7567 Y1.3739
X-0.7883 Y1.3563
X-0.8196 Y1.338
X-0.8503 Y1.3189
X-0.8807 Y1.2992
X-0.9105 Y1.2788
X-0.9399 Y1.2576
X-0.9687 Y1.2358
X-0.9971 Y1.2133
X-1.0249 Y1.1902
X-1.0522 Y1.1664
X-1.0789 Y1.142
X-1.105 Y1.117
X-1.1306 Y1.0914
X-1.1556 Y1.0652
X-1.1799 Y1.0385
X-1.2037 Y1.0112
X-1.2267 Y0.9833
X-1.2492 Y0.9549
X-1.271 Y0.926
X-1.2921 Y0.8966
X-1.3125 Y0.8668
X-1.3322 Y0.8364
X-1.3512 Y0.8056
X-1.3695 Y0.7744
X-1.387 Y0.7428
X-1.4038 Y0.7107
X-1.4199 Y0.6783
X-1.4352 Y0.6455
X-1.4498 Y0.6124
X-1.4636 Y0.579
X-1.4766 Y0.5452
X-1.4889 Y0.5112
X-1.5003 Y0.4768
X-1.511 Y0.4423
X-1.5209 Y0.4075
X-1.5299 Y0.3724
X-1.5382 Y0.3372
X-1.5456 Y0.3018
X-1.5522 Y0.2662
X-1.558 Y0.2305
X-1.5629 Y0.1947
X-1.5671 Y0.1587
X-1.5704 Y0.1227
X-1.5728 Y0.0866
X-1.5745 Y0.0504
X-1.5753 Y0.0143
X-1.5752 Y-0.0219
X-1.5744 Y-0.0581
X-1.5727 Y-0.0942
X-1.5702 Y-0.1303
X-1.5669 Y-0.1664
X-1.5627 Y-0.2023
X-1.5577 Y-0.2381
X-1.5519 Y-0.2738
X-1.5452 Y-0.3094
X-1.5377 Y-0.3448
X-1.5294 Y-0.38
X-1.5203 Y-0.4151
X-1.5105 Y-0.4499
X-1.4998 Y-0.4844
X-1.4883 Y-0.5187
X-1.476 Y-0.5528
X-1.463 Y-0.5865
X-1.4492 Y-0.62
X-1.4346 Y-0.6531
X-1.4192 Y-0.6858
X-1.4032 Y-0.7183
X-1.3863 Y-0.7503
X-1.3688 Y-0.7819
X-1.3505 Y-0.8132
X-1.3315 Y-0.844
X-1.3118 Y-0.8743
X-1.2914 Y-0.9042
X-1.2703 Y-0.9336
X-1.2486 Y-0.9625
X-1.2262 Y-0.9909
X-1.2031 Y-1.0188
X-1.1794 Y-1.0462
X-1.1551 Y-1.073
X-1.1302 Y-1.0992
X-1.1047 Y-1.1249
X-1.0786 Y-1.1499
X-1.052 Y-1.1744
X-1.0248 Y-1.1983
X-0.997 Y-1.2215
X-0.9688 Y-1.2441
X-0.94 Y-1.266
X-0.9107 Y-1.2872
X-0.8809 Y-1.3078
X-0.8507 Y-1.3276
X-0.82 Y-1.3468
X-0.7889 Y-1.3653
X-0.7573 Y-1.383
X-0.7254 Y-1.4
X-0.6931 Y-1.4163
X-0.6604 Y-1.4319
X-0.6274 Y-1.4467
X-0.594 Y-1.4607
X-0.5604 Y-1.474
X-0.5264 Y-1.4864
X-0.4922 Y-1.4981
X-0.4577 Y-1.5091
X-0.423 Y-1.5192
X-0.388 Y-1.5285
X-0.3528 Y-1.537
X-0.3175 Y-1.5447
X-0.2819 Y-1.5515
X-0.2463 Y-1.5576
X-0.2105 Y-1.5628
X-0.1746 Y-1.5673
X-0.1386 Y-1.5709
X-0.1025 Y-1.5737
X-0.0664 Y-1.5756
X-0.0302 Y-1.5767
X0.006 Y-1.5771
X0.0422 Y-1.5765
X0.0783 Y-1.5752
X0.1144 Y-1.573
X0.1505 Y-1.57
X0.1865 Y-1.5662
X0.2224 Y-1.5615
X0.2581 Y-1.556
X0.2937 Y-1.5497
X0.3292 Y-1.5426
X0.3645 Y-1.5347
X0.3997 Y-1.526
X0.4346 Y-1.5165
X0.4692 Y-1.5062
X0.5037 Y-1.4951
X0.5379 Y-1.4833
X0.5718 Y-1.4706
X0.6054 Y-1.4572
X0.6387 Y-1.4431
X0.6717 Y-1.4282
X0.7043 Y-1.4125
X0.7366 Y-1.3962
X0.7684 Y-1.3791
X0.7999 Y-1.3612
X0.831 Y-1.3427
X0.8616 Y-1.3235
X0.8919 Y-1.3035
X0.9216 Y-1.283
X0.9509 Y-1.2617
X0.9797 Y-1.2398
X1.008 Y-1.2173
X1.0358 Y-1.1941
X1.0631 Y-1.1703
X1.0898 Y-1.146
X1.116 Y-1.121
X1.1416 Y-1.0954
X1.1666 Y-1.0693
X1.1911 Y-1.0426
X1.2149 Y-1.0154
X1.2381 Y-0.9877
X1.2607 Y-0.9594
X1.2827 Y-0.9306
X1.304 Y-0.9014
X1.3246 Y-0.8717
X1.3446 Y-0.8415
X1.3639 Y-0.8109
X1.3825 Y-0.7799
X1.4005 Y-0.7485
X1.4177 Y-0.7166
X1.4342 Y-0.6845
X1.45 Y-0.6519
X1.4651 Y-0.619
X1.4794 Y-0.5858
X1.4857 Y-0.5702
X1.4863 Y-0.5685
X1.4911 Y-0.5548
X1.5238 Y-0.4602
X1.5251 Y-0.4561
X1.532 Y-0.4312
X1.536 Y-0.415
X1.5579 Y-0.3246
X1.5598 Y-0.3164
X1.5649 Y-0.2918
X1.5697 Y-0.2589
X1.5838 Y-0.1603
X1.585 Y-0.152
X1.5867 Y-0.1192
X1.5914 Y-0.0205
X1.5917 Y-0.0123
Y0.0123
X1.5914 Y0.0205
X1.5863 Y0.1274
X1.585 Y0.152
X1.5838 Y0.1603
X1.5661 Y0.2835
X1.5649 Y0.2919
X1.5598 Y0.3164
X1.5579 Y0.3246
X1.534 Y0.4233
X1.5319 Y0.4315
X1.5251 Y0.4561
X1.5238 Y0.4602
X1.4883 Y0.563
X1.4854 Y0.5712
X1.4763 Y0.5959
X1.4745 Y0.6
X1.4252 Y0.7079
X1.4118 Y0.7356
X1.4088 Y0.7409
X1.3502 Y0.8424
X1.3452 Y0.8506
X1.3293 Y0.8753
X1.2692 Y0.9597
X1.2609 Y0.9711
X1.2527 Y0.9825
X1.2464 Y0.9904
X1.1542 Y1.0968
X1.1538 Y1.0972
X1.1454 Y1.1054
X1.1369 Y1.1136
X1.0474 Y1.199
X1.0418 Y1.204
X1.0309 Y1.2127
X0.9324 Y1.2902
X0.9264 Y1.2945
X0.9077 Y1.3072
X0.9022 Y1.3109
X0.8091 Y1.3707
X0.8009 Y1.3759
X0.7927 Y1.3808
X0.6859 Y1.4358
X0.6777 Y1.4399
X0.6557 Y1.4506
X0.6531 Y1.4518
X0.5463 Y1.4946
X0.5381 Y1.4977
X0.5216 Y1.5039
X0.5134 Y1.5069
X0.382 Y1.5455
X0.3738 Y1.5477
X0.2752 Y1.5668
X0.2382 Y1.5739
X0.2341 Y1.5745
X0.2095 Y1.5777
X0.2013 Y1.5785
X0.1027 Y1.588
X0.0945 Y1.5887
X0.0698 Y1.5905
X0.0534
X-0.0616
X-0.0698
X-0.0945 Y1.5887
X-0.1027 Y1.588
X-0.2013 Y1.5785
X-0.2095 Y1.5777
X-0.2341 Y1.5745
X-0.2382 Y1.5739
X-0.366 Y1.5492
X-0.3738 Y1.5477
X-0.382 Y1.5455
X-0.5134 Y1.5069
X-0.5216 Y1.5039
X-0.5381 Y1.4977
X-0.5463 Y1.4946
X-0.6531 Y1.4518
X-0.6557 Y1.4506
X-0.6777 Y1.4399
X-0.6859 Y1.4358
X-0.7927 Y1.3808
X-0.8009 Y1.3759
X-0.8091 Y1.3707
X-0.9022 Y1.3109
X-0.9077 Y1.3072
X-0.9264 Y1.2945
X-0.9324 Y1.2902
X-1.0315 Y1.2123
X-1.0418 Y1.204
X-1.0474 Y1.199
X-1.1377 Y1.1129
X-1.1459 Y1.1049
X-1.1538 Y1.0972
X-1.1966 Y1.0479
X-1.2464 Y0.9904
X-1.253 Y0.9821
X-1.2649 Y0.9657
X-1.2825 Y0.941
X-1.3293 Y0.8753
X-1.3452 Y0.8506
X-1.3502 Y0.8424
X-1.4088 Y0.7409
X-1.4118 Y0.7356
X-1.4252 Y0.7079
X-1.4745 Y0.6
X-1.4763 Y0.5959
X-1.4854 Y0.5712
X-1.4883 Y0.563
X-1.5238 Y0.4602
X-1.5251 Y0.4561
X-1.532 Y0.4312
X-1.536 Y0.415
X-1.5579 Y0.3246
X-1.5598 Y0.3164
X-1.5649 Y0.2918
X-1.5697 Y0.2589
X-1.5838 Y0.1603
X-1.585 Y0.152
X-1.5867 Y0.1192
X-1.5914 Y0.0205
X-1.5917 Y0.0123
Y-0.0123
X-1.5914 Y-0.0205
X-1.5863 Y-0.1274
X-1.585 Y-0.152
X-1.5838 Y-0.1603
X-1.5661 Y-0.2835
X-1.5649 Y-0.2919
X-1.5598 Y-0.3164
X-1.5579 Y-0.3246
X-1.534 Y-0.4233
X-1.5319 Y-0.4315
X-1.5251 Y-0.4561
X-1.5238 Y-0.4602
X-1.4883 Y-0.563
X-1.4854 Y-0.5712
X-1.4763 Y-0.5959
X-1.4745 Y-0.6
X-1.4252 Y-0.7079
X-1.4118 Y-0.7356
X-1.4088 Y-0.7409
X-1.3502 Y-0.8424
X-1.3452 Y-0.8506
X-1.3293 Y-0.8753
X-1.2692 Y-0.9597
X-1.2609 Y-0.9711
X-1.2527 Y-0.9825
X-1.2464 Y-0.9904
X-1.1542 Y-1.0968
X-1.1538 Y-1.0972
X-1.1454 Y-1.1054
X-1.1369 Y-1.1136
X-1.0474 Y-1.199
X-1.0418 Y-1.204
X-1.0309 Y-1.2127
X-0.9324 Y-1.2902
X-0.9264 Y-1.2945
X-0.9077 Y-1.3072
X-0.9022 Y-1.3109
X-0.8091 Y-1.3707
X-0.8009 Y-1.3759
X-0.7927 Y-1.3808
X-0.6859 Y-1.4358
X-0.6777 Y-1.4399
X-0.6557 Y-1.4506
X-0.6531 Y-1.4518
X-0.5463 Y-1.4946
X-0.5381 Y-1.4977
X-0.5216 Y-1.5039
X-0.5134 Y-1.5069
X-0.382 Y-1.5455
X-0.3738 Y-1.5477
X-0.2752 Y-1.5668
X-0.2382 Y-1.5739
X-0.2341 Y-1.5745
X-0.2095 Y-1.5777
X-0.2013 Y-1.5785
X-0.1027 Y-1.588
X-0.0945 Y-1.5887
X-0.0698 Y-1.5905
X-0.0534
X0.0616
X0.0698
X0.0945 Y-1.5887
X0.1027 Y-1.588
X0.2013 Y-1.5785
X0.2095 Y-1.5777
X0.2341 Y-1.5745
X0.2382 Y-1.5739
X0.366 Y-1.5492
X0.3738 Y-1.5477
X0.382 Y-1.5455
X0.5134 Y-1.5069
X0.5216 Y-1.5039
X0.5381 Y-1.4977
X0.5463 Y-1.4946
X0.6531 Y-1.4518
X0.6557 Y-1.4506
X0.6777 Y-1.4399
X0.6859 Y-1.4358
X0.7927 Y-1.3808
X0.8009 Y-1.3759
X0.8091 Y-1.3707
X0.9022 Y-1.3109
X0.9077 Y-1.3072
X0.9264 Y-1.2945
X0.9324 Y-1.2902
X1.0315 Y-1.2123
X1.0418 Y-1.204
X1.0474 Y-1.199
X1.1377 Y-1.1129
X1.1459 Y-1.1049
X1.1538 Y-1.0972
X1.1966 Y-1.0479
X1.2464 Y-0.9904
X1.253 Y-0.9821
X1.2649 Y-0.9657
X1.2825 Y-0.941
X1.3293 Y-0.8753
X1.3452 Y-0.8506
X1.3502 Y-0.8424
X1.4088 Y-0.7409
X1.4118 Y-0.7356
X1.4252 Y-0.7079
X1.4745 Y-0.6
X1.4763 Y-0.5959
X1.4854 Y-0.5712
X1.4863 Y-0.5685
X1.487 Y-0.5656 F90
X1.4874 Y-0.5627
Y-0.561 Z-0.1199
X1.4869 Y-0.5581 Z-0.1196
X1.4864 Y-0.5552 Z-0.1188
X1.4859 Y-0.5524 Z-0.1177
X1.4843 Y-0.5496 Z-0.1159
X1.4828 Y-0.547 Z-0.1135
X1.4815 Y-0.5448 Z-0.1108
X1.48 Y-0.5435 Z-0.108
X1.4789 Y-0.5424 Z-0.105
X1.478 Y-0.5416 Z-0.1018
X1.4775 Y-0.5411 Z-0.0984
X1.4773 Y-0.541 Z-0.095
Z0.2 F80
X-0.1113 Y-0.0412
Z-0.02
S10000
G3 X0.1113 Y0.0412 Z-0.033 I0.1113 J0.0412 F60
X-0.1113 Y-0.0412 Z-0.0461 I-0.1113 J-0.0412
X0.1113 Y0.0412 Z-0.0591 I0.1113 J0.0412
X-0.1113 Y-0.0412 Z-0.0721 I-0.1113 J-0.0412
X0.1113 Y0.0412 Z-0.0851 I0.1113 J0.0412
X-0.1113 Y-0.0412 Z-0.0982 I-0.1113 J-0.0412
X0.1113 Y0.0412 Z-0.1112 I0.1113 J0.0412
X-0.1113 Y-0.0412 Z-0.1242 I-0.1113 J-0.0412
X0.1113 Y0.0412 Z-0.1372 I0.1113 J0.0412
X-0.1113 Y-0.0412 Z-0.1503 I-0.1113 J-0.0412
X0.1113 Y0.0412 Z-0.1633 I0.1113 J0.0412
X-0.1113 Y-0.0412 Z-0.1763 I-0.1113 J-0.0412
X0.1113 Y0.0412 Z-0.1894 I0.1113 J0.0412
X-0.1113 Y-0.0412 Z-0.2024 I-0.1113 J-0.0412
X0.1113 Y0.0412 Z-0.2154 I0.1113 J0.0412
X-0.1113 Y-0.0412 Z-0.2284 I-0.1113 J-0.0412
X0.1187 Y0 Z-0.24 I0.1113 J0.0412
X-0.1187 I-0.1187 J0
X0.1187 I0.1187 J0
S18000
G1 X0.1189 Y0.0091 F80
X0.1251 Y0.0447
X0.1272 Y0.0503
X0.1287 Y0.0562
X0.1296 Y0.0621
X0.1299 Y0.0681
X0.1297 Y0.0744
X0.1289 Y0.0811
X0.1276 Y0.0882
X0.1255 Y0.0955
X0.1227 Y0.1032
X0.1191 Y0.111
X0.1147 Y0.1188
X0.1094 Y0.1267
X0.1033 Y0.1344
X0.0962 Y0.1419
X0.0883 Y0.1491
X0.0795 Y0.1559
X0.07 Y0.1621
X0.0596 Y0.1677
X0.0485 Y0.1726
X0.0368 Y0.1767
X0.0245 Y0.1799
X0.0117 Y0.1822
X-0.0014 Y0.1834
X-0.0148 Y0.1836
X-0.0284 Y0.1827
X-0.0421 Y0.1807
X-0.0557 Y0.1775
X-0.0692 Y0.1733
X-0.0824 Y0.1679
X-0.0952 Y0.1614
X-0.1076 Y0.1539
X-0.1194 Y0.1453
X-0.1305 Y0.1357
X-0.1409 Y0.1253
X-0.1504 Y0.114
X-0.1591 Y0.1019
X-0.1667 Y0.0891
X-0.1734 Y0.0757
X-0.1789 Y0.0618
X-0.1834 Y0.0474
X-0.1866 Y0.0327
X-0.1887 Y0.0178
X-0.1896 Y0.0027
X-0.1893 Y-0.0125
X-0.1877 Y-0.0275
X-0.185 Y-0.0424
X-0.181 Y-0.0571
X-0.1759 Y-0.0714
X-0.1697 Y-0.0853
X-0.1623 Y-0.0986
X-0.1539 Y-0.1113
X-0.1446 Y-0.1233
X-0.1342 Y-0.1345
X-0.123 Y-0.1448
X-0.111 Y-0.1542
X-0.0983 Y-0.1626
X-0.085 Y-0.17
X-0.0711 Y-0.1763
X-0.0567 Y-0.1814
X-0.042 Y-0.1854
X-0.027 Y-0.1882
X-0.0118 Y-0.1897
X0.0035 Y-0.1901
X0.0187 Y-0.1892
X0.0338 Y-0.1871
X0.0487 Y-0.1838
X0.0633 Y-0.1793
X0.0775 Y-0.1736
X0.0912 Y-0.1668
X0.1043 Y-0.159
X0.1167 Y-0.1501
X0.1284 Y-0.1403
X0.1392 Y-0.1295
X0.1492 Y-0.1179
X0.1582 Y-0.1056
X0.1681 Y-0.0892
X0.184 Y-0.0578
X0.1938 Y-0.034
X0.2004 Y-0.0131
X0.2048 Y0.0059
X0.2075 Y0.0242
X0.2087 Y0.0418
X0.2085 Y0.0589
X0.2069 Y0.0756
X0.204 Y0.0919
X0.1999 Y0.1078
X0.1945 Y0.1233
X0.1878 Y0.1384
X0.1799 Y0.153
X0.1708 Y0.167
X0.1605 Y0.1804
X0.1491 Y0.1931
X0.1365 Y0.2049
X0.1228 Y0.2158
X0.1081 Y0.2257
X0.0924 Y0.2345
X0.0759 Y0.2421
X0.0585 Y0.2485
X0.0405 Y0.2535
X0.0219 Y0.2571
X0.0028 Y0.2593
X-0.0166 Y0.2599
X-0.0361 Y0.2589
X-0.0557 Y0.2563
X-0.0752 Y0.2522
X-0.0945 Y0.2464
X-0.1134 Y0.2391
X-0.1317 Y0.2302
X-0.1494 Y0.2198
X-0.1662 Y0.2079
X-0.1822 Y0.1947
X-0.1971 Y0.1802
X-0.2108 Y0.1644
X-0.2233 Y0.1475
X-0.2345 Y0.1296
X-0.2442 Y0.1108
X-0.2524 Y0.0913
X-0.259 Y0.0711
X-0.264 Y0.0503
X-0.2673 Y0.0293
X-0.2689 Y0.0079
X-0.2687 Y-0.0135
X-0.2669 Y-0.0349
X-0.2634 Y-0.0561
X-0.2581 Y-0.0769
X-0.2512 Y-0.0973
X-0.2427 Y-0.1171
X-0.2326 Y-0.1362
X-0.221 Y-0.1544
X-0.2079 Y-0.1716
X-0.1935 Y-0.1877
X-0.1779 Y-0.2026
X-0.1611 Y-0.2162
X-0.1433 Y-0.2285
X-0.1245 Y-0.2392
X-0.1049 Y-0.2485
X-0.0847 Y-0.2561
X-0.0639 Y-0.2621
X-0.0427 Y-0.2664
X-0.0212 Y-0.2689
X0.0005 Y-0.2698
X0.0221 Y-0.2689
X0.0436 Y-0.2663
X0.0648 Y-0.2619
X0.0857 Y-0.2559
X0.1059 Y-0.2482
X0.1255 Y-0.2389
X0.1442 Y-0.2281
X0.1621 Y-0.2157
X0.1795 Y-0.2016
X0.1983 Y-0.1835
X0.2161 Y-0.1635
X0.2327 Y-0.1414
X0.2477 Y-0.1178
X0.2605 Y-0.0936
X0.271 Y-0.069
X0.2793 Y-0.0443
X0.2854 Y-0.0196
X0.2895 Y0.0051
X0.2915 Y0.0296
X0.2916 Y0.0538
X0.2897 Y0.0778
X0.286 Y0.1014
X0.2804 Y0.1245
X0.273 Y0.147
X0.2638 Y0.1688
X0.2528 Y0.1898
X0.2402 Y0.21
X0.226 Y0.2291
X0.2101 Y0.2472
X0.1928 Y0.264
X0.174 Y0.2795
X0.1539 Y0.2935
X0.1325 Y0.306
X0.1101 Y0.3168
X0.0866 Y0.3259
X0.0623 Y0.3331
X0.0373 Y0.3384
X0.0117 Y0.3416
X-0.0142 Y0.3429
X-0.0403 Y0.342
X-0.0665 Y0.339
X-0.0925 Y0.3339
X-0.1181 Y0.3267
X-0.1432 Y0.3174
X-0.1677 Y0.306
X-0.1913 Y0.2927
X-0.2138 Y0.2774
X-0.2351 Y0.2603
X-0.2551 Y0.2414
X-0.2736 Y0.221
X-0.2904 Y0.199
X-0.3055 Y0.1757
X-0.3187 Y0.1512
X-0.3299 Y0.1256
X-0.339 Y0.0991
X-0.346 Y0.072
X-0.3508 Y0.0443
X-0.3534 Y0.0163
X-0.3537 Y-0.0119
X-0.3517 Y-0.0401
X-0.3475 Y-0.068
X-0.3411 Y-0.0956
X-0.3324 Y-0.1225
X-0.3216 Y-0.1488
X-0.3087 Y-0.174
X-0.2939 Y-0.1982
X-0.2771 Y-0.2211
X-0.2585 Y-0.2426
X-0.2383 Y-0.2626
X-0.2165 Y-0.2809
X-0.1933 Y-0.2973
X-0.1689 Y-0.3119
X-0.1434 Y-0.3244
X-0.1169 Y-0.3349
X-0.0897 Y-0.3432
X-0.0619 Y-0.3493
X-0.0337 Y-0.3532
X-0.0052 Y-0.3548
X0.0233 Y-0.354
X0.0516 Y-0.351
X0.0796 Y-0.3458
X0.1071 Y-0.3383
X0.1339 Y-0.3286
X0.16 Y-0.3168
X0.186 Y-0.3023
X0.2115 Y-0.2853
X0.2363 Y-0.2657
X0.2601 Y-0.2437
X0.2823 Y-0.2195
X0.3026 Y-0.1934
X0.3208 Y-0.1657
X0.3367 Y-0.1368
X0.35 Y-0.107
X0.3609 Y-0.0764
X0.3691 Y-0.0453
X0.3749 Y-0.0139
X0.378 Y0.0176
X0.3786 Y0.049
X0.3767 Y0.0801
X0.3723 Y0.1109
X0.3655 Y0.1411
X0.3563 Y0.1707
X0.3448 Y0.1993
X0.331 Y0.2269
X0.315 Y0.2534
X0.2969 Y0.2786
X0.2767 Y0.3024
X0.2547 Y0.3245
X0.2308 Y0.3449
X0.2052 Y0.3634
X0.178 Y0.3799
X0.1494 Y0.3942
X0.1197 Y0.4063
X0.0888 Y0.416
X0.0571 Y0.4232
X0.0247 Y0.4279
X-0.0081 Y0.43
X-0.0412 Y0.4294
X-0.0743 Y0.4262
X-0.1072 Y0.4203
X-0.1397 Y0.4117
X-0.1716 Y0.4005
X-0.2026 Y0.3867
X-0.2325 Y0.3704
X-0.2611 Y0.3517
X-0.2883 Y0.3307
X-0.3137 Y0.3074
X-0.3373 Y0.2822
X-0.3589 Y0.255
X-0.3782 Y0.2261
X-0.3952 Y0.1957
X-0.4097 Y0.1639
X-0.4217 Y0.131
X-0.431 Y0.0971
X-0.4376 Y0.0626
X-0.4414 Y0.0276
X-0.4424 Y-0.0076
X-0.4405 Y-0.0429
X-0.4358 Y-0.0779
X-0.4283 Y-0.1125
X-0.4181 Y-0.1464
X-0.4051 Y-0.1793
X-0.3895 Y-0.2112
X-0.3714 Y-0.2417
X-0.351 Y-0.2707
X-0.3282 Y-0.298
X-0.3033 Y-0.3233
X-0.2765 Y-0.3466
X-0.2478 Y-0.3677
X-0.2176 Y-0.3864
X-0.1859 Y-0.4026
X-0.153 Y-0.4163
X-0.1192 Y-0.4272
X-0.0845 Y-0.4354
X-0.0493 Y-0.4408
X-0.0138 Y-0.4434
X0.0218 Y-0.4431
X0.0573 Y-0.4399
X0.0924 Y-0.4339
X0.1271 Y-0.425
X0.1614 Y-0.4133
X0.1945 Y-0.3989
X0.2265 Y-0.3819
X0.257 Y-0.3624
X0.2859 Y-0.3407
X0.3131 Y-0.3168
X0.3385 Y-0.2911
X0.362 Y-0.2635
X0.3833 Y-0.2343
X0.4026 Y-0.2037
X0.4195 Y-0.1717
X0.4341 Y-0.1386
X0.4462 Y-0.1045
X0.4557 Y-0.0696
X0.4626 Y-0.0341
X0.4668 Y0.0019
X0.4683 Y0.038
X0.4671 Y0.0742
X0.4631 Y0.1102
X0.4564 Y0.1457
X0.4471 Y0.1807
X0.4351 Y0.2148
X0.4206 Y0.248
X0.4036 Y0.2799
X0.3842 Y0.3105
X0.3626 Y0.3395
X0.3389 Y0.3668
X0.3131 Y0.3922
X0.2856 Y0.4156
X0.2563 Y0.4369
X0.2255 Y0.456
X0.1934 Y0.4726
X0.1602 Y0.4869
X0.1259 Y0.4986
X0.0909 Y0.5078
X0.0554 Y0.5144
X0.0194 Y0.5184
X-0.0168 Y0.5198
X-0.0529 Y0.5187
X-0.0889 Y0.515
X-0.1245 Y0.5086
X-0.1596 Y0.4997
X-0.1939 Y0.4883
