(Design File: .Users.Winston.Dropbox.Machine.Shop.of.Horrors.CNC.C3D.Support.Nomad.3.Testing.Sample.Projects.CC.Bamboo.Ply.Tray.c2d)
(stockMin:0.000in, 0.000in, -0.500in)
(stockMax:6.000in, 7.000in, 0.000in)
(STOCK/BLOCK,6.000, 7.000, 0.500,0.000, 0.000, 0.500)
G90
G20
(Move to safe Z to avoid workholding)
G53G0Z-0.197
(Primary.Pocketing.Toolpath.-.Pocket)
M05
(TOOL/MILL,0.125, 0.000, 0.000, 0.00)
M6T102
M03S22000
(PREPOSITION FOR RAPID PLUNGE)
G0X2.217Y6.274
Z0.100
G1Z-0.040F20.0
Y6.357F75.0
X2.286
X2.285Y6.274
X2.217
X2.137Y6.194
Y6.437
X2.366
X2.365Y6.194
X2.137
X2.105Y6.114
X2.100
X2.094Y6.113
X2.087Y6.111
X2.080Y6.109
X2.075Y6.106
X2.069Y6.103
X2.066Y6.101
X2.059Y6.094
X2.056Y6.093
X2.054Y6.092
X2.050
X2.048
X2.046
X2.044Y6.093
X2.042Y6.094
X2.040Y6.097
X2.038Y6.099
X2.037Y6.102
Y6.106
Y6.108
X2.038Y6.111
X2.039Y6.113
X2.045Y6.122
X2.047Y6.125
X2.049Y6.128
X2.052Y6.133
X2.054Y6.138
X2.055Y6.143
X2.056Y6.149
X2.057Y6.155
Y6.471
X2.056Y6.476
X2.055Y6.483
X2.054Y6.489
X2.051Y6.496
X2.049Y6.501
X2.046Y6.505
X2.043Y6.509
X2.035Y6.519
X2.034Y6.523
X2.033Y6.526
X2.034Y6.530
X2.035Y6.533
X2.037Y6.536
X2.040Y6.539
X2.044Y6.540
X2.047
X2.051
X2.054Y6.538
X2.063Y6.531
X2.068Y6.527
X2.072Y6.525
X2.076Y6.523
X2.082Y6.520
X2.087Y6.519
X2.093Y6.518
X2.100Y6.517
X2.402
X2.408Y6.518
X2.413Y6.519
X2.419Y6.520
X2.424Y6.522
X2.429Y6.524
X2.434Y6.527
X2.445Y6.535
X2.447Y6.536
X2.449Y6.537
X2.452
X2.454
X2.457Y6.536
X2.459Y6.535
X2.460Y6.534
X2.463Y6.532
X2.464Y6.529
X2.465Y6.526
X2.466Y6.523
Y6.521
X2.465Y6.518
X2.464Y6.515
X2.458Y6.508
X2.456Y6.504
X2.453Y6.500
X2.451Y6.495
X2.449Y6.490
X2.447Y6.485
X2.446Y6.479
Y6.473
X2.445Y6.159
X2.446Y6.152
X2.447Y6.146
X2.449Y6.141
X2.451Y6.135
X2.454Y6.130
X2.456Y6.126
X2.460Y6.121
X2.466Y6.114
X2.467Y6.112
X2.468Y6.109
Y6.106
Y6.104
X2.467Y6.102
X2.466Y6.100
Y6.098
X2.463Y6.096
X2.460Y6.094
X2.458Y6.093
X2.454
X2.452
X2.449Y6.094
X2.446Y6.095
X2.439Y6.101
X2.435Y6.104
X2.430Y6.107
X2.426Y6.109
X2.420Y6.111
X2.415Y6.112
X2.409Y6.114
X2.403
X2.105
Z0.100
G0X2.217Y6.274
Z-0.020
G1Z-0.080F20.0
Y6.357F75.0
X2.286
X2.285Y6.274
X2.217
X2.137Y6.194
Y6.437
X2.366
X2.365Y6.194
X2.137
X2.105Y6.114
X2.100
X2.094Y6.113
X2.087Y6.111
X2.080Y6.109
X2.075Y6.106
X2.069Y6.103
X2.066Y6.101
X2.059Y6.094
X2.056Y6.093
X2.054Y6.092
X2.050
X2.048
X2.046
X2.044Y6.093
X2.042Y6.094
X2.040Y6.097
X2.038Y6.099
X2.037Y6.102
Y6.106
Y6.108
X2.038Y6.111
X2.039Y6.113
X2.045Y6.122
X2.047Y6.125
X2.049Y6.128
X2.052Y6.133
X2.054Y6.138
X2.055Y6.143
X2.056Y6.149
X2.057Y6.155
Y6.471
X2.056Y6.476
X2.055Y6.483
X2.054Y6.489
X2.051Y6.496
X2.049Y6.501
X2.046Y6.505
X2.043Y6.509
X2.035Y6.519
X2.034Y6.523
X2.033Y6.526
X2.034Y6.530
X2.035Y6.533
X2.037Y6.536
X2.040Y6.539
X2.044Y6.540
X2.047
X2.051
X2.054Y6.538
X2.063Y6.531
X2.068Y6.527
X2.072Y6.525
X2.076Y6.523
X2.082Y6.520
X2.087Y6.519
X2.093Y6.518
X2.100Y6.517
X2.402
X2.408Y6.518
X2.413Y6.519
X2.419Y6.520
X2.424Y6.522
X2.429Y6.524
X2.434Y6.527
X2.445Y6.535
X2.447Y6.536
X2.449Y6.537
X2.452
X2.454
X2.457Y6.536
X2.459Y6.535
X2.460Y6.534
X2.463Y6.532
X2.464Y6.529
X2.465Y6.526
X2.466Y6.523
Y6.521
X2.465Y6.518
X2.464Y6.515
X2.458Y6.508
X2.456Y6.504
X2.453Y6.500
X2.451Y6.495
X2.449Y6.490
X2.447Y6.485
X2.446Y6.479
Y6.473
X2.445Y6.159
X2.446Y6.152
X2.447Y6.146
X2.449Y6.141
X2.451Y6.135
X2.454Y6.130
X2.456Y6.126
X2.460Y6.121
X2.466Y6.114
X2.467Y6.112
X2.468Y6.109
Y6.106
Y6.104
X2.467Y6.102
X2.466Y6.100
Y6.098
X2.463Y6.096
X2.460Y6.094
X2.458Y6.093
X2.454
X2.452
X2.449Y6.094
X2.446Y6.095
X2.439Y6.101
X2.435Y6.104
X2.430Y6.107
X2.426Y6.109
X2.420Y6.111
X2.415Y6.112
X2.409Y6.114
X2.403
X2.105
Z0.100
G0X2.217Y6.274
Z-0.060
G1Z-0.120F20.0
Y6.357F75.0
X2.286
X2.285Y6.274
X2.217
X2.137Y6.194
Y6.437
X2.366
X2.365Y6.194
X2.137
X2.105Y6.114
X2.100
X2.094Y6.113
X2.087Y6.111
X2.080Y6.109
X2.075Y6.106
X2.069Y6.103
X2.066Y6.101
X2.059Y6.094
X2.056Y6.093
X2.054Y6.092
X2.050
X2.048
X2.046
X2.044Y6.093
X2.042Y6.094
X2.040Y6.097
X2.038Y6.099
X2.037Y6.102
Y6.106
Y6.108
X2.038Y6.111
X2.039Y6.113
X2.045Y6.122
X2.047Y6.125
X2.049Y6.128
X2.052Y6.133
X2.054Y6.138
X2.055Y6.143
X2.056Y6.149
X2.057Y6.155
Y6.471
X2.056Y6.476
X2.055Y6.483
X2.054Y6.489
X2.051Y6.496
X2.049Y6.501
X2.046Y6.505
X2.043Y6.509
X2.035Y6.519
X2.034Y6.523
X2.033Y6.526
X2.034Y6.530
X2.035Y6.533
X2.037Y6.536
X2.040Y6.539
X2.044Y6.540
X2.047
X2.051
X2.054Y6.538
X2.063Y6.531
X2.068Y6.527
X2.072Y6.525
X2.076Y6.523
X2.082Y6.520
X2.087Y6.519
X2.093Y6.518
X2.100Y6.517
X2.402
X2.408Y6.518
X2.413Y6.519
X2.419Y6.520
X2.424Y6.522
X2.429Y6.524
X2.434Y6.527
X2.445Y6.535
X2.447Y6.536
X2.449Y6.537
X2.452
X2.454
X2.457Y6.536
X2.459Y6.535
X2.460Y6.534
X2.463Y6.532
X2.464Y6.529
X2.465Y6.526
X2.466Y6.523
Y6.521
X2.465Y6.518
X2.464Y6.515
X2.458Y6.508
X2.456Y6.504
X2.453Y6.500
X2.451Y6.495
X2.449Y6.490
X2.447Y6.485
X2.446Y6.479
Y6.473
X2.445Y6.159
X2.446Y6.152
X2.447Y6.146
X2.449Y6.141
X2.451Y6.135
X2.454Y6.130
X2.456Y6.126
X2.460Y6.121
X2.466Y6.114
X2.467Y6.112
X2.468Y6.109
Y6.106
Y6.104
X2.467Y6.102
X2.466Y6.100
Y6.098
X2.463Y6.096
X2.460Y6.094
X2.458Y6.093
X2.454
X2.452
X2.449Y6.094
X2.446Y6.095
X2.439Y6.101
X2.435Y6.104
X2.430Y6.107
X2.426Y6.109
X2.420Y6.111
X2.415Y6.112
X2.409Y6.114
X2.403
X2.105
Z0.100
G0X2.217Y6.274
Z-0.100
G1Z-0.160F20.0
Y6.357F75.0
X2.286
X2.285Y6.274
X2.217
X2.137Y6.194
Y6.437
X2.366
X2.365Y6.194
X2.137
X2.105Y6.114
X2.100
X2.094Y6.113
X2.087Y6.111
X2.080Y6.109
X2.075Y6.106
X2.069Y6.103
X2.066Y6.101
X2.059Y6.094
X2.056Y6.093
X2.054Y6.092
X2.050
X2.048
X2.046
X2.044Y6.093
X2.042Y6.094
X2.040Y6.097
X2.038Y6.099
X2.037Y6.102
Y6.106
Y6.108
X2.038Y6.111
X2.039Y6.113
X2.045Y6.122
X2.047Y6.125
X2.049Y6.128
X2.052Y6.133
X2.054Y6.138
X2.055Y6.143
X2.056Y6.149
X2.057Y6.155
Y6.471
X2.056Y6.476
X2.055Y6.483
X2.054Y6.489
X2.051Y6.496
X2.049Y6.501
X2.046Y6.505
X2.043Y6.509
X2.035Y6.519
X2.034Y6.523
X2.033Y6.526
X2.034Y6.530
X2.035Y6.533
X2.037Y6.536
X2.040Y6.539
X2.044Y6.540
X2.047
X2.051
X2.054Y6.538
X2.063Y6.531
X2.068Y6.527
X2.072Y6.525
X2.076Y6.523
X2.082Y6.520
X2.087Y6.519
X2.093Y6.518
X2.100Y6.517
X2.402
X2.408Y6.518
X2.413Y6.519
X2.419Y6.520
X2.424Y6.522
X2.429Y6.524
X2.434Y6.527
X2.445Y6.535
X2.447Y6.536
X2.449Y6.537
X2.452
X2.454
X2.457Y6.536
X2.459Y6.535
X2.460Y6.534
X2.463Y6.532
X2.464Y6.529
X2.465Y6.526
X2.466Y6.523
Y6.521
X2.465Y6.518
X2.464Y6.515
X2.458Y6.508
X2.456Y6.504
X2.453Y6.500
X2.451Y6.495
X2.449Y6.490
X2.447Y6.485
X2.446Y6.479
Y6.473
X2.445Y6.159
X2.446Y6.152
X2.447Y6.146
X2.449Y6.141
X2.451Y6.135
X2.454Y6.130
X2.456Y6.126
X2.460Y6.121
X2.466Y6.114
X2.467Y6.112
X2.468Y6.109
Y6.106
Y6.104
X2.467Y6.102
X2.466Y6.100
Y6.098
X2.463Y6.096
X2.460Y6.094
X2.458Y6.093
X2.454
X2.452
X2.449Y6.094
X2.446Y6.095
X2.439Y6.101
X2.435Y6.104
X2.430Y6.107
X2.426Y6.109
X2.420Y6.111
X2.415Y6.112
X2.409Y6.114
X2.403
X2.105
Z0.100
G0X2.217Y6.274
Z-0.140
G1Z-0.200F20.0
Y6.357F75.0
X2.286
X2.285Y6.274
X2.217
X2.137Y6.194
Y6.437
X2.366
X2.365Y6.194
X2.137
X2.105Y6.114
X2.100
X2.094Y6.113
X2.087Y6.111
X2.080Y6.109
X2.075Y6.106
X2.069Y6.103
X2.066Y6.101
X2.059Y6.094
X2.056Y6.093
X2.054Y6.092
X2.050
X2.048
X2.046
X2.044Y6.093
X2.042Y6.094
X2.040Y6.097
X2.038Y6.099
X2.037Y6.102
Y6.106
Y6.108
X2.038Y6.111
X2.039Y6.113
X2.045Y6.122
X2.047Y6.125
X2.049Y6.128
X2.052Y6.133
X2.054Y6.138
X2.055Y6.143
X2.056Y6.149
X2.057Y6.155
Y6.471
X2.056Y6.476
X2.055Y6.483
X2.054Y6.489
X2.051Y6.496
X2.049Y6.501
X2.046Y6.505
X2.043Y6.509
X2.035Y6.519
X2.034Y6.523
X2.033Y6.526
X2.034Y6.530
X2.035Y6.533
X2.037Y6.536
X2.040Y6.539
X2.044Y6.540
X2.047
X2.051
X2.054Y6.538
X2.063Y6.531
X2.068Y6.527
X2.072Y6.525
X2.076Y6.523
X2.082Y6.520
X2.087Y6.519
X2.093Y6.518
X2.100Y6.517
X2.402
X2.408Y6.518
X2.413Y6.519
X2.419Y6.520
X2.424Y6.522
X2.429Y6.524
X2.434Y6.527
X2.445Y6.535
X2.447Y6.536
X2.449Y6.537
X2.452
X2.454
X2.457Y6.536
X2.459Y6.535
X2.460Y6.534
X2.463Y6.532
X2.464Y6.529
X2.465Y6.526
X2.466Y6.523
Y6.521
X2.465Y6.518
X2.464Y6.515
X2.458Y6.508
X2.456Y6.504
X2.453Y6.500
X2.451Y6.495
X2.449Y6.490
X2.447Y6.485
X2.446Y6.479
Y6.473
X2.445Y6.159
X2.446Y6.152
X2.447Y6.146
X2.449Y6.141
X2.451Y6.135
X2.454Y6.130
X2.456Y6.126
X2.460Y6.121
X2.466Y6.114
X2.467Y6.112
X2.468Y6.109
Y6.106
Y6.104
X2.467Y6.102
X2.466Y6.100
Y6.098
X2.463Y6.096
X2.460Y6.094
X2.458Y6.093
X2.454
X2.452
X2.449Y6.094
X2.446Y6.095
X2.439Y6.101
X2.435Y6.104
X2.430Y6.107
X2.426Y6.109
X2.420Y6.111
X2.415Y6.112
X2.409Y6.114
X2.403
X2.105
Z0.100
G0X2.217Y6.274
Z-0.180
G1Z-0.240F20.0
Y6.357F75.0
X2.286
X2.285Y6.274
X2.217
X2.137Y6.194
Y6.437
X2.366
X2.365Y6.194
X2.137
X2.105Y6.114
X2.100
X2.094Y6.113
X2.087Y6.111
X2.080Y6.109
X2.075Y6.106
X2.069Y6.103
X2.066Y6.101
X2.059Y6.094
X2.056Y6.093
X2.054Y6.092
X2.050
X2.048
X2.046
X2.044Y6.093
X2.042Y6.094
X2.040Y6.097
X2.038Y6.099
X2.037Y6.102
Y6.106
Y6.108
X2.038Y6.111
X2.039Y6.113
X2.045Y6.122
X2.047Y6.125
X2.049Y6.128
X2.052Y6.133
X2.054Y6.138
X2.055Y6.143
X2.056Y6.149
X2.057Y6.155
Y6.471
X2.056Y6.476
X2.055Y6.483
X2.054Y6.489
X2.051Y6.496
X2.049Y6.501
X2.046Y6.505
X2.043Y6.509
X2.035Y6.519
X2.034Y6.523
X2.033Y6.526
X2.034Y6.530
X2.035Y6.533
X2.037Y6.536
X2.040Y6.539
X2.044Y6.540
X2.047
X2.051
X2.054Y6.538
X2.063Y6.531
X2.068Y6.527
X2.072Y6.525
X2.076Y6.523
X2.082Y6.520
X2.087Y6.519
X2.093Y6.518
X2.100Y6.517
X2.402
X2.408Y6.518
X2.413Y6.519
X2.419Y6.520
X2.424Y6.522
X2.429Y6.524
X2.434Y6.527
X2.445Y6.535
X2.447Y6.536
X2.449Y6.537
X2.452
X2.454
X2.457Y6.536
X2.459Y6.535
X2.460Y6.534
X2.463Y6.532
X2.464Y6.529
X2.465Y6.526
X2.466Y6.523
Y6.521
X2.465Y6.518
X2.464Y6.515
X2.458Y6.508
X2.456Y6.504
X2.453Y6.500
X2.451Y6.495
X2.449Y6.490
X2.447Y6.485
X2.446Y6.479
Y6.473
X2.445Y6.159
X2.446Y6.152
X2.447Y6.146
X2.449Y6.141
X2.451Y6.135
X2.454Y6.130
X2.456Y6.126
X2.460Y6.121
X2.466Y6.114
X2.467Y6.112
X2.468Y6.109
Y6.106
Y6.104
X2.467Y6.102
X2.466Y6.100
Y6.098
X2.463Y6.096
X2.460Y6.094
X2.458Y6.093
X2.454
X2.452
X2.449Y6.094
X2.446Y6.095
X2.439Y6.101
X2.435Y6.104
X2.430Y6.107
X2.426Y6.109
X2.420Y6.111
X2.415Y6.112
X2.409Y6.114
X2.403
X2.105
Z0.100
G0X2.217Y6.274
Z-0.220
G1Z-0.280F20.0
Y6.357F75.0
X2.286
X2.285Y6.274
X2.217
X2.137Y6.194
Y6.437
X2.366
X2.365Y6.194
X2.137
X2.105Y6.114
X2.100
X2.094Y6.113
X2.087Y6.111
X2.080Y6.109
X2.075Y6.106
X2.069Y6.103
X2.066Y6.101
X2.059Y6.094
X2.056Y6.093
X2.054Y6.092
X2.050
X2.048
X2.046
X2.044Y6.093
X2.042Y6.094
X2.040Y6.097
X2.038Y6.099
X2.037Y6.102
Y6.106
Y6.108
X2.038Y6.111
X2.039Y6.113
X2.045Y6.122
X2.047Y6.125
X2.049Y6.128
X2.052Y6.133
X2.054Y6.138
X2.055Y6.143
X2.056Y6.149
X2.057Y6.155
Y6.471
X2.056Y6.476
X2.055Y6.483
X2.054Y6.489
X2.051Y6.496
X2.049Y6.501
X2.046Y6.505
X2.043Y6.509
X2.035Y6.519
X2.034Y6.523
X2.033Y6.526
X2.034Y6.530
X2.035Y6.533
X2.037Y6.536
X2.040Y6.539
X2.044Y6.540
X2.047
X2.051
X2.054Y6.538
X2.063Y6.531
X2.068Y6.527
X2.072Y6.525
X2.076Y6.523
X2.082Y6.520
X2.087Y6.519
X2.093Y6.518
X2.100Y6.517
X2.402
X2.408Y6.518
X2.413Y6.519
X2.419Y6.520
X2.424Y6.522
X2.429Y6.524
X2.434Y6.527
X2.445Y6.535
X2.447Y6.536
X2.449Y6.537
X2.452
X2.454
X2.457Y6.536
X2.459Y6.535
X2.460Y6.534
X2.463Y6.532
X2.464Y6.529
X2.465Y6.526
X2.466Y6.523
Y6.521
X2.465Y6.518
X2.464Y6.515
X2.458Y6.508
X2.456Y6.504
X2.453Y6.500
X2.451Y6.495
X2.449Y6.490
X2.447Y6.485
X2.446Y6.479
Y6.473
X2.445Y6.159
X2.446Y6.152
X2.447Y6.146
X2.449Y6.141
X2.451Y6.135
X2.454Y6.130
X2.456Y6.126
X2.460Y6.121
X2.466Y6.114
X2.467Y6.112
X2.468Y6.109
Y6.106
Y6.104
X2.467Y6.102
X2.466Y6.100
Y6.098
X2.463Y6.096
X2.460Y6.094
X2.458Y6.093
X2.454
X2.452
X2.449Y6.094
X2.446Y6.095
X2.439Y6.101
X2.435Y6.104
X2.430Y6.107
X2.426Y6.109
X2.420Y6.111
X2.415Y6.112
X2.409Y6.114
X2.403
X2.105
Z0.100
G0X2.217Y6.274
Z-0.260
G1Z-0.320F20.0
Y6.357F75.0
X2.286
X2.285Y6.274
X2.217
X2.137Y6.194
Y6.437
X2.366
X2.365Y6.194
X2.137
X2.105Y6.114
X2.100
X2.094Y6.113
X2.087Y6.111
X2.080Y6.109
X2.075Y6.106
X2.069Y6.103
X2.066Y6.101
X2.059Y6.094
X2.056Y6.093
X2.054Y6.092
X2.050
X2.048
X2.046
X2.044Y6.093
X2.042Y6.094
X2.040Y6.097
X2.038Y6.099
X2.037Y6.102
Y6.106
Y6.108
X2.038Y6.111
X2.039Y6.113
X2.045Y6.122
X2.047Y6.125
X2.049Y6.128
X2.052Y6.133
X2.054Y6.138
X2.055Y6.143
X2.056Y6.149
X2.057Y6.155
Y6.471
X2.056Y6.476
X2.055Y6.483
X2.054Y6.489
X2.051Y6.496
X2.049Y6.501
X2.046Y6.505
X2.043Y6.509
X2.035Y6.519
X2.034Y6.523
X2.033Y6.526
X2.034Y6.530
X2.035Y6.533
X2.037Y6.536
X2.040Y6.539
X2.044Y6.540
X2.047
X2.051
X2.054Y6.538
X2.063Y6.531
X2.068Y6.527
X2.072Y6.525
X2.076Y6.523
X2.082Y6.520
X2.087Y6.519
X2.093Y6.518
X2.100Y6.517
X2.402
X2.408Y6.518
X2.413Y6.519
X2.419Y6.520
X2.424Y6.522
X2.429Y6.524
X2.434Y6.527
X2.445Y6.535
X2.447Y6.536
X2.449Y6.537
X2.452
X2.454
X2.457Y6.536
X2.459Y6.535
X2.460Y6.534
X2.463Y6.532
X2.464Y6.529
X2.465Y6.526
X2.466Y6.523
Y6.521
X2.465Y6.518
X2.464Y6.515
X2.458Y6.508
X2.456Y6.504
X2.453Y6.500
X2.451Y6.495
X2.449Y6.490
X2.447Y6.485
X2.446Y6.479
Y6.473
X2.445Y6.159
X2.446Y6.152
X2.447Y6.146
X2.449Y6.141
X2.451Y6.135
X2.454Y6.130
X2.456Y6.126
X2.460Y6.121
X2.466Y6.114
X2.467Y6.112
X2.468Y6.109
Y6.106
Y6.104
X2.467Y6.102
X2.466Y6.100
Y6.098
X2.463Y6.096
X2.460Y6.094
X2.458Y6.093
X2.454
X2.452
X2.449Y6.094
X2.446Y6.095
X2.439Y6.101
X2.435Y6.104
X2.430Y6.107
X2.426Y6.109
X2.420Y6.111
X2.415Y6.112
X2.409Y6.114
X2.403
X2.105
Z0.100
G0X2.217Y6.274
Z-0.300
G1Z-0.360F20.0
Y6.357F75.0
X2.286
X2.285Y6.274
X2.217
X2.137Y6.194
Y6.437
X2.366
X2.365Y6.194
X2.137
X2.105Y6.114
X2.100
X2.094Y6.113
X2.087Y6.111
X2.080Y6.109
X2.075Y6.106
X2.069Y6.103
X2.066Y6.101
X2.059Y6.094
X2.056Y6.093
X2.054Y6.092
X2.050
X2.048
X2.046
X2.044Y6.093
X2.042Y6.094
X2.040Y6.097
X2.038Y6.099
X2.037Y6.102
Y6.106
Y6.108
X2.038Y6.111
X2.039Y6.113
X2.045Y6.122
X2.047Y6.125
X2.049Y6.128
X2.052Y6.133
X2.054Y6.138
X2.055Y6.143
X2.056Y6.149
X2.057Y6.155
Y6.471
X2.056Y6.476
X2.055Y6.483
X2.054Y6.489
X2.051Y6.496
X2.049Y6.501
X2.046Y6.505
X2.043Y6.509
X2.035Y6.519
X2.034Y6.523
X2.033Y6.526
X2.034Y6.530
X2.035Y6.533
X2.037Y6.536
X2.040Y6.539
X2.044Y6.540
X2.047
X2.051
X2.054Y6.538
X2.063Y6.531
X2.068Y6.527
X2.072Y6.525
X2.076Y6.523
X2.082Y6.520
X2.087Y6.519
X2.093Y6.518
X2.100Y6.517
X2.402
X2.408Y6.518
X2.413Y6.519
X2.419Y6.520
X2.424Y6.522
X2.429Y6.524
X2.434Y6.527
X2.445Y6.535
X2.447Y6.536
X2.449Y6.537
X2.452
X2.454
X2.457Y6.536
X2.459Y6.535
X2.460Y6.534
X2.463Y6.532
X2.464Y6.529
X2.465Y6.526
X2.466Y6.523
Y6.521
X2.465Y6.518
X2.464Y6.515
X2.458Y6.508
X2.456Y6.504
X2.453Y6.500
X2.451Y6.495
X2.449Y6.490
X2.447Y6.485
X2.446Y6.479
Y6.473
X2.445Y6.159
X2.446Y6.152
X2.447Y6.146
X2.449Y6.141
X2.451Y6.135
X2.454Y6.130
X2.456Y6.126
X2.460Y6.121
X2.466Y6.114
X2.467Y6.112
X2.468Y6.109
Y6.106
Y6.104
X2.467Y6.102
X2.466Y6.100
Y6.098
X2.463Y6.096
X2.460Y6.094
X2.458Y6.093
X2.454
X2.452
X2.449Y6.094
X2.446Y6.095
X2.439Y6.101
X2.435Y6.104
X2.430Y6.107
X2.426Y6.109
X2.420Y6.111
X2.415Y6.112
X2.409Y6.114
X2.403
X2.105
Z0.100
G0X2.217Y6.274
Z-0.315
G1Z-0.375F20.0
Y6.357F75.0
X2.286
X2.285Y6.274
X2.217
X2.137Y6.194
Y6.437
X2.366
X2.365Y6.194
X2.137
X2.105Y6.114
X2.100
X2.094Y6.113
X2.087Y6.111
X2.080Y6.109
X2.075Y6.106
X2.069Y6.103
X2.066Y6.101
X2.059Y6.094
X2.056Y6.093
X2.054Y6.092
X2.050
X2.048
X2.046
X2.044Y6.093
X2.042Y6.094
X2.040Y6.097
X2.038Y6.099
X2.037Y6.102
Y6.106
Y6.108
X2.038Y6.111
X2.039Y6.113
X2.045Y6.122
X2.047Y6.125
X2.049Y6.128
X2.052Y6.133
X2.054Y6.138
X2.055Y6.143
X2.056Y6.149
X2.057Y6.155
Y6.471
X2.056Y6.476
X2.055Y6.483
X2.054Y6.489
X2.051Y6.496
X2.049Y6.501
X2.046Y6.505
X2.043Y6.509
X2.035Y6.519
X2.034Y6.523
X2.033Y6.526
X2.034Y6.530
X2.035Y6.533
X2.037Y6.536
X2.040Y6.539
X2.044Y6.540
X2.047
X2.051
X2.054Y6.538
X2.063Y6.531
X2.068Y6.527
X2.072Y6.525
X2.076Y6.523
X2.082Y6.520
X2.087Y6.519
X2.093Y6.518
X2.100Y6.517
X2.402
X2.408Y6.518
X2.413Y6.519
X2.419Y6.520
X2.424Y6.522
X2.429Y6.524
X2.434Y6.527
X2.445Y6.535
X2.447Y6.536
X2.449Y6.537
X2.452
X2.454
X2.457Y6.536
X2.459Y6.535
X2.460Y6.534
X2.463Y6.532
X2.464Y6.529
X2.465Y6.526
X2.466Y6.523
Y6.521
X2.465Y6.518
X2.464Y6.515
X2.458Y6.508
X2.456Y6.504
X2.453Y6.500
X2.451Y6.495
X2.449Y6.490
X2.447Y6.485
X2.446Y6.479
Y6.473
X2.445Y6.159
X2.446Y6.152
X2.447Y6.146
X2.449Y6.141
X2.451Y6.135
X2.454Y6.130
X2.456Y6.126
X2.460Y6.121
X2.466Y6.114
X2.467Y6.112
X2.468Y6.109
Y6.106
Y6.104
X2.467Y6.102
X2.466Y6.100
Y6.098
X2.463Y6.096
X2.460Y6.094
X2.458Y6.093
X2.454
X2.452
X2.449Y6.094
X2.446Y6.095
X2.439Y6.101
X2.435Y6.104
X2.430Y6.107
X2.426Y6.109
X2.420Y6.111
X2.415Y6.112
X2.409Y6.114
X2.403
X2.105
Z0.100
G0X2.217Y5.487
G1Z-0.040F20.0
Y5.570F75.0
X2.285
Y5.487
X2.217
X2.137Y5.407
Y5.650
X2.365
Y5.407
X2.137
X2.105Y5.327
X2.099
X2.093Y5.326
X2.088Y5.324
X2.081Y5.322
X2.076Y5.320
X2.071Y5.317
X2.066Y5.313
X2.058Y5.307
X2.056Y5.305
X2.054
X2.050Y5.304
X2.048
X2.046Y5.305
X2.044Y5.306
X2.042Y5.307
X2.040Y5.309
X2.038Y5.312
X2.037Y5.315
Y5.318
Y5.321
X2.038Y5.323
X2.039Y5.326
X2.045Y5.334
X2.047Y5.338
X2.049Y5.341
X2.052Y5.346
X2.054Y5.351
X2.055Y5.355
X2.056Y5.361
X2.057Y5.367
Y5.683
X2.056Y5.689
X2.055Y5.696
X2.054Y5.703
X2.051Y5.709
X2.050Y5.712
X2.047Y5.717
X2.043Y5.722
X2.035Y5.732
X2.034Y5.735
X2.033Y5.739
X2.034Y5.743
X2.035Y5.746
X2.038Y5.749
X2.040Y5.751
X2.044Y5.752
X2.047Y5.753
X2.051Y5.752
X2.054Y5.751
X2.063Y5.743
X2.068Y5.740
X2.072Y5.737
X2.076Y5.735
X2.082Y5.733
X2.087Y5.732
X2.093Y5.730
X2.100
X2.403
X2.408
X2.413Y5.731
X2.419Y5.733
X2.424Y5.735
X2.429Y5.737
X2.434Y5.739
X2.438Y5.742
X2.445Y5.747
X2.447Y5.749
X2.449
X2.452
X2.454
X2.456
X2.459Y5.748
X2.460Y5.747
X2.463Y5.744
X2.464Y5.742
X2.465Y5.739
X2.466Y5.735
Y5.733
X2.465Y5.730
X2.464Y5.728
X2.458Y5.721
X2.456Y5.717
X2.453Y5.713
X2.451Y5.708
X2.449Y5.703
X2.447Y5.698
X2.446Y5.692
X2.445Y5.685
Y5.372
X2.446Y5.365
X2.447Y5.358
X2.449Y5.353
X2.451Y5.348
X2.454Y5.342
X2.456Y5.338
X2.460Y5.334
X2.466Y5.327
X2.467Y5.325
X2.468Y5.322
Y5.319
Y5.317
X2.467Y5.314
X2.466Y5.312
Y5.311
X2.463Y5.308
X2.460Y5.307
X2.458Y5.306
X2.454Y5.305
X2.452
X2.449Y5.306
X2.447Y5.307
X2.439Y5.313
X2.435Y5.316
X2.430Y5.319
X2.426Y5.321
X2.420Y5.324
X2.415Y5.325
X2.409Y5.326
X2.403Y5.327
X2.105
Z0.100
G0X2.217Y5.487
Z-0.020
G1Z-0.080F20.0
Y5.570F75.0
X2.285
Y5.487
X2.217
X2.137Y5.407
Y5.650
X2.365
Y5.407
X2.137
X2.105Y5.327
X2.099
X2.093Y5.326
X2.088Y5.324
X2.081Y5.322
X2.076Y5.320
X2.071Y5.317
X2.066Y5.313
X2.058Y5.307
X2.056Y5.305
X2.054
X2.050Y5.304
X2.048
X2.046Y5.305
X2.044Y5.306
X2.042Y5.307
X2.040Y5.309
X2.038Y5.312
X2.037Y5.315
Y5.318
Y5.321
X2.038Y5.323
X2.039Y5.326
X2.045Y5.334
X2.047Y5.338
X2.049Y5.341
X2.052Y5.346
X2.054Y5.351
X2.055Y5.355
X2.056Y5.361
X2.057Y5.367
Y5.683
X2.056Y5.689
X2.055Y5.696
X2.054Y5.703
X2.051Y5.709
X2.050Y5.712
X2.047Y5.717
X2.043Y5.722
X2.035Y5.732
X2.034Y5.735
X2.033Y5.739
X2.034Y5.743
X2.035Y5.746
X2.038Y5.749
X2.040Y5.751
X2.044Y5.752
X2.047Y5.753
X2.051Y5.752
X2.054Y5.751
X2.063Y5.743
X2.068Y5.740
X2.072Y5.737
X2.076Y5.735
X2.082Y5.733
X2.087Y5.732
X2.093Y5.730
X2.100
X2.403
X2.408
X2.413Y5.731
X2.419Y5.733
X2.424Y5.735
X2.429Y5.737
X2.434Y5.739
X2.438Y5.742
X2.445Y5.747
X2.447Y5.749
X2.449
X2.452
X2.454
X2.456
X2.459Y5.748
X2.460Y5.747
X2.463Y5.744
X2.464Y5.742
X2.465Y5.739
X2.466Y5.735
Y5.733
X2.465Y5.730
X2.464Y5.728
X2.458Y5.721
X2.456Y5.717
X2.453Y5.713
X2.451Y5.708
X2.449Y5.703
X2.447Y5.698
X2.446Y5.692
X2.445Y5.685
Y5.372
X2.446Y5.365
X2.447Y5.358
X2.449Y5.353
X2.451Y5.348
X2.454Y5.342
X2.456Y5.338
X2.460Y5.334
X2.466Y5.327
X2.467Y5.325
X2.468Y5.322
Y5.319
Y5.317
X2.467Y5.314
X2.466Y5.312
Y5.311
X2.463Y5.308
X2.460Y5.307
X2.458Y5.306
X2.454Y5.305
X2.452
X2.449Y5.306
X2.447Y5.307
X2.439Y5.313
X2.435Y5.316
X2.430Y5.319
X2.426Y5.321
X2.420Y5.324
X2.415Y5.325
X2.409Y5.326
X2.403Y5.327
X2.105
Z0.100
G0X2.217Y5.487
Z-0.060
G1Z-0.120F20.0
Y5.570F75.0
X2.285
Y5.487
X2.217
X2.137Y5.407
Y5.650
X2.365
Y5.407
X2.137
X2.105Y5.327
X2.099
X2.093Y5.326
X2.088Y5.324
X2.081Y5.322
X2.076Y5.320
X2.071Y5.317
X2.066Y5.313
X2.058Y5.307
X2.056Y5.305
X2.054
X2.050Y5.304
X2.048
X2.046Y5.305
X2.044Y5.306
X2.042Y5.307
X2.040Y5.309
X2.038Y5.312
X2.037Y5.315
Y5.318
Y5.321
X2.038Y5.323
X2.039Y5.326
X2.045Y5.334
X2.047Y5.338
X2.049Y5.341
X2.052Y5.346
X2.054Y5.351
X2.055Y5.355
X2.056Y5.361
X2.057Y5.367
Y5.683
X2.056Y5.689
X2.055Y5.696
X2.054Y5.703
X2.051Y5.709
X2.050Y5.712
X2.047Y5.717
X2.043Y5.722
X2.035Y5.732
X2.034Y5.735
X2.033Y5.739
X2.034Y5.743
X2.035Y5.746
X2.038Y5.749
X2.040Y5.751
X2.044Y5.752
X2.047Y5.753
X2.051Y5.752
X2.054Y5.751
X2.063Y5.743
X2.068Y5.740
X2.072Y5.737
X2.076Y5.735
X2.082Y5.733
X2.087Y5.732
X2.093Y5.730
X2.100
X2.403
X2.408
X2.413Y5.731
X2.419Y5.733
X2.424Y5.735
X2.429Y5.737
X2.434Y5.739
X2.438Y5.742
X2.445Y5.747
X2.447Y5.749
X2.449
X2.452
X2.454
X2.456
X2.459Y5.748
X2.460Y5.747
X2.463Y5.744
X2.464Y5.742
X2.465Y5.739
X2.466Y5.735
Y5.733
X2.465Y5.730
X2.464Y5.728
X2.458Y5.721
X2.456Y5.717
X2.453Y5.713
X2.451Y5.708
X2.449Y5.703
X2.447Y5.698
X2.446Y5.692
X2.445Y5.685
Y5.372
X2.446Y5.365
X2.447Y5.358
X2.449Y5.353
X2.451Y5.348
X2.454Y5.342
X2.456Y5.338
X2.460Y5.334
X2.466Y5.327
X2.467Y5.325
X2.468Y5.322
Y5.319
Y5.317
X2.467Y5.314
X2.466Y5.312
Y5.311
X2.463Y5.308
X2.460Y5.307
X2.458Y5.306
X2.454Y5.305
X2.452
X2.449Y5.306
X2.447Y5.307
X2.439Y5.313
X2.435Y5.316
X2.430Y5.319
X2.426Y5.321
X2.420Y5.324
X2.415Y5.325
X2.409Y5.326
X2.403Y5.327
X2.105
Z0.100
G0X2.217Y5.487
Z-0.100
G1Z-0.160F20.0
Y5.570F75.0
X2.285
Y5.487
X2.217
X2.137Y5.407
Y5.650
X2.365
Y5.407
X2.137
X2.105Y5.327
X2.099
X2.093Y5.326
X2.088Y5.324
X2.081Y5.322
X2.076Y5.320
X2.071Y5.317
X2.066Y5.313
X2.058Y5.307
X2.056Y5.305
X2.054
X2.050Y5.304
X2.048
X2.046Y5.305
X2.044Y5.306
X2.042Y5.307
X2.040Y5.309
X2.038Y5.312
X2.037Y5.315
Y5.318
Y5.321
X2.038Y5.323
X2.039Y5.326
X2.045Y5.334
X2.047Y5.338
X2.049Y5.341
X2.052Y5.346
X2.054Y5.351
X2.055Y5.355
X2.056Y5.361
X2.057Y5.367
Y5.683
X2.056Y5.689
X2.055Y5.696
X2.054Y5.703
X2.051Y5.709
X2.050Y5.712
X2.047Y5.717
X2.043Y5.722
X2.035Y5.732
X2.034Y5.735
X2.033Y5.739
X2.034Y5.743
X2.035Y5.746
X2.038Y5.749
X2.040Y5.751
X2.044Y5.752
X2.047Y5.753
X2.051Y5.752
X2.054Y5.751
X2.063Y5.743
X2.068Y5.740
X2.072Y5.737
X2.076Y5.735
X2.082Y5.733
X2.087Y5.732
X2.093Y5.730
X2.100
X2.403
X2.408
X2.413Y5.731
X2.419Y5.733
X2.424Y5.735
X2.429Y5.737
X2.434Y5.739
X2.438Y5.742
X2.445Y5.747
X2.447Y5.749
X2.449
X2.452
X2.454
X2.456
X2.459Y5.748
X2.460Y5.747
X2.463Y5.744
X2.464Y5.742
X2.465Y5.739
X2.466Y5.735
Y5.733
X2.465Y5.730
X2.464Y5.728
X2.458Y5.721
X2.456Y5.717
X2.453Y5.713
X2.451Y5.708
X2.449Y5.703
X2.447Y5.698
X2.446Y5.692
X2.445Y5.685
Y5.372
X2.446Y5.365
X2.447Y5.358
X2.449Y5.353
X2.451Y5.348
X2.454Y5.342
X2.456Y5.338
X2.460Y5.334
X2.466Y5.327
X2.467Y5.325
X2.468Y5.322
Y5.319
Y5.317
X2.467Y5.314
X2.466Y5.312
Y5.311
X2.463Y5.308
X2.460Y5.307
X2.458Y5.306
X2.454Y5.305
X2.452
X2.449Y5.306
X2.447Y5.307
X2.439Y5.313
X2.435Y5.316
X2.430Y5.319
X2.426Y5.321
X2.420Y5.324
X2.415Y5.325
X2.409Y5.326
X2.403Y5.327
X2.105
Z0.100
G0X2.217Y5.487
Z-0.140
G1Z-0.200F20.0
Y5.570F75.0
X2.285
Y5.487
X2.217
X2.137Y5.407
Y5.650
X2.365
Y5.407
X2.137
X2.105Y5.327
X2.099
X2.093Y5.326
X2.088Y5.324
X2.081Y5.322
X2.076Y5.320
X2.071Y5.317
X2.066Y5.313
X2.058Y5.307
X2.056Y5.305
X2.054
X2.050Y5.304
X2.048
X2.046Y5.305
X2.044Y5.306
X2.042Y5.307
X2.040Y5.309
X2.038Y5.312
X2.037Y5.315
Y5.318
Y5.321
X2.038Y5.323
X2.039Y5.326
X2.045Y5.334
X2.047Y5.338
X2.049Y5.341
X2.052Y5.346
X2.054Y5.351
X2.055Y5.355
X2.056Y5.361
X2.057Y5.367
Y5.683
X2.056Y5.689
X2.055Y5.696
X2.054Y5.703
X2.051Y5.709
X2.050Y5.712
X2.047Y5.717
X2.043Y5.722
X2.035Y5.732
X2.034Y5.735
X2.033Y5.739
X2.034Y5.743
X2.035Y5.746
X2.038Y5.749
X2.040Y5.751
X2.044Y5.752
X2.047Y5.753
X2.051Y5.752
X2.054Y5.751
X2.063Y5.743
X2.068Y5.740
X2.072Y5.737
X2.076Y5.735
X2.082Y5.733
X2.087Y5.732
X2.093Y5.730
X2.100
X2.403
X2.408
X2.413Y5.731
X2.419Y5.733
X2.424Y5.735
X2.429Y5.737
X2.434Y5.739
X2.438Y5.742
X2.445Y5.747
X2.447Y5.749
X2.449
X2.452
X2.454
X2.456
X2.459Y5.748
X2.460Y5.747
X2.463Y5.744
X2.464Y5.742
X2.465Y5.739
X2.466Y5.735
Y5.733
X2.465Y5.730
X2.464Y5.728
X2.458Y5.721
X2.456Y5.717
X2.453Y5.713
X2.451Y5.708
X2.449Y5.703
X2.447Y5.698
X2.446Y5.692
X2.445Y5.685
Y5.372
X2.446Y5.365
X2.447Y5.358
X2.449Y5.353
X2.451Y5.348
X2.454Y5.342
X2.456Y5.338
X2.460Y5.334
X2.466Y5.327
X2.467Y5.325
X2.468Y5.322
Y5.319
Y5.317
X2.467Y5.314
X2.466Y5.312
Y5.311
X2.463Y5.308
X2.460Y5.307
X2.458Y5.306
X2.454Y5.305
X2.452
X2.449Y5.306
X2.447Y5.307
X2.439Y5.313
X2.435Y5.316
X2.430Y5.319
X2.426Y5.321
X2.420Y5.324
X2.415Y5.325
X2.409Y5.326
X2.403Y5.327
X2.105
Z0.100
G0X2.217Y5.487
Z-0.180
G1Z-0.240F20.0
Y5.570F75.0
X2.285
Y5.487
X2.217
X2.137Y5.407
Y5.650
X2.365
Y5.407
X2.137
X2.105Y5.327
X2.099
X2.093Y5.326
X2.088Y5.324
X2.081Y5.322
X2.076Y5.320
X2.071Y5.317
X2.066Y5.313
X2.058Y5.307
X2.056Y5.305
X2.054
X2.050Y5.304
X2.048
X2.046Y5.305
X2.044Y5.306
X2.042Y5.307
X2.040Y5.309
X2.038Y5.312
X2.037Y5.315
Y5.318
Y5.321
X2.038Y5.323
X2.039Y5.326
X2.045Y5.334
X2.047Y5.338
X2.049Y5.341
X2.052Y5.346
X2.054Y5.351
X2.055Y5.355
X2.056Y5.361
X2.057Y5.367
Y5.683
X2.056Y5.689
X2.055Y5.696
X2.054Y5.703
X2.051Y5.709
X2.050Y5.712
X2.047Y5.717
X2.043Y5.722
X2.035Y5.732
X2.034Y5.735
X2.033Y5.739
X2.034Y5.743
X2.035Y5.746
X2.038Y5.749
X2.040Y5.751
X2.044Y5.752
X2.047Y5.753
X2.051Y5.752
X2.054Y5.751
X2.063Y5.743
X2.068Y5.740
X2.072Y5.737
X2.076Y5.735
X2.082Y5.733
X2.087Y5.732
X2.093Y5.730
X2.100
X2.403
X2.408
X2.413Y5.731
X2.419Y5.733
X2.424Y5.735
X2.429Y5.737
X2.434Y5.739
X2.438Y5.742
X2.445Y5.747
X2.447Y5.749
X2.449
X2.452
X2.454
X2.456
X2.459Y5.748
X2.460Y5.747
X2.463Y5.744
X2.464Y5.742
X2.465Y5.739
X2.466Y5.735
Y5.733
X2.465Y5.730
X2.464Y5.728
X2.458Y5.721
X2.456Y5.717
X2.453Y5.713
X2.451Y5.708
X2.449Y5.703
X2.447Y5.698
X2.446Y5.692
X2.445Y5.685
Y5.372
X2.446Y5.365
X2.447Y5.358
X2.449Y5.353
X2.451Y5.348
X2.454Y5.342
X2.456Y5.338
X2.460Y5.334
X2.466Y5.327
X2.467Y5.325
X2.468Y5.322
Y5.319
Y5.317
X2.467Y5.314
X2.466Y5.312
Y5.311
X2.463Y5.308
X2.460Y5.307
X2.458Y5.306
X2.454Y5.305
X2.452
X2.449Y5.306
X2.447Y5.307
X2.439Y5.313
X2.435Y5.316
X2.430Y5.319
X2.426Y5.321
X2.420Y5.324
X2.415Y5.325
X2.409Y5.326
X2.403Y5.327
X2.105
Z0.100
G0X2.217Y5.487
Z-0.220
G1Z-0.280F20.0
Y5.570F75.0
X2.285
Y5.487
X2.217
X2.137Y5.407
Y5.650
X2.365
Y5.407
X2.137
X2.105Y5.327
X2.099
X2.093Y5.326
X2.088Y5.324
X2.081Y5.322
X2.076Y5.320
X2.071Y5.317
X2.066Y5.313
X2.058Y5.307
X2.056Y5.305
X2.054
X2.050Y5.304
X2.048
X2.046Y5.305
X2.044Y5.306
X2.042Y5.307
X2.040Y5.309
X2.038Y5.312
X2.037Y5.315
Y5.318
Y5.321
X2.038Y5.323
X2.039Y5.326
X2.045Y5.334
X2.047Y5.338
X2.049Y5.341
X2.052Y5.346
X2.054Y5.351
X2.055Y5.355
X2.056Y5.361
X2.057Y5.367
Y5.683
X2.056Y5.689
X2.055Y5.696
X2.054Y5.703
X2.051Y5.709
X2.050Y5.712
X2.047Y5.717
X2.043Y5.722
X2.035Y5.732
X2.034Y5.735
X2.033Y5.739
X2.034Y5.743
X2.035Y5.746
X2.038Y5.749
X2.040Y5.751
X2.044Y5.752
X2.047Y5.753
X2.051Y5.752
X2.054Y5.751
X2.063Y5.743
X2.068Y5.740
X2.072Y5.737
X2.076Y5.735
X2.082Y5.733
X2.087Y5.732
X2.093Y5.730
X2.100
X2.403
X2.408
X2.413Y5.731
X2.419Y5.733
X2.424Y5.735
X2.429Y5.737
X2.434Y5.739
X2.438Y5.742
X2.445Y5.747
X2.447Y5.749
X2.449
X2.452
X2.454
X2.456
X2.459Y5.748
X2.460Y5.747
X2.463Y5.744
X2.464Y5.742
X2.465Y5.739
X2.466Y5.735
Y5.733
X2.465Y5.730
X2.464Y5.728
X2.458Y5.721
X2.456Y5.717
X2.453Y5.713
X2.451Y5.708
X2.449Y5.703
X2.447Y5.698
X2.446Y5.692
X2.445Y5.685
Y5.372
X2.446Y5.365
X2.447Y5.358
X2.449Y5.353
X2.451Y5.348
X2.454Y5.342
X2.456Y5.338
X2.460Y5.334
X2.466Y5.327
X2.467Y5.325
X2.468Y5.322
Y5.319
Y5.317
X2.467Y5.314
X2.466Y5.312
Y5.311
X2.463Y5.308
X2.460Y5.307
X2.458Y5.306
X2.454Y5.305
X2.452
X2.449Y5.306
X2.447Y5.307
X2.439Y5.313
X2.435Y5.316
X2.430Y5.319
X2.426Y5.321
X2.420Y5.324
X2.415Y5.325
X2.409Y5.326
X2.403Y5.327
X2.105
Z0.100
G0X2.217Y5.487
Z-0.260
G1Z-0.320F20.0
Y5.570F75.0
X2.285
Y5.487
X2.217
X2.137Y5.407
Y5.650
X2.365
Y5.407
X2.137
X2.105Y5.327
X2.099
X2.093Y5.326
X2.088Y5.324
X2.081Y5.322
X2.076Y5.320
X2.071Y5.317
X2.066Y5.313
X2.058Y5.307
X2.056Y5.305
X2.054
X2.050Y5.304
X2.048
X2.046Y5.305
X2.044Y5.306
X2.042Y5.307
X2.040Y5.309
X2.038Y5.312
X2.037Y5.315
Y5.318
Y5.321
X2.038Y5.323
X2.039Y5.326
X2.045Y5.334
X2.047Y5.338
X2.049Y5.341
X2.052Y5.346
X2.054Y5.351
X2.055Y5.355
X2.056Y5.361
X2.057Y5.367
Y5.683
X2.056Y5.689
X2.055Y5.696
X2.054Y5.703
X2.051Y5.709
X2.050Y5.712
X2.047Y5.717
X2.043Y5.722
X2.035Y5.732
X2.034Y5.735
X2.033Y5.739
X2.034Y5.743
X2.035Y5.746
X2.038Y5.749
X2.040Y5.751
X2.044Y5.752
X2.047Y5.753
X2.051Y5.752
X2.054Y5.751
X2.063Y5.743
X2.068Y5.740
X2.072Y5.737
X2.076Y5.735
X2.082Y5.733
X2.087Y5.732
X2.093Y5.730
X2.100
X2.403
X2.408
X2.413Y5.731
X2.419Y5.733
X2.424Y5.735
X2.429Y5.737
X2.434Y5.739
X2.438Y5.742
X2.445Y5.747
X2.447Y5.749
X2.449
X2.452
X2.454
X2.456
X2.459Y5.748
X2.460Y5.747
X2.463Y5.744
X2.464Y5.742
X2.465Y5.739
X2.466Y5.735
Y5.733
X2.465Y5.730
X2.464Y5.728
X2.458Y5.721
X2.456Y5.717
X2.453Y5.713
X2.451Y5.708
X2.449Y5.703
X2.447Y5.698
X2.446Y5.692
X2.445Y5.685
Y5.372
X2.446Y5.365
X2.447Y5.358
X2.449Y5.353
X2.451Y5.348
X2.454Y5.342
X2.456Y5.338
X2.460Y5.334
X2.466Y5.327
X2.467Y5.325
X2.468Y5.322
Y5.319
Y5.317
X2.467Y5.314
X2.466Y5.312
Y5.311
X2.463Y5.308
X2.460Y5.307
X2.458Y5.306
X2.454Y5.305
X2.452
X2.449Y5.306
X2.447Y5.307
X2.439Y5.313
X2.435Y5.316
X2.430Y5.319
X2.426Y5.321
X2.420Y5.324
X2.415Y5.325
X2.409Y5.326
X2.403Y5.327
X2.105
Z0.100
G0X2.217Y5.487
Z-0.300
G1Z-0.360F20.0
Y5.570F75.0
X2.285
Y5.487
X2.217
X2.137Y5.407
Y5.650
X2.365
Y5.407
X2.137
X2.105Y5.327
X2.099
X2.093Y5.326
X2.088Y5.324
X2.081Y5.322
X2.076Y5.320
X2.071Y5.317
X2.066Y5.313
X2.058Y5.307
X2.056Y5.305
X2.054
X2.050Y5.304
X2.048
X2.046Y5.305
X2.044Y5.306
X2.042Y5.307
X2.040Y5.309
X2.038Y5.312
X2.037Y5.315
Y5.318
Y5.321
X2.038Y5.323
X2.039Y5.326
X2.045Y5.334
X2.047Y5.338
X2.049Y5.341
X2.052Y5.346
X2.054Y5.351
X2.055Y5.355
X2.056Y5.361
X2.057Y5.367
Y5.683
X2.056Y5.689
X2.055Y5.696
X2.054Y5.703
X2.051Y5.709
X2.050Y5.712
X2.047Y5.717
X2.043Y5.722
X2.035Y5.732
X2.034Y5.735
X2.033Y5.739
X2.034Y5.743
X2.035Y5.746
X2.038Y5.749
X2.040Y5.751
X2.044Y5.752
X2.047Y5.753
X2.051Y5.752
X2.054Y5.751
X2.063Y5.743
X2.068Y5.740
X2.072Y5.737
X2.076Y5.735
X2.082Y5.733
X2.087Y5.732
X2.093Y5.730
X2.100
X2.403
X2.408
X2.413Y5.731
X2.419Y5.733
X2.424Y5.735
X2.429Y5.737
X2.434Y5.739
X2.438Y5.742
X2.445Y5.747
X2.447Y5.749
X2.449
X2.452
X2.454
X2.456
X2.459Y5.748
X2.460Y5.747
X2.463Y5.744
X2.464Y5.742
X2.465Y5.739
X2.466Y5.735
Y5.733
X2.465Y5.730
X2.464Y5.728
X2.458Y5.721
X2.456Y5.717
X2.453Y5.713
X2.451Y5.708
X2.449Y5.703
X2.447Y5.698
X2.446Y5.692
X2.445Y5.685
Y5.372
X2.446Y5.365
X2.447Y5.358
X2.449Y5.353
X2.451Y5.348
X2.454Y5.342
X2.456Y5.338
X2.460Y5.334
X2.466Y5.327
X2.467Y5.325
X2.468Y5.322
Y5.319
Y5.317
X2.467Y5.314
X2.466Y5.312
Y5.311
X2.463Y5.308
X2.460Y5.307
X2.458Y5.306
X2.454Y5.305
X2.452
X2.449Y5.306
X2.447Y5.307
X2.439Y5.313
X2.435Y5.316
X2.430Y5.319
X2.426Y5.321
X2.420Y5.324
X2.415Y5.325
X2.409Y5.326
X2.403Y5.327
X2.105
Z0.100
G0X2.217Y5.487
Z-0.315
G1Z-0.375F20.0
Y5.570F75.0
X2.285
Y5.487
X2.217
X2.137Y5.407
Y5.650
X2.365
Y5.407
X2.137
X2.105Y5.327
X2.099
X2.093Y5.326
X2.088Y5.324
X2.081Y5.322
X2.076Y5.320
X2.071Y5.317
X2.066Y5.313
X2.058Y5.307
X2.056Y5.305
X2.054
X2.050Y5.304
X2.048
X2.046Y5.305
X2.044Y5.306
X2.042Y5.307
X2.040Y5.309
X2.038Y5.312
X2.037Y5.315
Y5.318
Y5.321
X2.038Y5.323
X2.039Y5.326
X2.045Y5.334
X2.047Y5.338
X2.049Y5.341
X2.052Y5.346
X2.054Y5.351
X2.055Y5.355
X2.056Y5.361
X2.057Y5.367
Y5.683
X2.056Y5.689
X2.055Y5.696
X2.054Y5.703
X2.051Y5.709
X2.050Y5.712
X2.047Y5.717
X2.043Y5.722
X2.035Y5.732
X2.034Y5.735
X2.033Y5.739
X2.034Y5.743
X2.035Y5.746
X2.038Y5.749
X2.040Y5.751
X2.044Y5.752
X2.047Y5.753
X2.051Y5.752
X2.054Y5.751
X2.063Y5.743
X2.068Y5.740
X2.072Y5.737
X2.076Y5.735
X2.082Y5.733
X2.087Y5.732
X2.093Y5.730
X2.100
X2.403
X2.408
X2.413Y5.731
X2.419Y5.733
X2.424Y5.735
X2.429Y5.737
X2.434Y5.739
X2.438Y5.742
X2.445Y5.747
X2.447Y5.749
X2.449
X2.452
X2.454
X2.456
X2.459Y5.748
X2.460Y5.747
X2.463Y5.744
X2.464Y5.742
X2.465Y5.739
X2.466Y5.735
Y5.733
X2.465Y5.730
X2.464Y5.728
X2.458Y5.721
X2.456Y5.717
X2.453Y5.713
X2.451Y5.708
X2.449Y5.703
X2.447Y5.698
X2.446Y5.692
X2.445Y5.685
Y5.372
X2.446Y5.365
X2.447Y5.358
X2.449Y5.353
X2.451Y5.348
X2.454Y5.342
X2.456Y5.338
X2.460Y5.334
X2.466Y5.327
X2.467Y5.325
X2.468Y5.322
Y5.319
Y5.317
X2.467Y5.314
X2.466Y5.312
Y5.311
X2.463Y5.308
X2.460Y5.307
X2.458Y5.306
X2.454Y5.305
X2.452
X2.449Y5.306
X2.447Y5.307
X2.439Y5.313
X2.435Y5.316
X2.430Y5.319
X2.426Y5.321
X2.420Y5.324
X2.415Y5.325
X2.409Y5.326
X2.403Y5.327
X2.105
Z0.100
G0X2.217Y4.699
G1Z-0.040F20.0
Y4.782F75.0
X2.285Y4.783
Y4.699
X2.217
X2.137Y4.619
Y4.862
X2.365Y4.863
Y4.619
X2.137
X2.105Y4.539
X2.099
X2.094Y4.538
X2.086Y4.537
X2.080Y4.534
X2.075Y4.532
X2.070Y4.528
X2.067Y4.526
X2.058Y4.519
X2.056Y4.518
X2.054Y4.517
X2.050
X2.049
X2.046Y4.518
X2.044Y4.519
X2.042
X2.040Y4.522
X2.038Y4.525
X2.037Y4.528
Y4.531
Y4.533
X2.038Y4.536
X2.039Y4.538
X2.047Y4.549
X2.049Y4.553
X2.052Y4.558
X2.054Y4.563
X2.055Y4.568
X2.056Y4.574
X2.057Y4.580
Y4.896
X2.056Y4.902
X2.055Y4.908
X2.054Y4.915
X2.051Y4.921
X2.049Y4.926
X2.046Y4.930
X2.043Y4.934
X2.035Y4.944
X2.034Y4.948
X2.033Y4.952
X2.034Y4.955
X2.035Y4.959
X2.038Y4.962
X2.040Y4.964
X2.044Y4.965
X2.047
X2.051
X2.054Y4.963
X2.063Y4.956
X2.068Y4.953
X2.072Y4.950
X2.076Y4.948
X2.082Y4.946
X2.087Y4.944
X2.093Y4.943
X2.100Y4.942
X2.403Y4.943
X2.408
X2.413Y4.944
X2.419Y4.945
X2.424Y4.947
X2.429Y4.949
X2.434Y4.952
X2.438Y4.955
X2.445Y4.960
X2.447Y4.961
X2.449Y4.962
X2.452
X2.454
X2.457Y4.961
X2.459Y4.960
X2.460Y4.959
X2.463Y4.957
X2.464Y4.954
X2.465Y4.951
X2.466Y4.948
Y4.946
X2.465Y4.943
X2.464Y4.941
X2.458Y4.933
X2.456Y4.930
X2.453Y4.925
X2.450Y4.920
X2.449Y4.915
X2.447Y4.911
X2.446Y4.904
X2.445Y4.898
Y4.584
X2.446Y4.578
X2.447Y4.572
X2.449Y4.566
X2.451Y4.561
X2.454Y4.555
X2.456Y4.551
X2.459Y4.548
X2.466Y4.539
X2.467Y4.537
X2.468Y4.535
Y4.531
Y4.529
X2.467Y4.527
Y4.525
X2.466Y4.524
X2.463Y4.521
X2.460Y4.519
X2.458Y4.518
X2.454
X2.452
X2.449Y4.519
X2.447Y4.520
X2.439Y4.526
X2.435Y4.529
X2.430Y4.532
X2.426Y4.534
X2.420Y4.536
X2.415Y4.538
X2.409Y4.539
X2.403
X2.105
Z0.100
G0X2.217Y4.699
Z-0.020
G1Z-0.080F20.0
Y4.782F75.0
X2.285Y4.783
Y4.699
X2.217
X2.137Y4.619
Y4.862
X2.365Y4.863
Y4.619
X2.137
X2.105Y4.539
X2.099
X2.094Y4.538
X2.086Y4.537
X2.080Y4.534
X2.075Y4.532
X2.070Y4.528
X2.067Y4.526
X2.058Y4.519
X2.056Y4.518
X2.054Y4.517
X2.050
X2.049
X2.046Y4.518
X2.044Y4.519
X2.042
X2.040Y4.522
X2.038Y4.525
X2.037Y4.528
Y4.531
Y4.533
X2.038Y4.536
X2.039Y4.538
X2.047Y4.549
X2.049Y4.553
X2.052Y4.558
X2.054Y4.563
X2.055Y4.568
X2.056Y4.574
X2.057Y4.580
Y4.896
X2.056Y4.902
X2.055Y4.908
X2.054Y4.915
X2.051Y4.921
X2.049Y4.926
X2.046Y4.930
X2.043Y4.934
X2.035Y4.944
X2.034Y4.948
X2.033Y4.952
X2.034Y4.955
X2.035Y4.959
X2.038Y4.962
X2.040Y4.964
X2.044Y4.965
X2.047
X2.051
X2.054Y4.963
X2.063Y4.956
X2.068Y4.953
X2.072Y4.950
X2.076Y4.948
X2.082Y4.946
X2.087Y4.944
X2.093Y4.943
X2.100Y4.942
X2.403Y4.943
X2.408
X2.413Y4.944
X2.419Y4.945
X2.424Y4.947
X2.429Y4.949
X2.434Y4.952
X2.438Y4.955
X2.445Y4.960
X2.447Y4.961
X2.449Y4.962
X2.452
X2.454
X2.457Y4.961
X2.459Y4.960
X2.460Y4.959
X2.463Y4.957
X2.464Y4.954
X2.465Y4.951
X2.466Y4.948
Y4.946
X2.465Y4.943
X2.464Y4.941
X2.458Y4.933
X2.456Y4.930
X2.453Y4.925
X2.450Y4.920
X2.449Y4.915
X2.447Y4.911
X2.446Y4.904
X2.445Y4.898
Y4.584
X2.446Y4.578
X2.447Y4.572
X2.449Y4.566
X2.451Y4.561
X2.454Y4.555
X2.456Y4.551
X2.459Y4.548
X2.466Y4.539
X2.467Y4.537
X2.468Y4.535
Y4.531
Y4.529
X2.467Y4.527
Y4.525
X2.466Y4.524
X2.463Y4.521
X2.460Y4.519
X2.458Y4.518
X2.454
X2.452
X2.449Y4.519
X2.447Y4.520
X2.439Y4.526
X2.435Y4.529
X2.430Y4.532
X2.426Y4.534
X2.420Y4.536
X2.415Y4.538
X2.409Y4.539
X2.403
X2.105
Z0.100
G0X2.217Y4.699
Z-0.060
G1Z-0.120F20.0
Y4.782F75.0
X2.285Y4.783
Y4.699
X2.217
X2.137Y4.619
Y4.862
X2.365Y4.863
Y4.619
X2.137
X2.105Y4.539
X2.099
X2.094Y4.538
X2.086Y4.537
X2.080Y4.534
X2.075Y4.532
X2.070Y4.528
X2.067Y4.526
X2.058Y4.519
X2.056Y4.518
X2.054Y4.517
X2.050
X2.049
X2.046Y4.518
X2.044Y4.519
X2.042
X2.040Y4.522
X2.038Y4.525
X2.037Y4.528
Y4.531
Y4.533
X2.038Y4.536
X2.039Y4.538
X2.047Y4.549
X2.049Y4.553
X2.052Y4.558
X2.054Y4.563
X2.055Y4.568
X2.056Y4.574
X2.057Y4.580
Y4.896
X2.056Y4.902
X2.055Y4.908
X2.054Y4.915
X2.051Y4.921
X2.049Y4.926
X2.046Y4.930
X2.043Y4.934
X2.035Y4.944
X2.034Y4.948
X2.033Y4.952
X2.034Y4.955
X2.035Y4.959
X2.038Y4.962
X2.040Y4.964
X2.044Y4.965
X2.047
X2.051
X2.054Y4.963
X2.063Y4.956
X2.068Y4.953
X2.072Y4.950
X2.076Y4.948
X2.082Y4.946
X2.087Y4.944
X2.093Y4.943
X2.100Y4.942
X2.403Y4.943
X2.408
X2.413Y4.944
X2.419Y4.945
X2.424Y4.947
X2.429Y4.949
X2.434Y4.952
X2.438Y4.955
X2.445Y4.960
X2.447Y4.961
X2.449Y4.962
X2.452
X2.454
X2.457Y4.961
X2.459Y4.960
X2.460Y4.959
X2.463Y4.957
X2.464Y4.954
X2.465Y4.951
X2.466Y4.948
Y4.946
X2.465Y4.943
X2.464Y4.941
X2.458Y4.933
X2.456Y4.930
X2.453Y4.925
X2.450Y4.920
X2.449Y4.915
X2.447Y4.911
X2.446Y4.904
X2.445Y4.898
Y4.584
X2.446Y4.578
X2.447Y4.572
X2.449Y4.566
X2.451Y4.561
X2.454Y4.555
X2.456Y4.551
X2.459Y4.548
X2.466Y4.539
X2.467Y4.537
X2.468Y4.535
Y4.531
Y4.529
X2.467Y4.527
Y4.525
X2.466Y4.524
X2.463Y4.521
X2.460Y4.519
X2.458Y4.518
X2.454
X2.452
X2.449Y4.519
X2.447Y4.520
X2.439Y4.526
X2.435Y4.529
X2.430Y4.532
X2.426Y4.534
X2.420Y4.536
X2.415Y4.538
X2.409Y4.539
X2.403
X2.105
Z0.100
G0X2.217Y4.699
Z-0.100
G1Z-0.160F20.0
Y4.782F75.0
X2.285Y4.783
Y4.699
X2.217
X2.137Y4.619
Y4.862
X2.365Y4.863
Y4.619
X2.137
X2.105Y4.539
X2.099
X2.094Y4.538
X2.086Y4.537
X2.080Y4.534
X2.075Y4.532
X2.070Y4.528
X2.067Y4.526
X2.058Y4.519
X2.056Y4.518
X2.054Y4.517
X2.050
X2.049
X2.046Y4.518
X2.044Y4.519
X2.042
X2.040Y4.522
X2.038Y4.525
X2.037Y4.528
Y4.531
Y4.533
X2.038Y4.536
X2.039Y4.538
X2.047Y4.549
X2.049Y4.553
X2.052Y4.558
X2.054Y4.563
X2.055Y4.568
X2.056Y4.574
X2.057Y4.580
Y4.896
X2.056Y4.902
X2.055Y4.908
X2.054Y4.915
X2.051Y4.921
X2.049Y4.926
X2.046Y4.930
X2.043Y4.934
X2.035Y4.944
X2.034Y4.948
X2.033Y4.952
X2.034Y4.955
X2.035Y4.959
X2.038Y4.962
X2.040Y4.964
X2.044Y4.965
X2.047
X2.051
X2.054Y4.963
X2.063Y4.956
X2.068Y4.953
X2.072Y4.950
X2.076Y4.948
X2.082Y4.946
X2.087Y4.944
X2.093Y4.943
X2.100Y4.942
X2.403Y4.943
X2.408
X2.413Y4.944
X2.419Y4.945
X2.424Y4.947
X2.429Y4.949
X2.434Y4.952
X2.438Y4.955
X2.445Y4.960
X2.447Y4.961
X2.449Y4.962
X2.452
X2.454
X2.457Y4.961
X2.459Y4.960
X2.460Y4.959
X2.463Y4.957
X2.464Y4.954
X2.465Y4.951
X2.466Y4.948
Y4.946
X2.465Y4.943
X2.464Y4.941
X2.458Y4.933
X2.456Y4.930
X2.453Y4.925
X2.450Y4.920
X2.449Y4.915
X2.447Y4.911
X2.446Y4.904
X2.445Y4.898
Y4.584
X2.446Y4.578
X2.447Y4.572
X2.449Y4.566
X2.451Y4.561
X2.454Y4.555
X2.456Y4.551
X2.459Y4.548
X2.466Y4.539
X2.467Y4.537
X2.468Y4.535
Y4.531
Y4.529
X2.467Y4.527
Y4.525
X2.466Y4.524
X2.463Y4.521
X2.460Y4.519
X2.458Y4.518
X2.454
X2.452
X2.449Y4.519
X2.447Y4.520
X2.439Y4.526
X2.435Y4.529
X2.430Y4.532
X2.426Y4.534
X2.420Y4.536
X2.415Y4.538
X2.409Y4.539
X2.403
X2.105
Z0.100
G0X2.217Y4.699
Z-0.140
G1Z-0.200F20.0
Y4.782F75.0
X2.285Y4.783
Y4.699
X2.217
X2.137Y4.619
Y4.862
X2.365Y4.863
Y4.619
X2.137
X2.105Y4.539
X2.099
X2.094Y4.538
X2.086Y4.537
X2.080Y4.534
X2.075Y4.532
X2.070Y4.528
X2.067Y4.526
X2.058Y4.519
X2.056Y4.518
X2.054Y4.517
X2.050
X2.049
X2.046Y4.518
X2.044Y4.519
X2.042
X2.040Y4.522
X2.038Y4.525
X2.037Y4.528
Y4.531
Y4.533
X2.038Y4.536
X2.039Y4.538
X2.047Y4.549
X2.049Y4.553
X2.052Y4.558
X2.054Y4.563
X2.055Y4.568
X2.056Y4.574
X2.057Y4.580
Y4.896
X2.056Y4.902
X2.055Y4.908
X2.054Y4.915
X2.051Y4.921
X2.049Y4.926
X2.046Y4.930
X2.043Y4.934
X2.035Y4.944
X2.034Y4.948
X2.033Y4.952
X2.034Y4.955
X2.035Y4.959
X2.038Y4.962
X2.040Y4.964
X2.044Y4.965
X2.047
X2.051
X2.054Y4.963
X2.063Y4.956
X2.068Y4.953
X2.072Y4.950
X2.076Y4.948
X2.082Y4.946
X2.087Y4.944
X2.093Y4.943
X2.100Y4.942
X2.403Y4.943
X2.408
X2.413Y4.944
X2.419Y4.945
X2.424Y4.947
X2.429Y4.949
X2.434Y4.952
X2.438Y4.955
X2.445Y4.960
X2.447Y4.961
X2.449Y4.962
X2.452
X2.454
X2.457Y4.961
X2.459Y4.960
X2.460Y4.959
X2.463Y4.957
X2.464Y4.954
X2.465Y4.951
X2.466Y4.948
Y4.946
X2.465Y4.943
X2.464Y4.941
X2.458Y4.933
X2.456Y4.930
X2.453Y4.925
X2.450Y4.920
X2.449Y4.915
X2.447Y4.911
X2.446Y4.904
X2.445Y4.898
Y4.584
X2.446Y4.578
X2.447Y4.572
X2.449Y4.566
X2.451Y4.561
X2.454Y4.555
X2.456Y4.551
X2.459Y4.548
X2.466Y4.539
X2.467Y4.537
X2.468Y4.535
Y4.531
Y4.529
X2.467Y4.527
Y4.525
X2.466Y4.524
X2.463Y4.521
X2.460Y4.519
X2.458Y4.518
X2.454
X2.452
X2.449Y4.519
X2.447Y4.520
X2.439Y4.526
X2.435Y4.529
X2.430Y4.532
X2.426Y4.534
X2.420Y4.536
X2.415Y4.538
X2.409Y4.539
X2.403
X2.105
Z0.100
G0X2.217Y4.699
Z-0.180
G1Z-0.240F20.0
Y4.782F75.0
X2.285Y4.783
Y4.699
X2.217
X2.137Y4.619
Y4.862
X2.365Y4.863
Y4.619
X2.137
X2.105Y4.539
X2.099
X2.094Y4.538
X2.086Y4.537
X2.080Y4.534
X2.075Y4.532
X2.070Y4.528
X2.067Y4.526
X2.058Y4.519
X2.056Y4.518
X2.054Y4.517
X2.050
X2.049
X2.046Y4.518
X2.044Y4.519
X2.042
X2.040Y4.522
X2.038Y4.525
X2.037Y4.528
Y4.531
Y4.533
X2.038Y4.536
X2.039Y4.538
X2.047Y4.549
X2.049Y4.553
X2.052Y4.558
X2.054Y4.563
X2.055Y4.568
X2.056Y4.574
X2.057Y4.580
Y4.896
X2.056Y4.902
X2.055Y4.908
X2.054Y4.915
X2.051Y4.921
X2.049Y4.926
X2.046Y4.930
X2.043Y4.934
X2.035Y4.944
X2.034Y4.948
X2.033Y4.952
X2.034Y4.955
X2.035Y4.959
X2.038Y4.962
X2.040Y4.964
X2.044Y4.965
X2.047
X2.051
X2.054Y4.963
X2.063Y4.956
X2.068Y4.953
X2.072Y4.950
X2.076Y4.948
X2.082Y4.946
X2.087Y4.944
X2.093Y4.943
X2.100Y4.942
X2.403Y4.943
X2.408
X2.413Y4.944
X2.419Y4.945
X2.424Y4.947
X2.429Y4.949
X2.434Y4.952
X2.438Y4.955
X2.445Y4.960
X2.447Y4.961
X2.449Y4.962
X2.452
X2.454
X2.457Y4.961
X2.459Y4.960
X2.460Y4.959
X2.463Y4.957
X2.464Y4.954
X2.465Y4.951
X2.466Y4.948
Y4.946
X2.465Y4.943
X2.464Y4.941
X2.458Y4.933
X2.456Y4.930
X2.453Y4.925
X2.450Y4.920
X2.449Y4.915
X2.447Y4.911
X2.446Y4.904
X2.445Y4.898
Y4.584
X2.446Y4.578
X2.447Y4.572
X2.449Y4.566
X2.451Y4.561
X2.454Y4.555
X2.456Y4.551
X2.459Y4.548
X2.466Y4.539
X2.467Y4.537
X2.468Y4.535
Y4.531
Y4.529
X2.467Y4.527
Y4.525
X2.466Y4.524
X2.463Y4.521
X2.460Y4.519
X2.458Y4.518
X2.454
X2.452
X2.449Y4.519
X2.447Y4.520
X2.439Y4.526
X2.435Y4.529
X2.430Y4.532
X2.426Y4.534
X2.420Y4.536
X2.415Y4.538
X2.409Y4.539
X2.403
X2.105
Z0.100
G0X2.217Y4.699
Z-0.220
G1Z-0.280F20.0
Y4.782F75.0
X2.285Y4.783
Y4.699
X2.217
X2.137Y4.619
Y4.862
X2.365Y4.863
Y4.619
X2.137
X2.105Y4.539
X2.099
X2.094Y4.538
X2.086Y4.537
X2.080Y4.534
X2.075Y4.532
X2.070Y4.528
X2.067Y4.526
X2.058Y4.519
X2.056Y4.518
X2.054Y4.517
X2.050
X2.049
X2.046Y4.518
X2.044Y4.519
X2.042
X2.040Y4.522
X2.038Y4.525
X2.037Y4.528
Y4.531
Y4.533
X2.038Y4.536
X2.039Y4.538
X2.047Y4.549
X2.049Y4.553
X2.052Y4.558
X2.054Y4.563
X2.055Y4.568
X2.056Y4.574
X2.057Y4.580
Y4.896
X2.056Y4.902
X2.055Y4.908
X2.054Y4.915
X2.051Y4.921
X2.049Y4.926
X2.046Y4.930
X2.043Y4.934
X2.035Y4.944
X2.034Y4.948
X2.033Y4.952
X2.034Y4.955
X2.035Y4.959
X2.038Y4.962
X2.040Y4.964
X2.044Y4.965
X2.047
X2.051
X2.054Y4.963
X2.063Y4.956
X2.068Y4.953
X2.072Y4.950
X2.076Y4.948
X2.082Y4.946
X2.087Y4.944
X2.093Y4.943
X2.100Y4.942
X2.403Y4.943
X2.408
X2.413Y4.944
X2.419Y4.945
X2.424Y4.947
X2.429Y4.949
X2.434Y4.952
X2.438Y4.955
X2.445Y4.960
X2.447Y4.961
X2.449Y4.962
X2.452
X2.454
X2.457Y4.961
X2.459Y4.960
X2.460Y4.959
X2.463Y4.957
X2.464Y4.954
X2.465Y4.951
X2.466Y4.948
Y4.946
X2.465Y4.943
X2.464Y4.941
X2.458Y4.933
X2.456Y4.930
X2.453Y4.925
X2.450Y4.920
X2.449Y4.915
X2.447Y4.911
X2.446Y4.904
X2.445Y4.898
Y4.584
X2.446Y4.578
X2.447Y4.572
X2.449Y4.566
X2.451Y4.561
X2.454Y4.555
X2.456Y4.551
X2.459Y4.548
X2.466Y4.539
X2.467Y4.537
X2.468Y4.535
Y4.531
Y4.529
X2.467Y4.527
Y4.525
X2.466Y4.524
X2.463Y4.521
X2.460Y4.519
X2.458Y4.518
X2.454
X2.452
X2.449Y4.519
X2.447Y4.520
X2.439Y4.526
X2.435Y4.529
X2.430Y4.532
X2.426Y4.534
X2.420Y4.536
X2.415Y4.538
X2.409Y4.539
X2.403
X2.105
Z0.100
G0X2.217Y4.699
Z-0.260
G1Z-0.320F20.0
Y4.782F75.0
X2.285Y4.783
Y4.699
X2.217
X2.137Y4.619
Y4.862
X2.365Y4.863
Y4.619
X2.137
X2.105Y4.539
X2.099
X2.094Y4.538
X2.086Y4.537
X2.080Y4.534
X2.075Y4.532
X2.070Y4.528
X2.067Y4.526
X2.058Y4.519
X2.056Y4.518
X2.054Y4.517
X2.050
X2.049
X2.046Y4.518
X2.044Y4.519
X2.042
X2.040Y4.522
X2.038Y4.525
X2.037Y4.528
Y4.531
Y4.533
X2.038Y4.536
X2.039Y4.538
X2.047Y4.549
X2.049Y4.553
X2.052Y4.558
X2.054Y4.563
X2.055Y4.568
X2.056Y4.574
X2.057Y4.580
Y4.896
X2.056Y4.902
X2.055Y4.908
X2.054Y4.915
X2.051Y4.921
X2.049Y4.926
X2.046Y4.930
X2.043Y4.934
X2.035Y4.944
X2.034Y4.948
X2.033Y4.952
X2.034Y4.955
X2.035Y4.959
X2.038Y4.962
X2.040Y4.964
X2.044Y4.965
X2.047
X2.051
X2.054Y4.963
X2.063Y4.956
X2.068Y4.953
X2.072Y4.950
X2.076Y4.948
X2.082Y4.946
X2.087Y4.944
X2.093Y4.943
X2.100Y4.942
X2.403Y4.943
X2.408
X2.413Y4.944
X2.419Y4.945
X2.424Y4.947
X2.429Y4.949
X2.434Y4.952
X2.438Y4.955
X2.445Y4.960
X2.447Y4.961
X2.449Y4.962
X2.452
X2.454
X2.457Y4.961
X2.459Y4.960
X2.460Y4.959
X2.463Y4.957
X2.464Y4.954
X2.465Y4.951
X2.466Y4.948
Y4.946
X2.465Y4.943
X2.464Y4.941
X2.458Y4.933
X2.456Y4.930
X2.453Y4.925
X2.450Y4.920
X2.449Y4.915
X2.447Y4.911
X2.446Y4.904
X2.445Y4.898
Y4.584
X2.446Y4.578
X2.447Y4.572
X2.449Y4.566
X2.451Y4.561
X2.454Y4.555
X2.456Y4.551
X2.459Y4.548
X2.466Y4.539
X2.467Y4.537
X2.468Y4.535
Y4.531
Y4.529
X2.467Y4.527
Y4.525
X2.466Y4.524
X2.463Y4.521
X2.460Y4.519
X2.458Y4.518
X2.454
X2.452
X2.449Y4.519
X2.447Y4.520
X2.439Y4.526
X2.435Y4.529
X2.430Y4.532
X2.426Y4.534
X2.420Y4.536
X2.415Y4.538
X2.409Y4.539
X2.403
X2.105
Z0.100
G0X2.217Y4.699
Z-0.300
G1Z-0.360F20.0
Y4.782F75.0
X2.285Y4.783
Y4.699
X2.217
X2.137Y4.619
Y4.862
X2.365Y4.863
Y4.619
X2.137
X2.105Y4.539
X2.099
X2.094Y4.538
X2.086Y4.537
X2.080Y4.534
X2.075Y4.532
X2.070Y4.528
X2.067Y4.526
X2.058Y4.519
X2.056Y4.518
X2.054Y4.517
X2.050
X2.049
X2.046Y4.518
X2.044Y4.519
X2.042
X2.040Y4.522
X2.038Y4.525
X2.037Y4.528
Y4.531
Y4.533
X2.038Y4.536
X2.039Y4.538
X2.047Y4.549
X2.049Y4.553
X2.052Y4.558
X2.054Y4.563
X2.055Y4.568
X2.056Y4.574
X2.057Y4.580
Y4.896
X2.056Y4.902
X2.055Y4.908
X2.054Y4.915
X2.051Y4.921
X2.049Y4.926
X2.046Y4.930
X2.043Y4.934
X2.035Y4.944
X2.034Y4.948
X2.033Y4.952
X2.034Y4.955
X2.035Y4.959
X2.038Y4.962
X2.040Y4.964
X2.044Y4.965
X2.047
X2.051
X2.054Y4.963
X2.063Y4.956
X2.068Y4.953
X2.072Y4.950
X2.076Y4.948
X2.082Y4.946
X2.087Y4.944
X2.093Y4.943
X2.100Y4.942
X2.403Y4.943
X2.408
X2.413Y4.944
X2.419Y4.945
X2.424Y4.947
X2.429Y4.949
X2.434Y4.952
X2.438Y4.955
X2.445Y4.960
X2.447Y4.961
X2.449Y4.962
X2.452
X2.454
X2.457Y4.961
X2.459Y4.960
X2.460Y4.959
X2.463Y4.957
X2.464Y4.954
X2.465Y4.951
X2.466Y4.948
Y4.946
X2.465Y4.943
X2.464Y4.941
X2.458Y4.933
X2.456Y4.930
X2.453Y4.925
X2.450Y4.920
X2.449Y4.915
X2.447Y4.911
X2.446Y4.904
X2.445Y4.898
Y4.584
X2.446Y4.578
X2.447Y4.572
X2.449Y4.566
X2.451Y4.561
X2.454Y4.555
X2.456Y4.551
X2.459Y4.548
X2.466Y4.539
X2.467Y4.537
X2.468Y4.535
Y4.531
Y4.529
X2.467Y4.527
Y4.525
X2.466Y4.524
X2.463Y4.521
X2.460Y4.519
X2.458Y4.518
X2.454
X2.452
X2.449Y4.519
X2.447Y4.520
X2.439Y4.526
X2.435Y4.529
X2.430Y4.532
X2.426Y4.534
X2.420Y4.536
X2.415Y4.538
X2.409Y4.539
X2.403
X2.105
Z0.100
G0X2.217Y4.699
Z-0.315
G1Z-0.375F20.0
Y4.782F75.0
X2.285Y4.783
Y4.699
X2.217
X2.137Y4.619
Y4.862
X2.365Y4.863
Y4.619
X2.137
X2.105Y4.539
X2.099
X2.094Y4.538
X2.086Y4.537
X2.080Y4.534
X2.075Y4.532
X2.070Y4.528
X2.067Y4.526
X2.058Y4.519
X2.056Y4.518
X2.054Y4.517
X2.050
X2.049
X2.046Y4.518
X2.044Y4.519
X2.042
X2.040Y4.522
X2.038Y4.525
X2.037Y4.528
Y4.531
Y4.533
X2.038Y4.536
X2.039Y4.538
X2.047Y4.549
X2.049Y4.553
X2.052Y4.558
X2.054Y4.563
X2.055Y4.568
X2.056Y4.574
X2.057Y4.580
Y4.896
X2.056Y4.902
X2.055Y4.908
X2.054Y4.915
X2.051Y4.921
X2.049Y4.926
X2.046Y4.930
X2.043Y4.934
X2.035Y4.944
X2.034Y4.948
X2.033Y4.952
X2.034Y4.955
X2.035Y4.959
X2.038Y4.962
X2.040Y4.964
X2.044Y4.965
X2.047
X2.051
X2.054Y4.963
X2.063Y4.956
X2.068Y4.953
X2.072Y4.950
X2.076Y4.948
X2.082Y4.946
X2.087Y4.944
X2.093Y4.943
X2.100Y4.942
X2.403Y4.943
X2.408
X2.413Y4.944
X2.419Y4.945
X2.424Y4.947
X2.429Y4.949
X2.434Y4.952
X2.438Y4.955
X2.445Y4.960
X2.447Y4.961
X2.449Y4.962
X2.452
X2.454
X2.457Y4.961
X2.459Y4.960
X2.460Y4.959
X2.463Y4.957
X2.464Y4.954
X2.465Y4.951
X2.466Y4.948
Y4.946
X2.465Y4.943
X2.464Y4.941
X2.458Y4.933
X2.456Y4.930
X2.453Y4.925
X2.450Y4.920
X2.449Y4.915
X2.447Y4.911
X2.446Y4.904
X2.445Y4.898
Y4.584
X2.446Y4.578
X2.447Y4.572
X2.449Y4.566
X2.451Y4.561
X2.454Y4.555
X2.456Y4.551
X2.459Y4.548
X2.466Y4.539
X2.467Y4.537
X2.468Y4.535
Y4.531
Y4.529
X2.467Y4.527
Y4.525
X2.466Y4.524
X2.463Y4.521
X2.460Y4.519
X2.458Y4.518
X2.454
X2.452
X2.449Y4.519
X2.447Y4.520
X2.439Y4.526
X2.435Y4.529
X2.430Y4.532
X2.426Y4.534
X2.420Y4.536
X2.415Y4.538
X2.409Y4.539
X2.403
X2.105
Z0.100
G0X2.217Y3.912
G1Z-0.040F20.0
Y3.995F75.0
X2.285
Y3.912
X2.217
X2.137Y3.832
Y4.075
X2.365
Y3.832
X2.137
X2.105Y3.752
X2.099
X2.094Y3.751
X2.086Y3.749
X2.080Y3.747
X2.075Y3.744
X2.070Y3.741
X2.067Y3.739
X2.058Y3.732
X2.056Y3.731
X2.054Y3.730
X2.050Y3.729
X2.049Y3.730
X2.046
X2.044Y3.731
X2.042Y3.732
X2.040Y3.735
X2.038Y3.737
X2.037Y3.740
Y3.743
Y3.746
X2.038Y3.748
X2.039Y3.751
X2.047Y3.761
X2.049Y3.766
X2.052Y3.771
X2.054Y3.776
X2.055Y3.780
X2.056Y3.787
X2.057Y3.792
Y4.108
X2.056Y4.114
X2.055Y4.121
X2.054Y4.127
X2.051Y4.134
X2.049Y4.139
X2.046Y4.143
X2.043Y4.147
X2.035Y4.157
X2.034Y4.161
X2.033Y4.164
X2.034Y4.168
X2.035Y4.171
X2.038Y4.174
X2.040Y4.176
X2.044Y4.178
X2.047
X2.051Y4.177
X2.054Y4.176
X2.063Y4.168
X2.068Y4.165
X2.072Y4.163
X2.076Y4.161
X2.082Y4.158
X2.087Y4.157
X2.093Y4.156
X2.100Y4.155
X2.403
X2.408Y4.156
X2.413
X2.419Y4.158
X2.424Y4.160
X2.429Y4.162
X2.434Y4.165
X2.438Y4.167
X2.445Y4.173
X2.447Y4.174
X2.449
X2.452Y4.175
X2.454Y4.174
X2.457
X2.459Y4.173
X2.460Y4.172
X2.463Y4.169
X2.464Y4.167
X2.465Y4.164
X2.466Y4.160
Y4.158
X2.465Y4.156
X2.464Y4.153
X2.458Y4.146
X2.456Y4.142
X2.453Y4.138
X2.450Y4.133
X2.449Y4.128
X2.447Y4.123
X2.446Y4.117
X2.445Y4.110
Y3.797
X2.446Y3.791
X2.447Y3.784
X2.449Y3.778
X2.451Y3.774
X2.454Y3.768
X2.456Y3.764
X2.459Y3.760
X2.466Y3.752
X2.467Y3.750
X2.468Y3.747
Y3.744
Y3.742
X2.467Y3.740
Y3.738
X2.466Y3.736
X2.463Y3.733
X2.460Y3.732
X2.458Y3.731
X2.454Y3.730
X2.452
X2.449Y3.731
X2.447Y3.733
X2.439Y3.739
X2.435Y3.742
X2.430Y3.745
X2.426Y3.747
X2.420Y3.749
X2.415Y3.750
X2.409Y3.751
X2.403Y3.752
X2.105
Z0.100
G0X2.217Y3.912
Z-0.020
G1Z-0.080F20.0
Y3.995F75.0
X2.285
Y3.912
X2.217
X2.137Y3.832
Y4.075
X2.365
Y3.832
X2.137
X2.105Y3.752
X2.099
X2.094Y3.751
X2.086Y3.749
X2.080Y3.747
X2.075Y3.744
X2.070Y3.741
X2.067Y3.739
X2.058Y3.732
X2.056Y3.731
X2.054Y3.730
X2.050Y3.729
X2.049Y3.730
X2.046
X2.044Y3.731
X2.042Y3.732
X2.040Y3.735
X2.038Y3.737
X2.037Y3.740
Y3.743
Y3.746
X2.038Y3.748
X2.039Y3.751
X2.047Y3.761
X2.049Y3.766
X2.052Y3.771
X2.054Y3.776
X2.055Y3.780
X2.056Y3.787
X2.057Y3.792
Y4.108
X2.056Y4.114
X2.055Y4.121
X2.054Y4.127
X2.051Y4.134
X2.049Y4.139
X2.046Y4.143
X2.043Y4.147
X2.035Y4.157
X2.034Y4.161
X2.033Y4.164
X2.034Y4.168
X2.035Y4.171
X2.038Y4.174
X2.040Y4.176
X2.044Y4.178
X2.047
X2.051Y4.177
X2.054Y4.176
X2.063Y4.168
X2.068Y4.165
X2.072Y4.163
X2.076Y4.161
X2.082Y4.158
X2.087Y4.157
X2.093Y4.156
X2.100Y4.155
X2.403
X2.408Y4.156
X2.413
X2.419Y4.158
X2.424Y4.160
X2.429Y4.162
X2.434Y4.165
X2.438Y4.167
X2.445Y4.173
X2.447Y4.174
X2.449
X2.452Y4.175
X2.454Y4.174
X2.457
X2.459Y4.173
X2.460Y4.172
X2.463Y4.169
X2.464Y4.167
X2.465Y4.164
X2.466Y4.160
Y4.158
X2.465Y4.156
X2.464Y4.153
X2.458Y4.146
X2.456Y4.142
X2.453Y4.138
X2.450Y4.133
X2.449Y4.128
X2.447Y4.123
X2.446Y4.117
X2.445Y4.110
Y3.797
X2.446Y3.791
X2.447Y3.784
X2.449Y3.778
X2.451Y3.774
X2.454Y3.768
X2.456Y3.764
X2.459Y3.760
X2.466Y3.752
X2.467Y3.750
X2.468Y3.747
Y3.744
Y3.742
X2.467Y3.740
Y3.738
X2.466Y3.736
X2.463Y3.733
X2.460Y3.732
X2.458Y3.731
X2.454Y3.730
X2.452
X2.449Y3.731
X2.447Y3.733
X2.439Y3.739
X2.435Y3.742
X2.430Y3.745
X2.426Y3.747
X2.420Y3.749
X2.415Y3.750
X2.409Y3.751
X2.403Y3.752
X2.105
Z0.100
G0X2.217Y3.912
Z-0.060
G1Z-0.120F20.0
Y3.995F75.0
X2.285
Y3.912
X2.217
X2.137Y3.832
Y4.075
X2.365
Y3.832
X2.137
X2.105Y3.752
X2.099
X2.094Y3.751
X2.086Y3.749
X2.080Y3.747
X2.075Y3.744
X2.070Y3.741
X2.067Y3.739
X2.058Y3.732
X2.056Y3.731
X2.054Y3.730
X2.050Y3.729
X2.049Y3.730
X2.046
X2.044Y3.731
X2.042Y3.732
X2.040Y3.735
X2.038Y3.737
X2.037Y3.740
Y3.743
Y3.746
X2.038Y3.748
X2.039Y3.751
X2.047Y3.761
X2.049Y3.766
X2.052Y3.771
X2.054Y3.776
X2.055Y3.780
X2.056Y3.787
X2.057Y3.792
Y4.108
X2.056Y4.114
X2.055Y4.121
X2.054Y4.127
X2.051Y4.134
X2.049Y4.139
X2.046Y4.143
X2.043Y4.147
X2.035Y4.157
X2.034Y4.161
X2.033Y4.164
X2.034Y4.168
X2.035Y4.171
X2.038Y4.174
X2.040Y4.176
X2.044Y4.178
X2.047
X2.051Y4.177
X2.054Y4.176
X2.063Y4.168
X2.068Y4.165
X2.072Y4.163
X2.076Y4.161
X2.082Y4.158
X2.087Y4.157
X2.093Y4.156
X2.100Y4.155
X2.403
X2.408Y4.156
X2.413
X2.419Y4.158
X2.424Y4.160
X2.429Y4.162
X2.434Y4.165
X2.438Y4.167
X2.445Y4.173
X2.447Y4.174
X2.449
X2.452Y4.175
X2.454Y4.174
X2.457
X2.459Y4.173
X2.460Y4.172
X2.463Y4.169
X2.464Y4.167
X2.465Y4.164
X2.466Y4.160
Y4.158
X2.465Y4.156
X2.464Y4.153
X2.458Y4.146
X2.456Y4.142
X2.453Y4.138
X2.450Y4.133
X2.449Y4.128
X2.447Y4.123
X2.446Y4.117
X2.445Y4.110
Y3.797
X2.446Y3.791
X2.447Y3.784
X2.449Y3.778
X2.451Y3.774
X2.454Y3.768
X2.456Y3.764
X2.459Y3.760
X2.466Y3.752
X2.467Y3.750
X2.468Y3.747
Y3.744
Y3.742
X2.467Y3.740
Y3.738
X2.466Y3.736
X2.463Y3.733
X2.460Y3.732
X2.458Y3.731
X2.454Y3.730
X2.452
X2.449Y3.731
X2.447Y3.733
X2.439Y3.739
X2.435Y3.742
X2.430Y3.745
X2.426Y3.747
X2.420Y3.749
X2.415Y3.750
X2.409Y3.751
X2.403Y3.752
X2.105
Z0.100
G0X2.217Y3.912
Z-0.100
G1Z-0.160F20.0
Y3.995F75.0
X2.285
Y3.912
X2.217
X2.137Y3.832
Y4.075
X2.365
Y3.832
X2.137
X2.105Y3.752
X2.099
X2.094Y3.751
X2.086Y3.749
X2.080Y3.747
X2.075Y3.744
X2.070Y3.741
X2.067Y3.739
X2.058Y3.732
X2.056Y3.731
X2.054Y3.730
X2.050Y3.729
X2.049Y3.730
X2.046
X2.044Y3.731
X2.042Y3.732
X2.040Y3.735
X2.038Y3.737
X2.037Y3.740
Y3.743
Y3.746
X2.038Y3.748
X2.039Y3.751
X2.047Y3.761
X2.049Y3.766
X2.052Y3.771
X2.054Y3.776
X2.055Y3.780
X2.056Y3.787
X2.057Y3.792
Y4.108
X2.056Y4.114
X2.055Y4.121
X2.054Y4.127
X2.051Y4.134
X2.049Y4.139
X2.046Y4.143
X2.043Y4.147
X2.035Y4.157
X2.034Y4.161
X2.033Y4.164
X2.034Y4.168
X2.035Y4.171
X2.038Y4.174
X2.040Y4.176
X2.044Y4.178
X2.047
X2.051Y4.177
X2.054Y4.176
X2.063Y4.168
X2.068Y4.165
X2.072Y4.163
X2.076Y4.161
X2.082Y4.158
X2.087Y4.157
X2.093Y4.156
X2.100Y4.155
X2.403
X2.408Y4.156
X2.413
X2.419Y4.158
X2.424Y4.160
X2.429Y4.162
X2.434Y4.165
X2.438Y4.167
X2.445Y4.173
X2.447Y4.174
X2.449
X2.452Y4.175
X2.454Y4.174
X2.457
X2.459Y4.173
X2.460Y4.172
X2.463Y4.169
X2.464Y4.167
X2.465Y4.164
X2.466Y4.160
Y4.158
X2.465Y4.156
X2.464Y4.153
X2.458Y4.146
X2.456Y4.142
X2.453Y4.138
X2.450Y4.133
X2.449Y4.128
X2.447Y4.123
X2.446Y4.117
X2.445Y4.110
Y3.797
X2.446Y3.791
X2.447Y3.784
X2.449Y3.778
X2.451Y3.774
X2.454Y3.768
X2.456Y3.764
X2.459Y3.760
X2.466Y3.752
X2.467Y3.750
X2.468Y3.747
Y3.744
Y3.742
X2.467Y3.740
Y3.738
X2.466Y3.736
X2.463Y3.733
X2.460Y3.732
X2.458Y3.731
X2.454Y3.730
X2.452
X2.449Y3.731
X2.447Y3.733
X2.439Y3.739
X2.435Y3.742
X2.430Y3.745
X2.426Y3.747
X2.420Y3.749
X2.415Y3.750
X2.409Y3.751
X2.403Y3.752
X2.105
Z0.100
G0X2.217Y3.912
Z-0.140
G1Z-0.200F20.0
Y3.995F75.0
X2.285
Y3.912
X2.217
X2.137Y3.832
Y4.075
X2.365
Y3.832
X2.137
X2.105Y3.752
X2.099
X2.094Y3.751
X2.086Y3.749
X2.080Y3.747
X2.075Y3.744
X2.070Y3.741
X2.067Y3.739
X2.058Y3.732
X2.056Y3.731
X2.054Y3.730
X2.050Y3.729
X2.049Y3.730
X2.046
X2.044Y3.731
X2.042Y3.732
X2.040Y3.735
X2.038Y3.737
X2.037Y3.740
Y3.743
Y3.746
X2.038Y3.748
X2.039Y3.751
X2.047Y3.761
X2.049Y3.766
X2.052Y3.771
X2.054Y3.776
X2.055Y3.780
X2.056Y3.787
X2.057Y3.792
Y4.108
X2.056Y4.114
X2.055Y4.121
X2.054Y4.127
X2.051Y4.134
X2.049Y4.139
X2.046Y4.143
X2.043Y4.147
X2.035Y4.157
X2.034Y4.161
X2.033Y4.164
X2.034Y4.168
X2.035Y4.171
X2.038Y4.174
X2.040Y4.176
X2.044Y4.178
X2.047
X2.051Y4.177
X2.054Y4.176
X2.063Y4.168
X2.068Y4.165
X2.072Y4.163
X2.076Y4.161
X2.082Y4.158
X2.087Y4.157
X2.093Y4.156
X2.100Y4.155
X2.403
X2.408Y4.156
X2.413
X2.419Y4.158
X2.424Y4.160
X2.429Y4.162
X2.434Y4.165
X2.438Y4.167
X2.445Y4.173
X2.447Y4.174
X2.449
X2.452Y4.175
X2.454Y4.174
X2.457
X2.459Y4.173
X2.460Y4.172
X2.463Y4.169
X2.464Y4.167
X2.465Y4.164
X2.466Y4.160
Y4.158
X2.465Y4.156
X2.464Y4.153
X2.458Y4.146
X2.456Y4.142
X2.453Y4.138
X2.450Y4.133
X2.449Y4.128
X2.447Y4.123
X2.446Y4.117
X2.445Y4.110
Y3.797
X2.446Y3.791
X2.447Y3.784
X2.449Y3.778
X2.451Y3.774
X2.454Y3.768
X2.456Y3.764
X2.459Y3.760
X2.466Y3.752
X2.467Y3.750
X2.468Y3.747
Y3.744
Y3.742
X2.467Y3.740
Y3.738
X2.466Y3.736
X2.463Y3.733
X2.460Y3.732
X2.458Y3.731
X2.454Y3.730
X2.452
X2.449Y3.731
X2.447Y3.733
X2.439Y3.739
X2.435Y3.742
X2.430Y3.745
X2.426Y3.747
X2.420Y3.749
X2.415Y3.750
X2.409Y3.751
X2.403Y3.752
X2.105
Z0.100
G0X2.217Y3.912
Z-0.180
G1Z-0.240F20.0
Y3.995F75.0
X2.285
Y3.912
X2.217
X2.137Y3.832
Y4.075
X2.365
Y3.832
X2.137
X2.105Y3.752
X2.099
X2.094Y3.751
X2.086Y3.749
X2.080Y3.747
X2.075Y3.744
X2.070Y3.741
X2.067Y3.739
X2.058Y3.732
X2.056Y3.731
X2.054Y3.730
X2.050Y3.729
X2.049Y3.730
X2.046
X2.044Y3.731
X2.042Y3.732
X2.040Y3.735
X2.038Y3.737
X2.037Y3.740
Y3.743
Y3.746
X2.038Y3.748
X2.039Y3.751
X2.047Y3.761
X2.049Y3.766
X2.052Y3.771
X2.054Y3.776
X2.055Y3.780
X2.056Y3.787
X2.057Y3.792
Y4.108
X2.056Y4.114
X2.055Y4.121
X2.054Y4.127
X2.051Y4.134
X2.049Y4.139
X2.046Y4.143
X2.043Y4.147
X2.035Y4.157
X2.034Y4.161
X2.033Y4.164
X2.034Y4.168
X2.035Y4.171
X2.038Y4.174
X2.040Y4.176
X2.044Y4.178
X2.047
X2.051Y4.177
X2.054Y4.176
X2.063Y4.168
X2.068Y4.165
X2.072Y4.163
X2.076Y4.161
X2.082Y4.158
X2.087Y4.157
X2.093Y4.156
X2.100Y4.155
X2.403
X2.408Y4.156
X2.413
X2.419Y4.158
X2.424Y4.160
X2.429Y4.162
X2.434Y4.165
X2.438Y4.167
X2.445Y4.173
X2.447Y4.174
X2.449
X2.452Y4.175
X2.454Y4.174
X2.457
X2.459Y4.173
X2.460Y4.172
X2.463Y4.169
X2.464Y4.167
X2.465Y4.164
X2.466Y4.160
Y4.158
X2.465Y4.156
X2.464Y4.153
X2.458Y4.146
X2.456Y4.142
X2.453Y4.138
X2.450Y4.133
X2.449Y4.128
X2.447Y4.123
X2.446Y4.117
X2.445Y4.110
Y3.797
X2.446Y3.791
X2.447Y3.784
X2.449Y3.778
X2.451Y3.774
X2.454Y3.768
X2.456Y3.764
X2.459Y3.760
X2.466Y3.752
X2.467Y3.750
X2.468Y3.747
Y3.744
Y3.742
X2.467Y3.740
Y3.738
X2.466Y3.736
X2.463Y3.733
X2.460Y3.732
X2.458Y3.731
X2.454Y3.730
X2.452
X2.449Y3.731
X2.447Y3.733
X2.439Y3.739
X2.435Y3.742
X2.430Y3.745
X2.426Y3.747
X2.420Y3.749
X2.415Y3.750
X2.409Y3.751
X2.403Y3.752
X2.105
Z0.100
G0X2.217Y3.912
Z-0.220
G1Z-0.280F20.0
Y3.995F75.0
X2.285
Y3.912
X2.217
X2.137Y3.832
Y4.075
X2.365
Y3.832
X2.137
X2.105Y3.752
X2.099
X2.094Y3.751
X2.086Y3.749
X2.080Y3.747
X2.075Y3.744
X2.070Y3.741
X2.067Y3.739
X2.058Y3.732
X2.056Y3.731
X2.054Y3.730
X2.050Y3.729
X2.049Y3.730
X2.046
X2.044Y3.731
X2.042Y3.732
X2.040Y3.735
X2.038Y3.737
X2.037Y3.740
Y3.743
Y3.746
X2.038Y3.748
X2.039Y3.751
X2.047Y3.761
X2.049Y3.766
X2.052Y3.771
X2.054Y3.776
X2.055Y3.780
X2.056Y3.787
X2.057Y3.792
Y4.108
X2.056Y4.114
X2.055Y4.121
X2.054Y4.127
X2.051Y4.134
X2.049Y4.139
X2.046Y4.143
X2.043Y4.147
X2.035Y4.157
X2.034Y4.161
X2.033Y4.164
X2.034Y4.168
X2.035Y4.171
X2.038Y4.174
X2.040Y4.176
X2.044Y4.178
X2.047
X2.051Y4.177
X2.054Y4.176
X2.063Y4.168
X2.068Y4.165
X2.072Y4.163
X2.076Y4.161
X2.082Y4.158
X2.087Y4.157
X2.093Y4.156
X2.100Y4.155
X2.403
X2.408Y4.156
X2.413
X2.419Y4.158
X2.424Y4.160
X2.429Y4.162
X2.434Y4.165
X2.438Y4.167
X2.445Y4.173
X2.447Y4.174
X2.449
X2.452Y4.175
X2.454Y4.174
X2.457
X2.459Y4.173
X2.460Y4.172
X2.463Y4.169
X2.464Y4.167
X2.465Y4.164
X2.466Y4.160
Y4.158
X2.465Y4.156
X2.464Y4.153
X2.458Y4.146
X2.456Y4.142
X2.453Y4.138
X2.450Y4.133
X2.449Y4.128
X2.447Y4.123
X2.446Y4.117
X2.445Y4.110
Y3.797
X2.446Y3.791
X2.447Y3.784
X2.449Y3.778
X2.451Y3.774
X2.454Y3.768
X2.456Y3.764
X2.459Y3.760
X2.466Y3.752
X2.467Y3.750
X2.468Y3.747
Y3.744
Y3.742
X2.467Y3.740
Y3.738
X2.466Y3.736
X2.463Y3.733
X2.460Y3.732
X2.458Y3.731
X2.454Y3.730
X2.452
X2.449Y3.731
X2.447Y3.733
X2.439Y3.739
X2.435Y3.742
X2.430Y3.745
X2.426Y3.747
X2.420Y3.749
X2.415Y3.750
X2.409Y3.751
X2.403Y3.752
X2.105
Z0.100
G0X2.217Y3.912
Z-0.260
G1Z-0.320F20.0
Y3.995F75.0
X2.285
Y3.912
X2.217
X2.137Y3.832
Y4.075
X2.365
Y3.832
X2.137
X2.105Y3.752
X2.099
X2.094Y3.751
X2.086Y3.749
X2.080Y3.747
X2.075Y3.744
X2.070Y3.741
X2.067Y3.739
X2.058Y3.732
X2.056Y3.731
X2.054Y3.730
X2.050Y3.729
X2.049Y3.730
X2.046
X2.044Y3.731
X2.042Y3.732
X2.040Y3.735
X2.038Y3.737
X2.037Y3.740
Y3.743
Y3.746
X2.038Y3.748
X2.039Y3.751
X2.047Y3.761
X2.049Y3.766
X2.052Y3.771
X2.054Y3.776
X2.055Y3.780
X2.056Y3.787
X2.057Y3.792
Y4.108
X2.056Y4.114
X2.055Y4.121
X2.054Y4.127
X2.051Y4.134
X2.049Y4.139
X2.046Y4.143
X2.043Y4.147
X2.035Y4.157
X2.034Y4.161
X2.033Y4.164
X2.034Y4.168
X2.035Y4.171
X2.038Y4.174
X2.040Y4.176
X2.044Y4.178
X2.047
X2.051Y4.177
X2.054Y4.176
X2.063Y4.168
X2.068Y4.165
X2.072Y4.163
X2.076Y4.161
X2.082Y4.158
X2.087Y4.157
X2.093Y4.156
X2.100Y4.155
X2.403
X2.408Y4.156
X2.413
X2.419Y4.158
X2.424Y4.160
X2.429Y4.162
X2.434Y4.165
X2.438Y4.167
X2.445Y4.173
X2.447Y4.174
X2.449
X2.452Y4.175
X2.454Y4.174
X2.457
X2.459Y4.173
X2.460Y4.172
X2.463Y4.169
X2.464Y4.167
X2.465Y4.164
X2.466Y4.160
Y4.158
X2.465Y4.156
X2.464Y4.153
X2.458Y4.146
X2.456Y4.142
X2.453Y4.138
X2.450Y4.133
X2.449Y4.128
X2.447Y4.123
X2.446Y4.117
X2.445Y4.110
Y3.797
X2.446Y3.791
X2.447Y3.784
X2.449Y3.778
X2.451Y3.774
X2.454Y3.768
X2.456Y3.764
X2.459Y3.760
X2.466Y3.752
X2.467Y3.750
X2.468Y3.747
Y3.744
Y3.742
X2.467Y3.740
Y3.738
X2.466Y3.736
X2.463Y3.733
X2.460Y3.732
X2.458Y3.731
X2.454Y3.730
X2.452
X2.449Y3.731
X2.447Y3.733
X2.439Y3.739
X2.435Y3.742
X2.430Y3.745
X2.426Y3.747
X2.420Y3.749
X2.415Y3.750
X2.409Y3.751
X2.403Y3.752
X2.105
Z0.100
G0X2.217Y3.912
Z-0.300
G1Z-0.360F20.0
Y3.995F75.0
X2.285
Y3.912
X2.217
X2.137Y3.832
Y4.075
X2.365
Y3.832
X2.137
X2.105Y3.752
X2.099
X2.094Y3.751
X2.086Y3.749
X2.080Y3.747
X2.075Y3.744
X2.070Y3.741
X2.067Y3.739
X2.058Y3.732
X2.056Y3.731
X2.054Y3.730
X2.050Y3.729
X2.049Y3.730
X2.046
X2.044Y3.731
X2.042Y3.732
X2.040Y3.735
X2.038Y3.737
X2.037Y3.740
Y3.743
Y3.746
X2.038Y3.748
X2.039Y3.751
X2.047Y3.761
X2.049Y3.766
X2.052Y3.771
X2.054Y3.776
X2.055Y3.780
X2.056Y3.787
X2.057Y3.792
Y4.108
X2.056Y4.114
X2.055Y4.121
X2.054Y4.127
X2.051Y4.134
X2.049Y4.139
X2.046Y4.143
X2.043Y4.147
X2.035Y4.157
X2.034Y4.161
X2.033Y4.164
X2.034Y4.168
X2.035Y4.171
X2.038Y4.174
X2.040Y4.176
X2.044Y4.178
X2.047
X2.051Y4.177
X2.054Y4.176
X2.063Y4.168
X2.068Y4.165
X2.072Y4.163
X2.076Y4.161
X2.082Y4.158
X2.087Y4.157
X2.093Y4.156
X2.100Y4.155
X2.403
X2.408Y4.156
X2.413
X2.419Y4.158
X2.424Y4.160
X2.429Y4.162
X2.434Y4.165
X2.438Y4.167
X2.445Y4.173
X2.447Y4.174
X2.449
X2.452Y4.175
X2.454Y4.174
X2.457
X2.459Y4.173
X2.460Y4.172
X2.463Y4.169
X2.464Y4.167
X2.465Y4.164
X2.466Y4.160
Y4.158
X2.465Y4.156
X2.464Y4.153
X2.458Y4.146
X2.456Y4.142
X2.453Y4.138
X2.450Y4.133
X2.449Y4.128
X2.447Y4.123
X2.446Y4.117
X2.445Y4.110
Y3.797
X2.446Y3.791
X2.447Y3.784
X2.449Y3.778
X2.451Y3.774
X2.454Y3.768
X2.456Y3.764
X2.459Y3.760
X2.466Y3.752
X2.467Y3.750
X2.468Y3.747
Y3.744
Y3.742
X2.467Y3.740
Y3.738
X2.466Y3.736
X2.463Y3.733
X2.460Y3.732
X2.458Y3.731
X2.454Y3.730
X2.452
X2.449Y3.731
X2.447Y3.733
X2.439Y3.739
X2.435Y3.742
X2.430Y3.745
X2.426Y3.747
X2.420Y3.749
X2.415Y3.750
X2.409Y3.751
X2.403Y3.752
X2.105
Z0.100
G0X2.217Y3.912
Z-0.315
G1Z-0.375F20.0
Y3.995F75.0
X2.285
Y3.912
X2.217
X2.137Y3.832
Y4.075
X2.365
Y3.832
X2.137
X2.105Y3.752
X2.099
X2.094Y3.751
X2.086Y3.749
X2.080Y3.747
X2.075Y3.744
X2.070Y3.741
X2.067Y3.739
X2.058Y3.732
X2.056Y3.731
X2.054Y3.730
X2.050Y3.729
X2.049Y3.730
X2.046
X2.044Y3.731
X2.042Y3.732
X2.040Y3.735
X2.038Y3.737
X2.037Y3.740
Y3.743
Y3.746
X2.038Y3.748
X2.039Y3.751
X2.047Y3.761
X2.049Y3.766
X2.052Y3.771
X2.054Y3.776
X2.055Y3.780
X2.056Y3.787
X2.057Y3.792
Y4.108
X2.056Y4.114
X2.055Y4.121
X2.054Y4.127
X2.051Y4.134
X2.049Y4.139
X2.046Y4.143
X2.043Y4.147
X2.035Y4.157
X2.034Y4.161
X2.033Y4.164
X2.034Y4.168
X2.035Y4.171
X2.038Y4.174
X2.040Y4.176
X2.044Y4.178
X2.047
X2.051Y4.177
X2.054Y4.176
X2.063Y4.168
X2.068Y4.165
X2.072Y4.163
X2.076Y4.161
X2.082Y4.158
X2.087Y4.157
X2.093Y4.156
X2.100Y4.155
X2.403
X2.408Y4.156
X2.413
X2.419Y4.158
X2.424Y4.160
X2.429Y4.162
X2.434Y4.165
X2.438Y4.167
X2.445Y4.173
X2.447Y4.174
X2.449
X2.452Y4.175
X2.454Y4.174
X2.457
X2.459Y4.173
X2.460Y4.172
X2.463Y4.169
X2.464Y4.167
X2.465Y4.164
X2.466Y4.160
Y4.158
X2.465Y4.156
X2.464Y4.153
X2.458Y4.146
X2.456Y4.142
X2.453Y4.138
X2.450Y4.133
X2.449Y4.128
X2.447Y4.123
X2.446Y4.117
X2.445Y4.110
Y3.797
X2.446Y3.791
X2.447Y3.784
X2.449Y3.778
X2.451Y3.774
X2.454Y3.768
X2.456Y3.764
X2.459Y3.760
X2.466Y3.752
X2.467Y3.750
X2.468Y3.747
Y3.744
Y3.742
X2.467Y3.740
Y3.738
X2.466Y3.736
X2.463Y3.733
X2.460Y3.732
X2.458Y3.731
X2.454Y3.730
X2.452
X2.449Y3.731
X2.447Y3.733
X2.439Y3.739
X2.435Y3.742
X2.430Y3.745
X2.426Y3.747
X2.420Y3.749
X2.415Y3.750
X2.409Y3.751
X2.403Y3.752
X2.105
Z0.100
G0X2.217Y3.125
G1Z-0.040F20.0
Y3.208F75.0
X2.285
Y3.125
X2.217
X2.137Y3.045
Y3.288
X2.365
Y3.045
X2.137
X2.105Y2.965
X2.099Y2.964
X2.094
X2.086Y2.962
X2.080Y2.959
X2.075Y2.957
X2.070Y2.954
X2.067Y2.951
X2.058Y2.944
X2.056Y2.943
X2.054Y2.942
X2.050
X2.049
X2.046Y2.943
X2.044Y2.944
X2.042Y2.945
X2.040Y2.947
X2.038Y2.950
X2.037Y2.953
Y2.956
Y2.958
X2.038Y2.961
X2.039Y2.963
X2.047Y2.974
X2.049Y2.978
X2.052Y2.983
X2.054Y2.989
X2.055Y2.993
X2.056Y2.999
X2.057Y3.005
Y3.321
X2.056Y3.326
Y3.333
X2.054Y3.340
X2.051Y3.346
X2.050Y3.350
X2.047Y3.355
X2.043Y3.360
X2.035Y3.370
X2.034Y3.373
X2.033Y3.377
X2.034Y3.380
X2.035Y3.384
X2.038Y3.387
X2.040Y3.389
X2.044Y3.390
X2.047Y3.391
X2.051Y3.390
X2.054Y3.389
X2.063Y3.381
X2.068Y3.378
X2.072Y3.375
X2.076Y3.373
X2.082Y3.371
X2.087Y3.369
X2.093Y3.368
X2.100
X2.403
X2.408
X2.413Y3.369
X2.419Y3.370
X2.424Y3.372
X2.429Y3.375
X2.434Y3.377
X2.438Y3.380
X2.445Y3.385
X2.447Y3.386
X2.449Y3.387
X2.452
X2.454
X2.457
X2.459Y3.386
X2.460Y3.385
X2.463Y3.382
X2.464Y3.379
X2.465Y3.377
X2.466Y3.373
Y3.371
X2.465Y3.368
X2.464Y3.366
X2.458Y3.359
X2.456Y3.355
X2.453Y3.350
X2.450Y3.345
X2.449Y3.340
X2.447Y3.336
X2.446Y3.330
X2.445Y3.323
Y3.010
X2.446Y3.003
X2.447Y2.997
X2.449Y2.991
X2.451Y2.986
X2.454Y2.981
X2.456Y2.977
X2.459Y2.973
X2.466Y2.965
X2.467Y2.962
X2.468Y2.960
Y2.956
Y2.955
X2.467Y2.952
Y2.950
X2.466Y2.949
X2.463Y2.946
X2.460Y2.944
X2.458Y2.943
X2.454
X2.452
X2.449Y2.944
X2.447Y2.945
X2.439Y2.951
X2.435Y2.954
X2.430Y2.957
X2.426Y2.959
X2.420Y2.961
X2.415Y2.963
X2.409Y2.964
X2.403Y2.965
X2.105
Z0.100
G0X2.217Y3.125
Z-0.020
G1Z-0.080F20.0
Y3.208F75.0
X2.285
Y3.125
X2.217
X2.137Y3.045
Y3.288
X2.365
Y3.045
X2.137
X2.105Y2.965
X2.099Y2.964
X2.094
X2.086Y2.962
X2.080Y2.959
X2.075Y2.957
X2.070Y2.954
X2.067Y2.951
X2.058Y2.944
X2.056Y2.943
X2.054Y2.942
X2.050
X2.049
X2.046Y2.943
X2.044Y2.944
X2.042Y2.945
X2.040Y2.947
X2.038Y2.950
X2.037Y2.953
Y2.956
Y2.958
X2.038Y2.961
X2.039Y2.963
X2.047Y2.974
X2.049Y2.978
X2.052Y2.983
X2.054Y2.989
X2.055Y2.993
X2.056Y2.999
X2.057Y3.005
Y3.321
X2.056Y3.326
Y3.333
X2.054Y3.340
X2.051Y3.346
X2.050Y3.350
X2.047Y3.355
X2.043Y3.360
X2.035Y3.370
X2.034Y3.373
X2.033Y3.377
X2.034Y3.380
X2.035Y3.384
X2.038Y3.387
X2.040Y3.389
X2.044Y3.390
X2.047Y3.391
X2.051Y3.390
X2.054Y3.389
X2.063Y3.381
X2.068Y3.378
X2.072Y3.375
X2.076Y3.373
X2.082Y3.371
X2.087Y3.369
X2.093Y3.368
X2.100
X2.403
X2.408
X2.413Y3.369
X2.419Y3.370
X2.424Y3.372
X2.429Y3.375
X2.434Y3.377
X2.438Y3.380
X2.445Y3.385
X2.447Y3.386
X2.449Y3.387
X2.452
X2.454
X2.457
X2.459Y3.386
X2.460Y3.385
X2.463Y3.382
X2.464Y3.379
X2.465Y3.377
X2.466Y3.373
Y3.371
X2.465Y3.368
X2.464Y3.366
X2.458Y3.359
X2.456Y3.355
X2.453Y3.350
X2.450Y3.345
X2.449Y3.340
X2.447Y3.336
X2.446Y3.330
X2.445Y3.323
Y3.010
X2.446Y3.003
X2.447Y2.997
X2.449Y2.991
X2.451Y2.986
X2.454Y2.981
X2.456Y2.977
X2.459Y2.973
X2.466Y2.965
X2.467Y2.962
X2.468Y2.960
Y2.956
Y2.955
X2.467Y2.952
Y2.950
X2.466Y2.949
X2.463Y2.946
X2.460Y2.944
X2.458Y2.943
X2.454
X2.452
X2.449Y2.944
X2.447Y2.945
X2.439Y2.951
X2.435Y2.954
X2.430Y2.957
X2.426Y2.959
X2.420Y2.961
X2.415Y2.963
X2.409Y2.964
X2.403Y2.965
X2.105
Z0.100
G0X2.217Y3.125
Z-0.060
G1Z-0.120F20.0
Y3.208F75.0
X2.285
Y3.125
X2.217
X2.137Y3.045
Y3.288
X2.365
Y3.045
X2.137
X2.105Y2.965
X2.099Y2.964
X2.094
X2.086Y2.962
X2.080Y2.959
X2.075Y2.957
X2.070Y2.954
X2.067Y2.951
X2.058Y2.944
X2.056Y2.943
X2.054Y2.942
X2.050
X2.049
X2.046Y2.943
X2.044Y2.944
X2.042Y2.945
X2.040Y2.947
X2.038Y2.950
X2.037Y2.953
Y2.956
Y2.958
X2.038Y2.961
X2.039Y2.963
X2.047Y2.974
X2.049Y2.978
X2.052Y2.983
X2.054Y2.989
X2.055Y2.993
X2.056Y2.999
X2.057Y3.005
Y3.321
X2.056Y3.326
Y3.333
X2.054Y3.340
X2.051Y3.346
X2.050Y3.350
X2.047Y3.355
X2.043Y3.360
X2.035Y3.370
X2.034Y3.373
X2.033Y3.377
X2.034Y3.380
X2.035Y3.384
X2.038Y3.387
X2.040Y3.389
X2.044Y3.390
X2.047Y3.391
X2.051Y3.390
X2.054Y3.389
X2.063Y3.381
X2.068Y3.378
X2.072Y3.375
X2.076Y3.373
X2.082Y3.371
X2.087Y3.369
X2.093Y3.368
X2.100
X2.403
X2.408
X2.413Y3.369
X2.419Y3.370
X2.424Y3.372
X2.429Y3.375
X2.434Y3.377
X2.438Y3.380
X2.445Y3.385
X2.447Y3.386
X2.449Y3.387
X2.452
X2.454
X2.457
X2.459Y3.386
X2.460Y3.385
X2.463Y3.382
X2.464Y3.379
X2.465Y3.377
X2.466Y3.373
Y3.371
X2.465Y3.368
X2.464Y3.366
X2.458Y3.359
X2.456Y3.355
X2.453Y3.350
X2.450Y3.345
X2.449Y3.340
X2.447Y3.336
X2.446Y3.330
X2.445Y3.323
Y3.010
X2.446Y3.003
X2.447Y2.997
X2.449Y2.991
X2.451Y2.986
X2.454Y2.981
X2.456Y2.977
X2.459Y2.973
X2.466Y2.965
X2.467Y2.962
X2.468Y2.960
Y2.956
Y2.955
X2.467Y2.952
Y2.950
X2.466Y2.949
X2.463Y2.946
X2.460Y2.944
X2.458Y2.943
X2.454
X2.452
X2.449Y2.944
X2.447Y2.945
X2.439Y2.951
X2.435Y2.954
X2.430Y2.957
X2.426Y2.959
X2.420Y2.961
X2.415Y2.963
X2.409Y2.964
X2.403Y2.965
X2.105
Z0.100
G0X2.217Y3.125
Z-0.100
G1Z-0.160F20.0
Y3.208F75.0
X2.285
Y3.125
X2.217
X2.137Y3.045
Y3.288
X2.365
Y3.045
X2.137
X2.105Y2.965
X2.099Y2.964
X2.094
X2.086Y2.962
X2.080Y2.959
X2.075Y2.957
X2.070Y2.954
X2.067Y2.951
X2.058Y2.944
X2.056Y2.943
X2.054Y2.942
X2.050
X2.049
X2.046Y2.943
X2.044Y2.944
X2.042Y2.945
X2.040Y2.947
X2.038Y2.950
X2.037Y2.953
Y2.956
Y2.958
X2.038Y2.961
X2.039Y2.963
X2.047Y2.974
X2.049Y2.978
X2.052Y2.983
X2.054Y2.989
X2.055Y2.993
X2.056Y2.999
X2.057Y3.005
Y3.321
X2.056Y3.326
Y3.333
X2.054Y3.340
X2.051Y3.346
X2.050Y3.350
X2.047Y3.355
X2.043Y3.360
X2.035Y3.370
X2.034Y3.373
X2.033Y3.377
X2.034Y3.380
X2.035Y3.384
X2.038Y3.387
X2.040Y3.389
X2.044Y3.390
X2.047Y3.391
X2.051Y3.390
X2.054Y3.389
X2.063Y3.381
X2.068Y3.378
X2.072Y3.375
X2.076Y3.373
X2.082Y3.371
X2.087Y3.369
X2.093Y3.368
X2.100
X2.403
X2.408
X2.413Y3.369
X2.419Y3.370
X2.424Y3.372
X2.429Y3.375
X2.434Y3.377
X2.438Y3.380
X2.445Y3.385
X2.447Y3.386
X2.449Y3.387
X2.452
X2.454
X2.457
X2.459Y3.386
X2.460Y3.385
X2.463Y3.382
X2.464Y3.379
X2.465Y3.377
X2.466Y3.373
Y3.371
X2.465Y3.368
X2.464Y3.366
X2.458Y3.359
X2.456Y3.355
X2.453Y3.350
X2.450Y3.345
X2.449Y3.340
X2.447Y3.336
X2.446Y3.330
X2.445Y3.323
Y3.010
X2.446Y3.003
X2.447Y2.997
X2.449Y2.991
X2.451Y2.986
X2.454Y2.981
X2.456Y2.977
X2.459Y2.973
X2.466Y2.965
X2.467Y2.962
X2.468Y2.960
Y2.956
Y2.955
X2.467Y2.952
Y2.950
X2.466Y2.949
X2.463Y2.946
X2.460Y2.944
X2.458Y2.943
X2.454
X2.452
X2.449Y2.944
X2.447Y2.945
X2.439Y2.951
X2.435Y2.954
X2.430Y2.957
X2.426Y2.959
X2.420Y2.961
X2.415Y2.963
X2.409Y2.964
X2.403Y2.965
X2.105
Z0.100
G0X2.217Y3.125
Z-0.140
G1Z-0.200F20.0
Y3.208F75.0
X2.285
Y3.125
X2.217
X2.137Y3.045
Y3.288
X2.365
Y3.045
X2.137
X2.105Y2.965
X2.099Y2.964
X2.094
X2.086Y2.962
X2.080Y2.959
X2.075Y2.957
X2.070Y2.954
X2.067Y2.951
X2.058Y2.944
X2.056Y2.943
X2.054Y2.942
X2.050
X2.049
X2.046Y2.943
X2.044Y2.944
X2.042Y2.945
X2.040Y2.947
X2.038Y2.950
X2.037Y2.953
Y2.956
Y2.958
X2.038Y2.961
X2.039Y2.963
X2.047Y2.974
X2.049Y2.978
X2.052Y2.983
X2.054Y2.989
X2.055Y2.993
X2.056Y2.999
X2.057Y3.005
Y3.321
X2.056Y3.326
Y3.333
X2.054Y3.340
X2.051Y3.346
X2.050Y3.350
X2.047Y3.355
X2.043Y3.360
X2.035Y3.370
X2.034Y3.373
X2.033Y3.377
X2.034Y3.380
X2.035Y3.384
X2.038Y3.387
X2.040Y3.389
X2.044Y3.390
X2.047Y3.391
X2.051Y3.390
X2.054Y3.389
X2.063Y3.381
X2.068Y3.378
X2.072Y3.375
X2.076Y3.373
X2.082Y3.371
X2.087Y3.369
X2.093Y3.368
X2.100
X2.403
X2.408
X2.413Y3.369
X2.419Y3.370
X2.424Y3.372
X2.429Y3.375
X2.434Y3.377
X2.438Y3.380
X2.445Y3.385
X2.447Y3.386
X2.449Y3.387
X2.452
X2.454
X2.457
X2.459Y3.386
X2.460Y3.385
X2.463Y3.382
X2.464Y3.379
X2.465Y3.377
X2.466Y3.373
Y3.371
X2.465Y3.368
X2.464Y3.366
X2.458Y3.359
X2.456Y3.355
X2.453Y3.350
X2.450Y3.345
X2.449Y3.340
X2.447Y3.336
X2.446Y3.330
X2.445Y3.323
Y3.010
X2.446Y3.003
X2.447Y2.997
X2.449Y2.991
X2.451Y2.986
X2.454Y2.981
X2.456Y2.977
X2.459Y2.973
X2.466Y2.965
X2.467Y2.962
X2.468Y2.960
Y2.956
Y2.955
X2.467Y2.952
Y2.950
X2.466Y2.949
X2.463Y2.946
X2.460Y2.944
X2.458Y2.943
X2.454
X2.452
X2.449Y2.944
X2.447Y2.945
X2.439Y2.951
X2.435Y2.954
X2.430Y2.957
X2.426Y2.959
X2.420Y2.961
X2.415Y2.963
X2.409Y2.964
X2.403Y2.965
X2.105
Z0.100
G0X2.217Y3.125
Z-0.180
G1Z-0.240F20.0
Y3.208F75.0
X2.285
Y3.125
X2.217
X2.137Y3.045
Y3.288
X2.365
Y3.045
X2.137
X2.105Y2.965
X2.099Y2.964
X2.094
X2.086Y2.962
X2.080Y2.959
X2.075Y2.957
X2.070Y2.954
X2.067Y2.951
X2.058Y2.944
X2.056Y2.943
X2.054Y2.942
X2.050
X2.049
X2.046Y2.943
X2.044Y2.944
X2.042Y2.945
X2.040Y2.947
X2.038Y2.950
X2.037Y2.953
Y2.956
Y2.958
X2.038Y2.961
X2.039Y2.963
X2.047Y2.974
X2.049Y2.978
X2.052Y2.983
X2.054Y2.989
X2.055Y2.993
X2.056Y2.999
X2.057Y3.005
Y3.321
X2.056Y3.326
Y3.333
X2.054Y3.340
X2.051Y3.346
X2.050Y3.350
X2.047Y3.355
X2.043Y3.360
X2.035Y3.370
X2.034Y3.373
X2.033Y3.377
X2.034Y3.380
X2.035Y3.384
X2.038Y3.387
X2.040Y3.389
X2.044Y3.390
X2.047Y3.391
X2.051Y3.390
X2.054Y3.389
X2.063Y3.381
X2.068Y3.378
X2.072Y3.375
X2.076Y3.373
X2.082Y3.371
X2.087Y3.369
X2.093Y3.368
X2.100
X2.403
X2.408
X2.413Y3.369
X2.419Y3.370
X2.424Y3.372
X2.429Y3.375
X2.434Y3.377
X2.438Y3.380
X2.445Y3.385
X2.447Y3.386
X2.449Y3.387
X2.452
X2.454
X2.457
X2.459Y3.386
X2.460Y3.385
X2.463Y3.382
X2.464Y3.379
X2.465Y3.377
X2.466Y3.373
Y3.371
X2.465Y3.368
X2.464Y3.366
X2.458Y3.359
X2.456Y3.355
X2.453Y3.350
X2.450Y3.345
X2.449Y3.340
X2.447Y3.336
X2.446Y3.330
X2.445Y3.323
Y3.010
X2.446Y3.003
X2.447Y2.997
X2.449Y2.991
X2.451Y2.986
X2.454Y2.981
X2.456Y2.977
X2.459Y2.973
X2.466Y2.965
X2.467Y2.962
X2.468Y2.960
Y2.956
Y2.955
X2.467Y2.952
Y2.950
X2.466Y2.949
X2.463Y2.946
X2.460Y2.944
X2.458Y2.943
X2.454
X2.452
X2.449Y2.944
X2.447Y2.945
X2.439Y2.951
X2.435Y2.954
X2.430Y2.957
X2.426Y2.959
X2.420Y2.961
X2.415Y2.963
X2.409Y2.964
X2.403Y2.965
X2.105
Z0.100
G0X2.217Y3.125
Z-0.220
G1Z-0.280F20.0
Y3.208F75.0
X2.285
Y3.125
X2.217
X2.137Y3.045
Y3.288
X2.365
Y3.045
X2.137
X2.105Y2.965
X2.099Y2.964
X2.094
X2.086Y2.962
X2.080Y2.959
X2.075Y2.957
X2.070Y2.954
X2.067Y2.951
X2.058Y2.944
X2.056Y2.943
X2.054Y2.942
X2.050
X2.049
X2.046Y2.943
X2.044Y2.944
X2.042Y2.945
X2.040Y2.947
X2.038Y2.950
X2.037Y2.953
Y2.956
Y2.958
X2.038Y2.961
X2.039Y2.963
X2.047Y2.974
X2.049Y2.978
X2.052Y2.983
X2.054Y2.989
X2.055Y2.993
X2.056Y2.999
X2.057Y3.005
Y3.321
X2.056Y3.326
Y3.333
X2.054Y3.340
X2.051Y3.346
X2.050Y3.350
X2.047Y3.355
X2.043Y3.360
X2.035Y3.370
X2.034Y3.373
X2.033Y3.377
X2.034Y3.380
X2.035Y3.384
X2.038Y3.387
X2.040Y3.389
X2.044Y3.390
X2.047Y3.391
X2.051Y3.390
X2.054Y3.389
X2.063Y3.381
X2.068Y3.378
X2.072Y3.375
X2.076Y3.373
X2.082Y3.371
X2.087Y3.369
X2.093Y3.368
X2.100
X2.403
X2.408
X2.413Y3.369
X2.419Y3.370
X2.424Y3.372
X2.429Y3.375
X2.434Y3.377
X2.438Y3.380
X2.445Y3.385
X2.447Y3.386
X2.449Y3.387
X2.452
X2.454
X2.457
X2.459Y3.386
X2.460Y3.385
X2.463Y3.382
X2.464Y3.379
X2.465Y3.377
X2.466Y3.373
Y3.371
X2.465Y3.368
X2.464Y3.366
X2.458Y3.359
X2.456Y3.355
X2.453Y3.350
X2.450Y3.345
X2.449Y3.340
X2.447Y3.336
X2.446Y3.330
X2.445Y3.323
Y3.010
X2.446Y3.003
X2.447Y2.997
X2.449Y2.991
X2.451Y2.986
X2.454Y2.981
X2.456Y2.977
X2.459Y2.973
X2.466Y2.965
X2.467Y2.962
X2.468Y2.960
Y2.956
Y2.955
X2.467Y2.952
Y2.950
X2.466Y2.949
X2.463Y2.946
X2.460Y2.944
X2.458Y2.943
X2.454
X2.452
X2.449Y2.944
X2.447Y2.945
X2.439Y2.951
X2.435Y2.954
X2.430Y2.957
X2.426Y2.959
X2.420Y2.961
X2.415Y2.963
X2.409Y2.964
X2.403Y2.965
X2.105
Z0.100
G0X2.217Y3.125
Z-0.260
G1Z-0.320F20.0
Y3.208F75.0
X2.285
Y3.125
X2.217
X2.137Y3.045
Y3.288
X2.365
Y3.045
X2.137
X2.105Y2.965
X2.099Y2.964
X2.094
X2.086Y2.962
X2.080Y2.959
X2.075Y2.957
X2.070Y2.954
X2.067Y2.951
X2.058Y2.944
X2.056Y2.943
X2.054Y2.942
X2.050
X2.049
X2.046Y2.943
X2.044Y2.944
X2.042Y2.945
X2.040Y2.947
X2.038Y2.950
X2.037Y2.953
Y2.956
Y2.958
X2.038Y2.961
X2.039Y2.963
X2.047Y2.974
X2.049Y2.978
X2.052Y2.983
X2.054Y2.989
X2.055Y2.993
X2.056Y2.999
X2.057Y3.005
Y3.321
X2.056Y3.326
Y3.333
X2.054Y3.340
X2.051Y3.346
X2.050Y3.350
X2.047Y3.355
X2.043Y3.360
X2.035Y3.370
X2.034Y3.373
X2.033Y3.377
X2.034Y3.380
X2.035Y3.384
X2.038Y3.387
X2.040Y3.389
X2.044Y3.390
X2.047Y3.391
X2.051Y3.390
X2.054Y3.389
X2.063Y3.381
X2.068Y3.378
X2.072Y3.375
X2.076Y3.373
X2.082Y3.371
X2.087Y3.369
X2.093Y3.368
X2.100
X2.403
X2.408
X2.413Y3.369
X2.419Y3.370
X2.424Y3.372
X2.429Y3.375
X2.434Y3.377
X2.438Y3.380
X2.445Y3.385
X2.447Y3.386
X2.449Y3.387
X2.452
X2.454
X2.457
X2.459Y3.386
X2.460Y3.385
X2.463Y3.382
X2.464Y3.379
X2.465Y3.377
X2.466Y3.373
Y3.371
X2.465Y3.368
X2.464Y3.366
X2.458Y3.359
X2.456Y3.355
X2.453Y3.350
X2.450Y3.345
X2.449Y3.340
X2.447Y3.336
X2.446Y3.330
X2.445Y3.323
Y3.010
X2.446Y3.003
X2.447Y2.997
X2.449Y2.991
X2.451Y2.986
X2.454Y2.981
X2.456Y2.977
X2.459Y2.973
X2.466Y2.965
X2.467Y2.962
X2.468Y2.960
Y2.956
Y2.955
X2.467Y2.952
Y2.950
X2.466Y2.949
X2.463Y2.946
X2.460Y2.944
X2.458Y2.943
X2.454
X2.452
X2.449Y2.944
X2.447Y2.945
X2.439Y2.951
X2.435Y2.954
X2.430Y2.957
X2.426Y2.959
X2.420Y2.961
X2.415Y2.963
X2.409Y2.964
X2.403Y2.965
X2.105
Z0.100
G0X2.217Y3.125
Z-0.300
G1Z-0.360F20.0
Y3.208F75.0
X2.285
Y3.125
X2.217
X2.137Y3.045
Y3.288
X2.365
Y3.045
X2.137
X2.105Y2.965
X2.099Y2.964
X2.094
X2.086Y2.962
X2.080Y2.959
X2.075Y2.957
X2.070Y2.954
X2.067Y2.951
X2.058Y2.944
X2.056Y2.943
X2.054Y2.942
X2.050
X2.049
X2.046Y2.943
X2.044Y2.944
X2.042Y2.945
X2.040Y2.947
X2.038Y2.950
X2.037Y2.953
Y2.956
Y2.958
X2.038Y2.961
X2.039Y2.963
X2.047Y2.974
X2.049Y2.978
X2.052Y2.983
X2.054Y2.989
X2.055Y2.993
X2.056Y2.999
X2.057Y3.005
Y3.321
X2.056Y3.326
Y3.333
X2.054Y3.340
X2.051Y3.346
X2.050Y3.350
X2.047Y3.355
X2.043Y3.360
X2.035Y3.370
X2.034Y3.373
X2.033Y3.377
X2.034Y3.380
X2.035Y3.384
X2.038Y3.387
X2.040Y3.389
X2.044Y3.390
X2.047Y3.391
X2.051Y3.390
X2.054Y3.389
X2.063Y3.381
X2.068Y3.378
X2.072Y3.375
X2.076Y3.373
X2.082Y3.371
X2.087Y3.369
X2.093Y3.368
X2.100
X2.403
X2.408
X2.413Y3.369
X2.419Y3.370
X2.424Y3.372
X2.429Y3.375
X2.434Y3.377
X2.438Y3.380
X2.445Y3.385
X2.447Y3.386
X2.449Y3.387
X2.452
X2.454
X2.457
X2.459Y3.386
X2.460Y3.385
X2.463Y3.382
X2.464Y3.379
X2.465Y3.377
X2.466Y3.373
Y3.371
X2.465Y3.368
X2.464Y3.366
X2.458Y3.359
X2.456Y3.355
X2.453Y3.350
X2.450Y3.345
X2.449Y3.340
X2.447Y3.336
X2.446Y3.330
X2.445Y3.323
Y3.010
X2.446Y3.003
X2.447Y2.997
X2.449Y2.991
X2.451Y2.986
X2.454Y2.981
X2.456Y2.977
X2.459Y2.973
X2.466Y2.965
X2.467Y2.962
X2.468Y2.960
Y2.956
Y2.955
X2.467Y2.952
Y2.950
X2.466Y2.949
X2.463Y2.946
X2.460Y2.944
X2.458Y2.943
X2.454
X2.452
X2.449Y2.944
X2.447Y2.945
X2.439Y2.951
X2.435Y2.954
X2.430Y2.957
X2.426Y2.959
X2.420Y2.961
X2.415Y2.963
X2.409Y2.964
X2.403Y2.965
X2.105
Z0.100
G0X2.217Y3.125
Z-0.315
G1Z-0.375F20.0
Y3.208F75.0
X2.285
Y3.125
X2.217
X2.137Y3.045
Y3.288
X2.365
Y3.045
X2.137
X2.105Y2.965
X2.099Y2.964
X2.094
X2.086Y2.962
X2.080Y2.959
X2.075Y2.957
X2.070Y2.954
X2.067Y2.951
X2.058Y2.944
X2.056Y2.943
X2.054Y2.942
X2.050
X2.049
X2.046Y2.943
X2.044Y2.944
X2.042Y2.945
X2.040Y2.947
X2.038Y2.950
X2.037Y2.953
Y2.956
Y2.958
X2.038Y2.961
X2.039Y2.963
X2.047Y2.974
X2.049Y2.978
X2.052Y2.983
X2.054Y2.989
X2.055Y2.993
X2.056Y2.999
X2.057Y3.005
Y3.321
X2.056Y3.326
Y3.333
X2.054Y3.340
X2.051Y3.346
X2.050Y3.350
X2.047Y3.355
X2.043Y3.360
X2.035Y3.370
X2.034Y3.373
X2.033Y3.377
X2.034Y3.380
X2.035Y3.384
X2.038Y3.387
X2.040Y3.389
X2.044Y3.390
X2.047Y3.391
X2.051Y3.390
X2.054Y3.389
X2.063Y3.381
X2.068Y3.378
X2.072Y3.375
X2.076Y3.373
X2.082Y3.371
X2.087Y3.369
X2.093Y3.368
X2.100
X2.403
X2.408
X2.413Y3.369
X2.419Y3.370
X2.424Y3.372
X2.429Y3.375
X2.434Y3.377
X2.438Y3.380
X2.445Y3.385
X2.447Y3.386
X2.449Y3.387
X2.452
X2.454
X2.457
X2.459Y3.386
X2.460Y3.385
X2.463Y3.382
X2.464Y3.379
X2.465Y3.377
X2.466Y3.373
Y3.371
X2.465Y3.368
X2.464Y3.366
X2.458Y3.359
X2.456Y3.355
X2.453Y3.350
X2.450Y3.345
X2.449Y3.340
X2.447Y3.336
X2.446Y3.330
X2.445Y3.323
Y3.010
X2.446Y3.003
X2.447Y2.997
X2.449Y2.991
X2.451Y2.986
X2.454Y2.981
X2.456Y2.977
X2.459Y2.973
X2.466Y2.965
X2.467Y2.962
X2.468Y2.960
Y2.956
Y2.955
X2.467Y2.952
Y2.950
X2.466Y2.949
X2.463Y2.946
X2.460Y2.944
X2.458Y2.943
X2.454
X2.452
X2.449Y2.944
X2.447Y2.945
X2.439Y2.951
X2.435Y2.954
X2.430Y2.957
X2.426Y2.959
X2.420Y2.961
X2.415Y2.963
X2.409Y2.964
X2.403Y2.965
X2.105
Z0.100
G0X1.429Y3.125
G1Z-0.040F20.0
Y3.208F75.0
X1.498
Y3.125
X1.429
X1.349Y3.045
Y3.288
X1.578
Y3.045
X1.349
X1.318Y2.965
X1.312Y2.964
X1.306
X1.301Y2.962
X1.293Y2.960
X1.288Y2.957
X1.283Y2.954
X1.279Y2.951
X1.271Y2.944
X1.269Y2.943
X1.266Y2.942
X1.263
X1.261
X1.259Y2.943
X1.257Y2.944
X1.255Y2.945
X1.252Y2.947
X1.251Y2.950
X1.250Y2.953
X1.249Y2.956
Y2.958
X1.250Y2.961
X1.251Y2.963
X1.259Y2.974
X1.262Y2.978
X1.264Y2.983
X1.266Y2.989
X1.267Y2.993
X1.269Y2.999
Y3.005
Y3.321
Y3.326
X1.268Y3.333
X1.266Y3.340
X1.264Y3.346
X1.262Y3.350
X1.260Y3.355
X1.256Y3.360
X1.248Y3.370
X1.246Y3.373
Y3.377
Y3.380
X1.248Y3.384
X1.250Y3.387
X1.253Y3.389
X1.257Y3.390
X1.260Y3.391
X1.264Y3.390
X1.267Y3.389
X1.276Y3.381
X1.281Y3.378
X1.285Y3.375
X1.289Y3.373
X1.295Y3.371
X1.300Y3.369
X1.306Y3.368
X1.312
X1.616
X1.621
X1.626Y3.369
X1.631Y3.370
X1.637Y3.372
X1.642Y3.375
X1.646Y3.377
X1.650Y3.380
X1.657Y3.385
X1.659Y3.386
X1.662Y3.387
X1.665
X1.667
X1.669
X1.671Y3.386
X1.673Y3.385
X1.675Y3.382
X1.677Y3.379
X1.678Y3.377
X1.679Y3.373
X1.678Y3.371
Y3.368
X1.676Y3.366
X1.671Y3.359
X1.668Y3.355
X1.666Y3.350
X1.663Y3.345
X1.661Y3.340
X1.660Y3.336
X1.659Y3.330
X1.658Y3.323
Y3.010
X1.659Y3.003
X1.660Y2.997
X1.662Y2.991
X1.663Y2.986
X1.666Y2.981
X1.669Y2.977
X1.671Y2.973
X1.678Y2.965
X1.680Y2.962
Y2.960
X1.681Y2.957
Y2.955
X1.680Y2.952
X1.679Y2.950
X1.678Y2.949
X1.676Y2.946
X1.673Y2.944
X1.670Y2.943
X1.667
X1.664
X1.662Y2.944
X1.659Y2.945
X1.652Y2.951
X1.648Y2.954
X1.643Y2.957
X1.639Y2.959
X1.633Y2.961
X1.628Y2.963
X1.622Y2.964
X1.616Y2.965
X1.318
Z0.100
G0X1.429Y3.125
Z-0.020
G1Z-0.080F20.0
Y3.208F75.0
X1.498
Y3.125
X1.429
X1.349Y3.045
Y3.288
X1.578
Y3.045
X1.349
X1.318Y2.965
X1.312Y2.964
X1.306
X1.301Y2.962
X1.293Y2.960
X1.288Y2.957
X1.283Y2.954
X1.279Y2.951
X1.271Y2.944
X1.269Y2.943
X1.266Y2.942
X1.263
X1.261
X1.259Y2.943
X1.257Y2.944
X1.255Y2.945
X1.252Y2.947
X1.251Y2.950
X1.250Y2.953
X1.249Y2.956
Y2.958
X1.250Y2.961
X1.251Y2.963
X1.259Y2.974
X1.262Y2.978
X1.264Y2.983
X1.266Y2.989
X1.267Y2.993
X1.269Y2.999
Y3.005
Y3.321
Y3.326
X1.268Y3.333
X1.266Y3.340
X1.264Y3.346
X1.262Y3.350
X1.260Y3.355
X1.256Y3.360
X1.248Y3.370
X1.246Y3.373
Y3.377
Y3.380
X1.248Y3.384
X1.250Y3.387
X1.253Y3.389
X1.257Y3.390
X1.260Y3.391
X1.264Y3.390
X1.267Y3.389
X1.276Y3.381
X1.281Y3.378
X1.285Y3.375
X1.289Y3.373
X1.295Y3.371
X1.300Y3.369
X1.306Y3.368
X1.312
X1.616
X1.621
X1.626Y3.369
X1.631Y3.370
X1.637Y3.372
X1.642Y3.375
X1.646Y3.377
X1.650Y3.380
X1.657Y3.385
X1.659Y3.386
X1.662Y3.387
X1.665
X1.667
X1.669
X1.671Y3.386
X1.673Y3.385
X1.675Y3.382
X1.677Y3.379
X1.678Y3.377
X1.679Y3.373
X1.678Y3.371
Y3.368
X1.676Y3.366
X1.671Y3.359
X1.668Y3.355
X1.666Y3.350
X1.663Y3.345
X1.661Y3.340
X1.660Y3.336
X1.659Y3.330
X1.658Y3.323
Y3.010
X1.659Y3.003
X1.660Y2.997
X1.662Y2.991
X1.663Y2.986
X1.666Y2.981
X1.669Y2.977
X1.671Y2.973
X1.678Y2.965
X1.680Y2.962
Y2.960
X1.681Y2.957
Y2.955
X1.680Y2.952
X1.679Y2.950
X1.678Y2.949
X1.676Y2.946
X1.673Y2.944
X1.670Y2.943
X1.667
X1.664
X1.662Y2.944
X1.659Y2.945
X1.652Y2.951
X1.648Y2.954
X1.643Y2.957
X1.639Y2.959
X1.633Y2.961
X1.628Y2.963
X1.622Y2.964
X1.616Y2.965
X1.318
Z0.100
G0X1.429Y3.125
Z-0.060
G1Z-0.120F20.0
Y3.208F75.0
X1.498
Y3.125
X1.429
X1.349Y3.045
Y3.288
X1.578
Y3.045
X1.349
X1.318Y2.965
X1.312Y2.964
X1.306
X1.301Y2.962
X1.293Y2.960
X1.288Y2.957
X1.283Y2.954
X1.279Y2.951
X1.271Y2.944
X1.269Y2.943
X1.266Y2.942
X1.263
X1.261
X1.259Y2.943
X1.257Y2.944
X1.255Y2.945
X1.252Y2.947
X1.251Y2.950
X1.250Y2.953
X1.249Y2.956
Y2.958
X1.250Y2.961
X1.251Y2.963
X1.259Y2.974
X1.262Y2.978
X1.264Y2.983
X1.266Y2.989
X1.267Y2.993
X1.269Y2.999
Y3.005
Y3.321
Y3.326
X1.268Y3.333
X1.266Y3.340
X1.264Y3.346
X1.262Y3.350
X1.260Y3.355
X1.256Y3.360
X1.248Y3.370
X1.246Y3.373
Y3.377
Y3.380
X1.248Y3.384
X1.250Y3.387
X1.253Y3.389
X1.257Y3.390
X1.260Y3.391
X1.264Y3.390
X1.267Y3.389
X1.276Y3.381
X1.281Y3.378
X1.285Y3.375
X1.289Y3.373
X1.295Y3.371
X1.300Y3.369
X1.306Y3.368
X1.312
X1.616
X1.621
X1.626Y3.369
X1.631Y3.370
X1.637Y3.372
X1.642Y3.375
X1.646Y3.377
X1.650Y3.380
X1.657Y3.385
X1.659Y3.386
X1.662Y3.387
X1.665
X1.667
X1.669
X1.671Y3.386
X1.673Y3.385
X1.675Y3.382
X1.677Y3.379
X1.678Y3.377
X1.679Y3.373
X1.678Y3.371
Y3.368
X1.676Y3.366
X1.671Y3.359
X1.668Y3.355
X1.666Y3.350
X1.663Y3.345
X1.661Y3.340
X1.660Y3.336
X1.659Y3.330
X1.658Y3.323
Y3.010
X1.659Y3.003
X1.660Y2.997
X1.662Y2.991
X1.663Y2.986
X1.666Y2.981
X1.669Y2.977
X1.671Y2.973
X1.678Y2.965
X1.680Y2.962
Y2.960
X1.681Y2.957
Y2.955
X1.680Y2.952
X1.679Y2.950
X1.678Y2.949
X1.676Y2.946
X1.673Y2.944
X1.670Y2.943
X1.667
X1.664
X1.662Y2.944
X1.659Y2.945
X1.652Y2.951
X1.648Y2.954
X1.643Y2.957
X1.639Y2.959
X1.633Y2.961
X1.628Y2.963
X1.622Y2.964
X1.616Y2.965
X1.318
Z0.100
G0X1.429Y3.125
Z-0.100
G1Z-0.160F20.0
Y3.208F75.0
X1.498
Y3.125
X1.429
X1.349Y3.045
Y3.288
X1.578
Y3.045
X1.349
X1.318Y2.965
X1.312Y2.964
X1.306
X1.301Y2.962
X1.293Y2.960
X1.288Y2.957
X1.283Y2.954
X1.279Y2.951
X1.271Y2.944
X1.269Y2.943
X1.266Y2.942
X1.263
X1.261
X1.259Y2.943
X1.257Y2.944
X1.255Y2.945
X1.252Y2.947
X1.251Y2.950
X1.250Y2.953
X1.249Y2.956
Y2.958
X1.250Y2.961
X1.251Y2.963
X1.259Y2.974
X1.262Y2.978
X1.264Y2.983
X1.266Y2.989
X1.267Y2.993
X1.269Y2.999
Y3.005
Y3.321
Y3.326
X1.268Y3.333
X1.266Y3.340
X1.264Y3.346
X1.262Y3.350
X1.260Y3.355
X1.256Y3.360
X1.248Y3.370
X1.246Y3.373
Y3.377
Y3.380
X1.248Y3.384
X1.250Y3.387
X1.253Y3.389
X1.257Y3.390
X1.260Y3.391
X1.264Y3.390
X1.267Y3.389
X1.276Y3.381
X1.281Y3.378
X1.285Y3.375
X1.289Y3.373
X1.295Y3.371
X1.300Y3.369
X1.306Y3.368
X1.312
X1.616
X1.621
X1.626Y3.369
X1.631Y3.370
X1.637Y3.372
X1.642Y3.375
X1.646Y3.377
X1.650Y3.380
X1.657Y3.385
X1.659Y3.386
X1.662Y3.387
X1.665
X1.667
X1.669
X1.671Y3.386
X1.673Y3.385
X1.675Y3.382
X1.677Y3.379
X1.678Y3.377
X1.679Y3.373
X1.678Y3.371
Y3.368
X1.676Y3.366
X1.671Y3.359
X1.668Y3.355
X1.666Y3.350
X1.663Y3.345
X1.661Y3.340
X1.660Y3.336
X1.659Y3.330
X1.658Y3.323
Y3.010
X1.659Y3.003
X1.660Y2.997
X1.662Y2.991
X1.663Y2.986
X1.666Y2.981
X1.669Y2.977
X1.671Y2.973
X1.678Y2.965
X1.680Y2.962
Y2.960
X1.681Y2.957
Y2.955
X1.680Y2.952
X1.679Y2.950
X1.678Y2.949
X1.676Y2.946
X1.673Y2.944
X1.670Y2.943
X1.667
X1.664
X1.662Y2.944
X1.659Y2.945
X1.652Y2.951
X1.648Y2.954
X1.643Y2.957
X1.639Y2.959
X1.633Y2.961
X1.628Y2.963
X1.622Y2.964
X1.616Y2.965
X1.318
Z0.100
G0X1.429Y3.125
Z-0.140
G1Z-0.200F20.0
Y3.208F75.0
X1.498
Y3.125
X1.429
X1.349Y3.045
Y3.288
X1.578
Y3.045
X1.349
X1.318Y2.965
X1.312Y2.964
X1.306
X1.301Y2.962
X1.293Y2.960
X1.288Y2.957
X1.283Y2.954
X1.279Y2.951
X1.271Y2.944
X1.269Y2.943
X1.266Y2.942
X1.263
X1.261
X1.259Y2.943
X1.257Y2.944
X1.255Y2.945
X1.252Y2.947
X1.251Y2.950
X1.250Y2.953
X1.249Y2.956
Y2.958
X1.250Y2.961
X1.251Y2.963
X1.259Y2.974
X1.262Y2.978
X1.264Y2.983
X1.266Y2.989
X1.267Y2.993
X1.269Y2.999
Y3.005
Y3.321
Y3.326
X1.268Y3.333
X1.266Y3.340
X1.264Y3.346
X1.262Y3.350
X1.260Y3.355
X1.256Y3.360
X1.248Y3.370
X1.246Y3.373
Y3.377
Y3.380
X1.248Y3.384
X1.250Y3.387
X1.253Y3.389
X1.257Y3.390
X1.260Y3.391
X1.264Y3.390
X1.267Y3.389
X1.276Y3.381
X1.281Y3.378
X1.285Y3.375
X1.289Y3.373
X1.295Y3.371
X1.300Y3.369
X1.306Y3.368
X1.312
X1.616
X1.621
X1.626Y3.369
X1.631Y3.370
X1.637Y3.372
X1.642Y3.375
X1.646Y3.377
X1.650Y3.380
X1.657Y3.385
X1.659Y3.386
X1.662Y3.387
X1.665
X1.667
X1.669
X1.671Y3.386
X1.673Y3.385
X1.675Y3.382
X1.677Y3.379
X1.678Y3.377
X1.679Y3.373
X1.678Y3.371
Y3.368
X1.676Y3.366
X1.671Y3.359
X1.668Y3.355
X1.666Y3.350
X1.663Y3.345
X1.661Y3.340
X1.660Y3.336
X1.659Y3.330
X1.658Y3.323
Y3.010
X1.659Y3.003
X1.660Y2.997
X1.662Y2.991
X1.663Y2.986
X1.666Y2.981
X1.669Y2.977
X1.671Y2.973
X1.678Y2.965
X1.680Y2.962
Y2.960
X1.681Y2.957
Y2.955
X1.680Y2.952
X1.679Y2.950
X1.678Y2.949
X1.676Y2.946
X1.673Y2.944
X1.670Y2.943
X1.667
X1.664
X1.662Y2.944
X1.659Y2.945
X1.652Y2.951
X1.648Y2.954
X1.643Y2.957
X1.639Y2.959
X1.633Y2.961
X1.628Y2.963
X1.622Y2.964
X1.616Y2.965
X1.318
Z0.100
G0X1.429Y3.125
Z-0.180
G1Z-0.240F20.0
Y3.208F75.0
X1.498
Y3.125
X1.429
X1.349Y3.045
Y3.288
X1.578
Y3.045
X1.349
X1.318Y2.965
X1.312Y2.964
X1.306
X1.301Y2.962
X1.293Y2.960
X1.288Y2.957
X1.283Y2.954
X1.279Y2.951
X1.271Y2.944
X1.269Y2.943
X1.266Y2.942
X1.263
X1.261
X1.259Y2.943
X1.257Y2.944
X1.255Y2.945
X1.252Y2.947
X1.251Y2.950
X1.250Y2.953
X1.249Y2.956
Y2.958
X1.250Y2.961
X1.251Y2.963
X1.259Y2.974
X1.262Y2.978
X1.264Y2.983
X1.266Y2.989
X1.267Y2.993
X1.269Y2.999
Y3.005
Y3.321
Y3.326
X1.268Y3.333
X1.266Y3.340
X1.264Y3.346
X1.262Y3.350
X1.260Y3.355
X1.256Y3.360
X1.248Y3.370
X1.246Y3.373
Y3.377
Y3.380
X1.248Y3.384
X1.250Y3.387
X1.253Y3.389
X1.257Y3.390
X1.260Y3.391
X1.264Y3.390
X1.267Y3.389
X1.276Y3.381
X1.281Y3.378
X1.285Y3.375
X1.289Y3.373
X1.295Y3.371
X1.300Y3.369
X1.306Y3.368
X1.312
X1.616
X1.621
X1.626Y3.369
X1.631Y3.370
X1.637Y3.372
X1.642Y3.375
X1.646Y3.377
X1.650Y3.380
X1.657Y3.385
X1.659Y3.386
X1.662Y3.387
X1.665
X1.667
X1.669
X1.671Y3.386
X1.673Y3.385
X1.675Y3.382
X1.677Y3.379
X1.678Y3.377
X1.679Y3.373
X1.678Y3.371
Y3.368
X1.676Y3.366
X1.671Y3.359
X1.668Y3.355
X1.666Y3.350
X1.663Y3.345
X1.661Y3.340
X1.660Y3.336
X1.659Y3.330
X1.658Y3.323
Y3.010
X1.659Y3.003
X1.660Y2.997
X1.662Y2.991
X1.663Y2.986
X1.666Y2.981
X1.669Y2.977
X1.671Y2.973
X1.678Y2.965
X1.680Y2.962
Y2.960
X1.681Y2.957
Y2.955
X1.680Y2.952
X1.679Y2.950
X1.678Y2.949
X1.676Y2.946
X1.673Y2.944
X1.670Y2.943
X1.667
X1.664
X1.662Y2.944
X1.659Y2.945
X1.652Y2.951
X1.648Y2.954
X1.643Y2.957
X1.639Y2.959
X1.633Y2.961
X1.628Y2.963
X1.622Y2.964
X1.616Y2.965
X1.318
Z0.100
G0X1.429Y3.125
Z-0.220
G1Z-0.280F20.0
Y3.208F75.0
X1.498
Y3.125
X1.429
X1.349Y3.045
Y3.288
X1.578
Y3.045
X1.349
X1.318Y2.965
X1.312Y2.964
X1.306
X1.301Y2.962
X1.293Y2.960
X1.288Y2.957
X1.283Y2.954
X1.279Y2.951
X1.271Y2.944
X1.269Y2.943
X1.266Y2.942
X1.263
X1.261
X1.259Y2.943
X1.257Y2.944
X1.255Y2.945
X1.252Y2.947
X1.251Y2.950
X1.250Y2.953
X1.249Y2.956
Y2.958
X1.250Y2.961
X1.251Y2.963
X1.259Y2.974
X1.262Y2.978
X1.264Y2.983
X1.266Y2.989
X1.267Y2.993
X1.269Y2.999
Y3.005
Y3.321
Y3.326
X1.268Y3.333
X1.266Y3.340
X1.264Y3.346
X1.262Y3.350
X1.260Y3.355
X1.256Y3.360
X1.248Y3.370
X1.246Y3.373
Y3.377
Y3.380
X1.248Y3.384
X1.250Y3.387
X1.253Y3.389
X1.257Y3.390
X1.260Y3.391
X1.264Y3.390
X1.267Y3.389
X1.276Y3.381
X1.281Y3.378
X1.285Y3.375
X1.289Y3.373
X1.295Y3.371
X1.300Y3.369
X1.306Y3.368
X1.312
X1.616
X1.621
X1.626Y3.369
X1.631Y3.370
X1.637Y3.372
X1.642Y3.375
X1.646Y3.377
X1.650Y3.380
X1.657Y3.385
X1.659Y3.386
X1.662Y3.387
X1.665
X1.667
X1.669
X1.671Y3.386
X1.673Y3.385
X1.675Y3.382
X1.677Y3.379
X1.678Y3.377
X1.679Y3.373
X1.678Y3.371
Y3.368
X1.676Y3.366
X1.671Y3.359
X1.668Y3.355
X1.666Y3.350
X1.663Y3.345
X1.661Y3.340
X1.660Y3.336
X1.659Y3.330
X1.658Y3.323
Y3.010
X1.659Y3.003
X1.660Y2.997
X1.662Y2.991
X1.663Y2.986
X1.666Y2.981
X1.669Y2.977
X1.671Y2.973
X1.678Y2.965
X1.680Y2.962
Y2.960
X1.681Y2.957
Y2.955
X1.680Y2.952
X1.679Y2.950
X1.678Y2.949
X1.676Y2.946
X1.673Y2.944
X1.670Y2.943
X1.667
X1.664
X1.662Y2.944
X1.659Y2.945
X1.652Y2.951
X1.648Y2.954
X1.643Y2.957
X1.639Y2.959
X1.633Y2.961
X1.628Y2.963
X1.622Y2.964
X1.616Y2.965
X1.318
Z0.100
G0X1.429Y3.125
Z-0.260
G1Z-0.320F20.0
Y3.208F75.0
X1.498
Y3.125
X1.429
X1.349Y3.045
Y3.288
X1.578
Y3.045
X1.349
X1.318Y2.965
X1.312Y2.964
X1.306
X1.301Y2.962
X1.293Y2.960
X1.288Y2.957
X1.283Y2.954
X1.279Y2.951
X1.271Y2.944
X1.269Y2.943
X1.266Y2.942
X1.263
X1.261
X1.259Y2.943
X1.257Y2.944
X1.255Y2.945
X1.252Y2.947
X1.251Y2.950
X1.250Y2.953
X1.249Y2.956
Y2.958
X1.250Y2.961
X1.251Y2.963
X1.259Y2.974
X1.262Y2.978
X1.264Y2.983
X1.266Y2.989
X1.267Y2.993
X1.269Y2.999
Y3.005
Y3.321
Y3.326
X1.268Y3.333
X1.266Y3.340
X1.264Y3.346
X1.262Y3.350
X1.260Y3.355
X1.256Y3.360
X1.248Y3.370
X1.246Y3.373
Y3.377
Y3.380
X1.248Y3.384
X1.250Y3.387
X1.253Y3.389
X1.257Y3.390
X1.260Y3.391
X1.264Y3.390
X1.267Y3.389
X1.276Y3.381
X1.281Y3.378
X1.285Y3.375
X1.289Y3.373
X1.295Y3.371
X1.300Y3.369
X1.306Y3.368
X1.312
X1.616
X1.621
X1.626Y3.369
X1.631Y3.370
X1.637Y3.372
X1.642Y3.375
X1.646Y3.377
X1.650Y3.380
X1.657Y3.385
X1.659Y3.386
X1.662Y3.387
X1.665
X1.667
X1.669
X1.671Y3.386
X1.673Y3.385
X1.675Y3.382
X1.677Y3.379
X1.678Y3.377
X1.679Y3.373
X1.678Y3.371
Y3.368
X1.676Y3.366
X1.671Y3.359
X1.668Y3.355
X1.666Y3.350
X1.663Y3.345
X1.661Y3.340
X1.660Y3.336
X1.659Y3.330
X1.658Y3.323
Y3.010
X1.659Y3.003
X1.660Y2.997
X1.662Y2.991
X1.663Y2.986
X1.666Y2.981
X1.669Y2.977
X1.671Y2.973
X1.678Y2.965
X1.680Y2.962
Y2.960
X1.681Y2.957
Y2.955
X1.680Y2.952
X1.679Y2.950
X1.678Y2.949
X1.676Y2.946
X1.673Y2.944
X1.670Y2.943
X1.667
X1.664
X1.662Y2.944
X1.659Y2.945
X1.652Y2.951
X1.648Y2.954
X1.643Y2.957
X1.639Y2.959
X1.633Y2.961
X1.628Y2.963
X1.622Y2.964
X1.616Y2.965
X1.318
Z0.100
G0X1.429Y3.125
Z-0.300
G1Z-0.360F20.0
Y3.208F75.0
X1.498
Y3.125
X1.429
X1.349Y3.045
Y3.288
X1.578
Y3.045
X1.349
X1.318Y2.965
X1.312Y2.964
X1.306
X1.301Y2.962
X1.293Y2.960
X1.288Y2.957
X1.283Y2.954
X1.279Y2.951
X1.271Y2.944
X1.269Y2.943
X1.266Y2.942
X1.263
X1.261
X1.259Y2.943
X1.257Y2.944
X1.255Y2.945
X1.252Y2.947
X1.251Y2.950
X1.250Y2.953
X1.249Y2.956
Y2.958
X1.250Y2.961
X1.251Y2.963
X1.259Y2.974
X1.262Y2.978
X1.264Y2.983
X1.266Y2.989
X1.267Y2.993
X1.269Y2.999
Y3.005
Y3.321
Y3.326
X1.268Y3.333
X1.266Y3.340
X1.264Y3.346
X1.262Y3.350
X1.260Y3.355
X1.256Y3.360
X1.248Y3.370
X1.246Y3.373
Y3.377
Y3.380
X1.248Y3.384
X1.250Y3.387
X1.253Y3.389
X1.257Y3.390
X1.260Y3.391
X1.264Y3.390
X1.267Y3.389
X1.276Y3.381
X1.281Y3.378
X1.285Y3.375
X1.289Y3.373
X1.295Y3.371
X1.300Y3.369
X1.306Y3.368
X1.312
X1.616
X1.621
X1.626Y3.369
X1.631Y3.370
X1.637Y3.372
X1.642Y3.375
X1.646Y3.377
X1.650Y3.380
X1.657Y3.385
X1.659Y3.386
X1.662Y3.387
X1.665
X1.667
X1.669
X1.671Y3.386
X1.673Y3.385
X1.675Y3.382
X1.677Y3.379
X1.678Y3.377
X1.679Y3.373
X1.678Y3.371
Y3.368
X1.676Y3.366
X1.671Y3.359
X1.668Y3.355
X1.666Y3.350
X1.663Y3.345
X1.661Y3.340
X1.660Y3.336
X1.659Y3.330
X1.658Y3.323
Y3.010
X1.659Y3.003
X1.660Y2.997
X1.662Y2.991
X1.663Y2.986
X1.666Y2.981
X1.669Y2.977
X1.671Y2.973
X1.678Y2.965
X1.680Y2.962
Y2.960
X1.681Y2.957
Y2.955
X1.680Y2.952
X1.679Y2.950
X1.678Y2.949
X1.676Y2.946
X1.673Y2.944
X1.670Y2.943
X1.667
X1.664
X1.662Y2.944
X1.659Y2.945
X1.652Y2.951
X1.648Y2.954
X1.643Y2.957
X1.639Y2.959
X1.633Y2.961
X1.628Y2.963
X1.622Y2.964
X1.616Y2.965
X1.318
Z0.100
G0X1.429Y3.125
Z-0.315
G1Z-0.375F20.0
Y3.208F75.0
X1.498
Y3.125
X1.429
X1.349Y3.045
Y3.288
X1.578
Y3.045
X1.349
X1.318Y2.965
X1.312Y2.964
X1.306
X1.301Y2.962
X1.293Y2.960
X1.288Y2.957
X1.283Y2.954
X1.279Y2.951
X1.271Y2.944
X1.269Y2.943
X1.266Y2.942
X1.263
X1.261
X1.259Y2.943
X1.257Y2.944
X1.255Y2.945
X1.252Y2.947
X1.251Y2.950
X1.250Y2.953
X1.249Y2.956
Y2.958
X1.250Y2.961
X1.251Y2.963
X1.259Y2.974
X1.262Y2.978
X1.264Y2.983
X1.266Y2.989
X1.267Y2.993
X1.269Y2.999
Y3.005
Y3.321
Y3.326
X1.268Y3.333
X1.266Y3.340
X1.264Y3.346
X1.262Y3.350
X1.260Y3.355
X1.256Y3.360
X1.248Y3.370
X1.246Y3.373
Y3.377
Y3.380
X1.248Y3.384
X1.250Y3.387
X1.253Y3.389
X1.257Y3.390
X1.260Y3.391
X1.264Y3.390
X1.267Y3.389
X1.276Y3.381
X1.281Y3.378
X1.285Y3.375
X1.289Y3.373
X1.295Y3.371
X1.300Y3.369
X1.306Y3.368
X1.312
X1.616
X1.621
X1.626Y3.369
X1.631Y3.370
X1.637Y3.372
X1.642Y3.375
X1.646Y3.377
X1.650Y3.380
X1.657Y3.385
X1.659Y3.386
X1.662Y3.387
X1.665
X1.667
X1.669
X1.671Y3.386
X1.673Y3.385
X1.675Y3.382
X1.677Y3.379
X1.678Y3.377
X1.679Y3.373
X1.678Y3.371
Y3.368
X1.676Y3.366
X1.671Y3.359
X1.668Y3.355
X1.666Y3.350
X1.663Y3.345
X1.661Y3.340
X1.660Y3.336
X1.659Y3.330
X1.658Y3.323
Y3.010
X1.659Y3.003
X1.660Y2.997
X1.662Y2.991
X1.663Y2.986
X1.666Y2.981
X1.669Y2.977
X1.671Y2.973
X1.678Y2.965
X1.680Y2.962
Y2.960
X1.681Y2.957
Y2.955
X1.680Y2.952
X1.679Y2.950
X1.678Y2.949
X1.676Y2.946
X1.673Y2.944
X1.670Y2.943
X1.667
X1.664
X1.662Y2.944
X1.659Y2.945
X1.652Y2.951
X1.648Y2.954
X1.643Y2.957
X1.639Y2.959
X1.633Y2.961
X1.628Y2.963
X1.622Y2.964
X1.616Y2.965
X1.318
Z0.100
G0X0.642Y3.125
G1Z-0.040F20.0
Y3.208F75.0
X0.711
Y3.125
X0.642
X0.562Y3.045
Y3.288
X0.791
Y3.045
X0.562
X0.527Y2.965
X0.521Y2.964
X0.515Y2.963
X0.509Y2.961
X0.505Y2.959
X0.499Y2.956
X0.494Y2.953
X0.491Y2.951
X0.484Y2.944
X0.481Y2.943
X0.479Y2.942
X0.476
X0.474
X0.471Y2.943
X0.469Y2.944
X0.468Y2.945
X0.465Y2.947
X0.463Y2.950
X0.462Y2.953
Y2.956
Y2.958
X0.463Y2.961
X0.464Y2.963
X0.470Y2.972
X0.473Y2.975
X0.474Y2.978
X0.477Y2.983
X0.479Y2.989
X0.480Y2.993
X0.481Y2.999
X0.482Y3.005
Y3.321
Y3.327
X0.481Y3.333
X0.479Y3.340
X0.477Y3.346
X0.474Y3.352
X0.471Y3.355
X0.468Y3.360
X0.461Y3.369
X0.459Y3.371
X0.458Y3.374
Y3.377
Y3.379
X0.459Y3.381
X0.460Y3.384
X0.461Y3.385
X0.463Y3.388
X0.466Y3.389
X0.469Y3.390
X0.472Y3.391
X0.475
X0.477Y3.390
X0.480Y3.388
X0.488Y3.382
X0.491Y3.379
X0.496Y3.376
X0.502Y3.373
X0.508Y3.371
X0.512Y3.369
X0.518Y3.368
X0.525
X0.829
X0.833
X0.838Y3.369
X0.844Y3.370
X0.849Y3.372
X0.854Y3.375
X0.859Y3.377
X0.863Y3.380
X0.870Y3.385
X0.872Y3.386
X0.874Y3.387
X0.877
X0.880
X0.882
X0.884Y3.386
X0.885Y3.385
X0.888Y3.382
X0.890Y3.379
X0.891Y3.376
Y3.373
Y3.371
X0.890Y3.368
X0.889Y3.366
X0.883Y3.359
X0.881Y3.355
X0.878Y3.350
X0.876Y3.345
X0.874Y3.340
X0.872Y3.336
X0.871Y3.330
Y3.323
Y3.010
Y3.003
X0.873Y2.996
X0.874Y2.992
X0.876Y2.987
X0.878Y2.981
X0.880Y2.978
X0.884Y2.974
X0.891Y2.964
X0.893Y2.960
Y2.957
Y2.953
X0.891Y2.950
X0.889Y2.947
X0.886Y2.945
X0.882Y2.943
X0.879
X0.876Y2.944
X0.872Y2.945
X0.863Y2.952
X0.860Y2.955
X0.855Y2.957
X0.850Y2.960
X0.844Y2.962
X0.837Y2.964
X0.831
X0.826Y2.965
X0.527
Z0.100
G0X0.642Y3.125
Z-0.020
G1Z-0.080F20.0
Y3.208F75.0
X0.711
Y3.125
X0.642
X0.562Y3.045
Y3.288
X0.791
Y3.045
X0.562
X0.527Y2.965
X0.521Y2.964
X0.515Y2.963
X0.509Y2.961
X0.505Y2.959
X0.499Y2.956
X0.494Y2.953
X0.491Y2.951
X0.484Y2.944
X0.481Y2.943
X0.479Y2.942
X0.476
X0.474
X0.471Y2.943
X0.469Y2.944
X0.468Y2.945
X0.465Y2.947
X0.463Y2.950
X0.462Y2.953
Y2.956
Y2.958
X0.463Y2.961
X0.464Y2.963
X0.470Y2.972
X0.473Y2.975
X0.474Y2.978
X0.477Y2.983
X0.479Y2.989
X0.480Y2.993
X0.481Y2.999
X0.482Y3.005
Y3.321
Y3.327
X0.481Y3.333
X0.479Y3.340
X0.477Y3.346
X0.474Y3.352
X0.471Y3.355
X0.468Y3.360
X0.461Y3.369
X0.459Y3.371
X0.458Y3.374
Y3.377
Y3.379
X0.459Y3.381
X0.460Y3.384
X0.461Y3.385
X0.463Y3.388
X0.466Y3.389
X0.469Y3.390
X0.472Y3.391
X0.475
X0.477Y3.390
X0.480Y3.388
X0.488Y3.382
X0.491Y3.379
X0.496Y3.376
X0.502Y3.373
X0.508Y3.371
X0.512Y3.369
X0.518Y3.368
X0.525
X0.829
X0.833
X0.838Y3.369
X0.844Y3.370
X0.849Y3.372
X0.854Y3.375
X0.859Y3.377
X0.863Y3.380
X0.870Y3.385
X0.872Y3.386
X0.874Y3.387
X0.877
X0.880
X0.882
X0.884Y3.386
X0.885Y3.385
X0.888Y3.382
X0.890Y3.379
X0.891Y3.376
Y3.373
Y3.371
X0.890Y3.368
X0.889Y3.366
X0.883Y3.359
X0.881Y3.355
X0.878Y3.350
X0.876Y3.345
X0.874Y3.340
X0.872Y3.336
X0.871Y3.330
Y3.323
Y3.010
Y3.003
X0.873Y2.996
X0.874Y2.992
X0.876Y2.987
X0.878Y2.981
X0.880Y2.978
X0.884Y2.974
X0.891Y2.964
X0.893Y2.960
Y2.957
Y2.953
X0.891Y2.950
X0.889Y2.947
X0.886Y2.945
X0.882Y2.943
X0.879
X0.876Y2.944
X0.872Y2.945
X0.863Y2.952
X0.860Y2.955
X0.855Y2.957
X0.850Y2.960
X0.844Y2.962
X0.837Y2.964
X0.831
X0.826Y2.965
X0.527
Z0.100
G0X0.642Y3.125
Z-0.060
G1Z-0.120F20.0
Y3.208F75.0
X0.711
Y3.125
X0.642
X0.562Y3.045
Y3.288
X0.791
Y3.045
X0.562
X0.527Y2.965
X0.521Y2.964
X0.515Y2.963
X0.509Y2.961
X0.505Y2.959
X0.499Y2.956
X0.494Y2.953
X0.491Y2.951
X0.484Y2.944
X0.481Y2.943
X0.479Y2.942
X0.476
X0.474
X0.471Y2.943
X0.469Y2.944
X0.468Y2.945
X0.465Y2.947
X0.463Y2.950
X0.462Y2.953
Y2.956
Y2.958
X0.463Y2.961
X0.464Y2.963
X0.470Y2.972
X0.473Y2.975
X0.474Y2.978
X0.477Y2.983
X0.479Y2.989
X0.480Y2.993
X0.481Y2.999
X0.482Y3.005
Y3.321
Y3.327
X0.481Y3.333
X0.479Y3.340
X0.477Y3.346
X0.474Y3.352
X0.471Y3.355
X0.468Y3.360
X0.461Y3.369
X0.459Y3.371
X0.458Y3.374
Y3.377
Y3.379
X0.459Y3.381
X0.460Y3.384
X0.461Y3.385
X0.463Y3.388
X0.466Y3.389
X0.469Y3.390
X0.472Y3.391
X0.475
X0.477Y3.390
X0.480Y3.388
X0.488Y3.382
X0.491Y3.379
X0.496Y3.376
X0.502Y3.373
X0.508Y3.371
X0.512Y3.369
X0.518Y3.368
X0.525
X0.829
X0.833
X0.838Y3.369
X0.844Y3.370
X0.849Y3.372
X0.854Y3.375
X0.859Y3.377
X0.863Y3.380
X0.870Y3.385
X0.872Y3.386
X0.874Y3.387
X0.877
X0.880
X0.882
X0.884Y3.386
X0.885Y3.385
X0.888Y3.382
X0.890Y3.379
X0.891Y3.376
Y3.373
Y3.371
X0.890Y3.368
X0.889Y3.366
X0.883Y3.359
X0.881Y3.355
X0.878Y3.350
X0.876Y3.345
X0.874Y3.340
X0.872Y3.336
X0.871Y3.330
Y3.323
Y3.010
Y3.003
X0.873Y2.996
X0.874Y2.992
X0.876Y2.987
X0.878Y2.981
X0.880Y2.978
X0.884Y2.974
X0.891Y2.964
X0.893Y2.960
Y2.957
Y2.953
X0.891Y2.950
X0.889Y2.947
X0.886Y2.945
X0.882Y2.943
X0.879
X0.876Y2.944
X0.872Y2.945
X0.863Y2.952
X0.860Y2.955
X0.855Y2.957
X0.850Y2.960
X0.844Y2.962
X0.837Y2.964
X0.831
X0.826Y2.965
X0.527
Z0.100
G0X0.642Y3.125
Z-0.100
G1Z-0.160F20.0
Y3.208F75.0
X0.711
Y3.125
X0.642
X0.562Y3.045
Y3.288
X0.791
Y3.045
X0.562
X0.527Y2.965
X0.521Y2.964
X0.515Y2.963
X0.509Y2.961
X0.505Y2.959
X0.499Y2.956
X0.494Y2.953
X0.491Y2.951
X0.484Y2.944
X0.481Y2.943
X0.479Y2.942
X0.476
X0.474
X0.471Y2.943
X0.469Y2.944
X0.468Y2.945
X0.465Y2.947
X0.463Y2.950
X0.462Y2.953
Y2.956
Y2.958
X0.463Y2.961
X0.464Y2.963
X0.470Y2.972
X0.473Y2.975
X0.474Y2.978
X0.477Y2.983
X0.479Y2.989
X0.480Y2.993
X0.481Y2.999
X0.482Y3.005
Y3.321
Y3.327
X0.481Y3.333
X0.479Y3.340
X0.477Y3.346
X0.474Y3.352
X0.471Y3.355
X0.468Y3.360
X0.461Y3.369
X0.459Y3.371
X0.458Y3.374
Y3.377
Y3.379
X0.459Y3.381
X0.460Y3.384
X0.461Y3.385
X0.463Y3.388
X0.466Y3.389
X0.469Y3.390
X0.472Y3.391
X0.475
X0.477Y3.390
X0.480Y3.388
X0.488Y3.382
X0.491Y3.379
X0.496Y3.376
X0.502Y3.373
X0.508Y3.371
X0.512Y3.369
X0.518Y3.368
X0.525
X0.829
X0.833
X0.838Y3.369
X0.844Y3.370
X0.849Y3.372
X0.854Y3.375
X0.859Y3.377
X0.863Y3.380
X0.870Y3.385
X0.872Y3.386
X0.874Y3.387
X0.877
X0.880
X0.882
X0.884Y3.386
X0.885Y3.385
X0.888Y3.382
X0.890Y3.379
X0.891Y3.376
Y3.373
Y3.371
X0.890Y3.368
X0.889Y3.366
X0.883Y3.359
X0.881Y3.355
X0.878Y3.350
X0.876Y3.345
X0.874Y3.340
