%
(1001)
(T102  D=0.125 CR=0 - ZMIN=-0.5 - flat end mill)
G90
G17
G20
G28 G91 Z0
G90

(Pocketing)
T102 M6
S24000 M3
G54
G0 X0.7585 Y3.139
Z0.2
Z0.055
G1 Z0.0536 F72
Y3.1391 Z0.0523
X0.7586 Y3.1393 Z0.0509
X0.7587 Y3.1395 Z0.0495
Y3.1397 Z0.0489
X0.7588 Y3.1399 Z0.0482
Y3.1401 Z0.0475
X0.7589 Y3.1403 Z0.0469
Y3.1404 Z0.0465
X0.759 Y3.1406 Z0.046
Y3.1407 Z0.0456
X0.7591 Y3.1409 Z0.0452
X0.7592 Y3.1411 Z0.0448
Y3.1412 Z0.0443
X0.7593 Y3.1414 Z0.0439
Y3.1416 Z0.0435
X0.7594 Y3.1418 Z0.0431
X0.7596 Y3.1425 Z0.0419
X0.7598 Y3.1432 Z0.0408
X0.76 Y3.144 Z0.0397
X0.7602 Y3.1448 Z0.0386
X0.7604 Y3.1458 Z0.0376
X0.7606 Y3.1467 Z0.0366
X0.7609 Y3.1477 Z0.0357
X0.761 Y3.1488 Z0.0349
X0.7612 Y3.1499 Z0.0341
X0.7614 Y3.1511 Z0.0334
X0.7615 Y3.1523 Z0.0327
X0.7617 Y3.1535 Z0.0321
X0.7618 Y3.1548 Z0.0316
X0.7619 Y3.1561 Z0.0312
Y3.1574 Z0.0308
Y3.1587 Z0.0305
Y3.1601 Z0.0302
G3 X0.6433 Y3.1579 Z0.004 I-0.0593 J-0.0011
X0.7619 Y3.1601 Z-0.0222 I0.0593 J0.0011
X0.6434 Y3.1625 Z-0.0478 I-0.0593 J-0.0011
G1 X0.6432 Y3.1613 Z-0.0479
Y3.1601 Z-0.048
Y3.159
Y3.1386
G3 X0.656 Y3.1258 I0.0128 J0
G1 X0.6966 Y3.1259
G3 X0.7093 Y3.1386 I0 J0.0127
G1 X0.7094 Y3.1937
G3 X0.6966 Y3.2065 I-0.0128 J0
G1 X0.656 Y3.2064
G3 X0.6433 Y3.1937 I0 J-0.0127
G1 X0.6432 Y3.159
G2 X0.616 Y3.1049 I-0.0675 J0
G3 X0.6351 Y3.0474 I0.0191 J-0.0256
G1 X0.7754
G3 X0.7879 Y3.0599 I0 J0.0125
G1 Y3.2724
G3 X0.7754 Y3.2849 I-0.0125 J0
G1 X0.5772
G3 X0.5647 Y3.2724 I0 J-0.0125
G1 Y3.0599
G3 X0.5772 Y3.0474 I0.0125 J0
G1 X0.6351
G2 X0.6942 Y3.008 I0 J-0.064
G3 X0.7532 Y2.9687 I0.059 J0.0246
G1 X0.8256 Y2.9686
G2 X0.8722 Y2.9495 I0 J-0.0665
G3 X0.8867 Y2.9496 I0.0072 J0.0073
X0.8866 Y2.9641 I-0.0073 J0.0072
G2 X0.8666 Y3.0117 I0.0465 J0.0476
G1 Y3.3207
G2 X0.8847 Y3.3663 I0.0665 J0
G3 X0.8703 Y3.3809 I-0.0075 J0.007
G2 X0.8256 Y3.3637 I-0.0447 J0.0493
G1 X0.5273
G2 X0.4795 Y3.384 I0 J0.0665
G3 X0.4646 Y3.3841 I-0.0075 J-0.0072
X0.4649 Y3.3692 I0.0074 J-0.0073
G2 X0.4858 Y3.3209 I-0.0455 J-0.0483
G1 X0.4859 Y3.0082
G2 X0.4682 Y2.9631 I-0.0665 J0
G3 X0.4832 Y2.9487 I0.0076 J-0.0071
G2 X0.5305 Y2.9685 I0.0473 J-0.0466
G1 X0.7532 Y2.9686
G3 X0.8086 Y3.0494 Z-0.0612 I0 J0.0594
G1 X0.7579 Y3.1804 Z-0.0772
G3 X0.6433 Y3.159 Z-0.096 I-0.0553 J-0.0214
G1 X0.6432 Y3.1386
G3 X0.656 Y3.1258 I0.0128 J0
G1 X0.6966 Y3.1259
G3 X0.7093 Y3.1386 I0 J0.0127
G1 X0.7094 Y3.1937
G3 X0.6966 Y3.2065 I-0.0128 J0
G1 X0.656 Y3.2064
G3 X0.6433 Y3.1937 I0 J-0.0127
G1 X0.6432 Y3.159
G2 X0.616 Y3.1049 I-0.0675 J0
G3 X0.6351 Y3.0474 I0.0191 J-0.0256
G1 X0.7754
G3 X0.7879 Y3.0599 I0 J0.0125
G1 Y3.2724
G3 X0.7754 Y3.2849 I-0.0125 J0
G1 X0.5772
G3 X0.5647 Y3.2724 I0 J-0.0125
G1 Y3.0599
G3 X0.5772 Y3.0474 I0.0125 J0
G1 X0.6351
G2 X0.6942 Y3.008 I0 J-0.064
G3 X0.7532 Y2.9687 I0.059 J0.0246
G1 X0.8256 Y2.9686
G2 X0.8722 Y2.9495 I0 J-0.0665
G3 X0.8867 Y2.9496 I0.0072 J0.0073
X0.8866 Y2.9641 I-0.0073 J0.0072
G2 X0.8666 Y3.0117 I0.0465 J0.0476
G1 Y3.3207
G2 X0.8847 Y3.3663 I0.0665 J0
G3 X0.8703 Y3.3809 I-0.0075 J0.007
G2 X0.8256 Y3.3637 I-0.0447 J0.0493
G1 X0.5273
G2 X0.4795 Y3.384 I0 J0.0665
G3 X0.4646 Y3.3841 I-0.0075 J-0.0072
X0.4649 Y3.3692 I0.0074 J-0.0073
G2 X0.4858 Y3.3209 I-0.0455 J-0.0483
G1 X0.4859 Y3.0082
G2 X0.4682 Y2.9631 I-0.0665 J0
G3 X0.4832 Y2.9487 I0.0076 J-0.0071
G2 X0.5305 Y2.9685 I0.0473 J-0.0466
G1 X0.7532 Y2.9686
G3 X0.8086 Y3.0494 Z-0.1092 I0 J0.0594
G1 X0.7579 Y3.1804 Z-0.1252
G3 X0.6433 Y3.159 Z-0.144 I-0.0553 J-0.0214
G1 X0.6432 Y3.1386
G3 X0.656 Y3.1258 I0.0128 J0
G1 X0.6966 Y3.1259
G3 X0.7093 Y3.1386 I0 J0.0127
G1 X0.7094 Y3.1937
G3 X0.6966 Y3.2065 I-0.0128 J0
G1 X0.656 Y3.2064
G3 X0.6433 Y3.1937 I0 J-0.0127
G1 X0.6432 Y3.159
G2 X0.616 Y3.1049 I-0.0675 J0
G3 X0.6351 Y3.0474 I0.0191 J-0.0256
G1 X0.7754
G3 X0.7879 Y3.0599 I0 J0.0125
G1 Y3.2724
G3 X0.7754 Y3.2849 I-0.0125 J0
G1 X0.5772
G3 X0.5647 Y3.2724 I0 J-0.0125
G1 Y3.0599
G3 X0.5772 Y3.0474 I0.0125 J0
G1 X0.6351
G2 X0.6942 Y3.008 I0 J-0.064
G3 X0.7532 Y2.9687 I0.059 J0.0246
G1 X0.8256 Y2.9686
G2 X0.8722 Y2.9495 I0 J-0.0665
G3 X0.8867 Y2.9496 I0.0072 J0.0073
X0.8866 Y2.9641 I-0.0073 J0.0072
G2 X0.8666 Y3.0117 I0.0465 J0.0476
G1 Y3.3207
G2 X0.8847 Y3.3663 I0.0665 J0
G3 X0.8703 Y3.3809 I-0.0075 J0.007
G2 X0.8256 Y3.3637 I-0.0447 J0.0493
G1 X0.5273
G2 X0.4795 Y3.384 I0 J0.0665
G3 X0.4646 Y3.3841 I-0.0075 J-0.0072
X0.4649 Y3.3692 I0.0074 J-0.0073
G2 X0.4858 Y3.3209 I-0.0455 J-0.0483
G1 X0.4859 Y3.0082
G2 X0.4682 Y2.9631 I-0.0665 J0
G3 X0.4832 Y2.9487 I0.0076 J-0.0071
G2 X0.5305 Y2.9685 I0.0473 J-0.0466
G1 X0.7532 Y2.9686
G3 X0.8086 Y3.0494 Z-0.1572 I0 J0.0594
G1 X0.7579 Y3.1804 Z-0.1732
G3 X0.6433 Y3.159 Z-0.192 I-0.0553 J-0.0214
G1 X0.6432 Y3.1386
G3 X0.656 Y3.1258 I0.0128 J0
G1 X0.6966 Y3.1259
G3 X0.7093 Y3.1386 I0 J0.0127
G1 X0.7094 Y3.1937
G3 X0.6966 Y3.2065 I-0.0128 J0
G1 X0.656 Y3.2064
G3 X0.6433 Y3.1937 I0 J-0.0127
G1 X0.6432 Y3.159
G2 X0.616 Y3.1049 I-0.0675 J0
G3 X0.6351 Y3.0474 I0.0191 J-0.0256
G1 X0.7754
G3 X0.7879 Y3.0599 I0 J0.0125
G1 Y3.2724
G3 X0.7754 Y3.2849 I-0.0125 J0
G1 X0.5772
G3 X0.5647 Y3.2724 I0 J-0.0125
G1 Y3.0599
G3 X0.5772 Y3.0474 I0.0125 J0
G1 X0.6351
G2 X0.6942 Y3.008 I0 J-0.064
G3 X0.7532 Y2.9687 I0.059 J0.0246
G1 X0.8256 Y2.9686
G2 X0.8722 Y2.9495 I0 J-0.0665
G3 X0.8867 Y2.9496 I0.0072 J0.0073
X0.8866 Y2.9641 I-0.0073 J0.0072
G2 X0.8666 Y3.0117 I0.0465 J0.0476
G1 Y3.3207
G2 X0.8847 Y3.3663 I0.0665 J0
G3 X0.8703 Y3.3809 I-0.0075 J0.007
G2 X0.8256 Y3.3637 I-0.0447 J0.0493
G1 X0.5273
G2 X0.4795 Y3.384 I0 J0.0665
G3 X0.4646 Y3.3841 I-0.0075 J-0.0072
X0.4649 Y3.3692 I0.0074 J-0.0073
G2 X0.4858 Y3.3209 I-0.0455 J-0.0483
G1 X0.4859 Y3.0082
G2 X0.4682 Y2.9631 I-0.0665 J0
G3 X0.4832 Y2.9487 I0.0076 J-0.0071
G2 X0.5305 Y2.9685 I0.0473 J-0.0466
G1 X0.7532 Y2.9686
G3 X0.8086 Y3.0494 Z-0.2052 I0 J0.0594
G1 X0.7579 Y3.1804 Z-0.2212
G3 X0.6433 Y3.159 Z-0.24 I-0.0553 J-0.0214
G1 X0.6432 Y3.1386
G3 X0.656 Y3.1258 I0.0128 J0
G1 X0.6966 Y3.1259
G3 X0.7093 Y3.1386 I0 J0.0127
G1 X0.7094 Y3.1937
G3 X0.6966 Y3.2065 I-0.0128 J0
G1 X0.656 Y3.2064
G3 X0.6433 Y3.1937 I0 J-0.0127
G1 X0.6432 Y3.159
G2 X0.616 Y3.1049 I-0.0675 J0
G3 X0.6351 Y3.0474 I0.0191 J-0.0256
G1 X0.7754
G3 X0.7879 Y3.0599 I0 J0.0125
G1 Y3.2724
G3 X0.7754 Y3.2849 I-0.0125 J0
G1 X0.5772
G3 X0.5647 Y3.2724 I0 J-0.0125
G1 Y3.0599
G3 X0.5772 Y3.0474 I0.0125 J0
G1 X0.6351
G2 X0.6942 Y3.008 I0 J-0.064
G3 X0.7532 Y2.9687 I0.059 J0.0246
G1 X0.8256 Y2.9686
G2 X0.8722 Y2.9495 I0 J-0.0665
G3 X0.8867 Y2.9496 I0.0072 J0.0073
X0.8866 Y2.9641 I-0.0073 J0.0072
G2 X0.8666 Y3.0117 I0.0465 J0.0476
G1 Y3.3207
G2 X0.8847 Y3.3663 I0.0665 J0
G3 X0.8703 Y3.3809 I-0.0075 J0.007
G2 X0.8256 Y3.3637 I-0.0447 J0.0493
G1 X0.5273
G2 X0.4795 Y3.384 I0 J0.0665
G3 X0.4646 Y3.3841 I-0.0075 J-0.0072
X0.4649 Y3.3692 I0.0074 J-0.0073
G2 X0.4858 Y3.3209 I-0.0455 J-0.0483
G1 X0.4859 Y3.0082
G2 X0.4682 Y2.9631 I-0.0665 J0
G3 X0.4832 Y2.9487 I0.0076 J-0.0071
G2 X0.5305 Y2.9685 I0.0473 J-0.0466
G1 X0.7532 Y2.9686
G3 X0.8086 Y3.0494 Z-0.2532 I0 J0.0594
G1 X0.7579 Y3.1804 Z-0.2692
G3 X0.6433 Y3.159 Z-0.288 I-0.0553 J-0.0214
G1 X0.6432 Y3.1386
G3 X0.656 Y3.1258 I0.0128 J0
G1 X0.6966 Y3.1259
G3 X0.7093 Y3.1386 I0 J0.0127
G1 X0.7094 Y3.1937
G3 X0.6966 Y3.2065 I-0.0128 J0
G1 X0.656 Y3.2064
G3 X0.6433 Y3.1937 I0 J-0.0127
G1 X0.6432 Y3.159
G2 X0.616 Y3.1049 I-0.0675 J0
G3 X0.6351 Y3.0474 I0.0191 J-0.0256
G1 X0.7754
G3 X0.7879 Y3.0599 I0 J0.0125
G1 Y3.2724
G3 X0.7754 Y3.2849 I-0.0125 J0
G1 X0.5772
G3 X0.5647 Y3.2724 I0 J-0.0125
G1 Y3.0599
G3 X0.5772 Y3.0474 I0.0125 J0
G1 X0.6351
G2 X0.6942 Y3.008 I0 J-0.064
G3 X0.7532 Y2.9687 I0.059 J0.0246
G1 X0.8256 Y2.9686
G2 X0.8722 Y2.9495 I0 J-0.0665
G3 X0.8867 Y2.9496 I0.0072 J0.0073
X0.8866 Y2.9641 I-0.0073 J0.0072
G2 X0.8666 Y3.0117 I0.0465 J0.0476
G1 Y3.3207
G2 X0.8847 Y3.3663 I0.0665 J0
G3 X0.8703 Y3.3809 I-0.0075 J0.007
G2 X0.8256 Y3.3637 I-0.0447 J0.0493
G1 X0.5273
G2 X0.4795 Y3.384 I0 J0.0665
G3 X0.4646 Y3.3841 I-0.0075 J-0.0072
X0.4649 Y3.3692 I0.0074 J-0.0073
G2 X0.4858 Y3.3209 I-0.0455 J-0.0483
G1 X0.4859 Y3.0082
G2 X0.4682 Y2.9631 I-0.0665 J0
G3 X0.4832 Y2.9487 I0.0076 J-0.0071
G2 X0.5305 Y2.9685 I0.0473 J-0.0466
G1 X0.7532 Y2.9686
G3 X0.8086 Y3.0494 Z-0.3012 I0 J0.0594
G1 X0.7579 Y3.1804 Z-0.3172
G3 X0.6433 Y3.159 Z-0.336 I-0.0553 J-0.0214
G1 X0.6432 Y3.1386
G3 X0.656 Y3.1258 I0.0128 J0
G1 X0.6966 Y3.1259
G3 X0.7093 Y3.1386 I0 J0.0127
G1 X0.7094 Y3.1937
G3 X0.6966 Y3.2065 I-0.0128 J0
G1 X0.656 Y3.2064
G3 X0.6433 Y3.1937 I0 J-0.0127
G1 X0.6432 Y3.159
G2 X0.616 Y3.1049 I-0.0675 J0
G3 X0.6351 Y3.0474 I0.0191 J-0.0256
G1 X0.7754
G3 X0.7879 Y3.0599 I0 J0.0125
G1 Y3.2724
G3 X0.7754 Y3.2849 I-0.0125 J0
G1 X0.5772
G3 X0.5647 Y3.2724 I0 J-0.0125
G1 Y3.0599
G3 X0.5772 Y3.0474 I0.0125 J0
G1 X0.6351
G2 X0.6942 Y3.008 I0 J-0.064
G3 X0.7532 Y2.9687 I0.059 J0.0246
G1 X0.8256 Y2.9686
G2 X0.8722 Y2.9495 I0 J-0.0665
G3 X0.8867 Y2.9496 I0.0072 J0.0073
X0.8866 Y2.9641 I-0.0073 J0.0072
G2 X0.8666 Y3.0117 I0.0465 J0.0476
G1 Y3.3207
G2 X0.8847 Y3.3663 I0.0665 J0
G3 X0.8703 Y3.3809 I-0.0075 J0.007
G2 X0.8256 Y3.3637 I-0.0447 J0.0493
G1 X0.5273
G2 X0.4795 Y3.384 I0 J0.0665
G3 X0.4646 Y3.3841 I-0.0075 J-0.0072
X0.4649 Y3.3692 I0.0074 J-0.0073
G2 X0.4858 Y3.3209 I-0.0455 J-0.0483
G1 X0.4859 Y3.0082
G2 X0.4682 Y2.9631 I-0.0665 J0
G3 X0.4832 Y2.9487 I0.0076 J-0.0071
G2 X0.5305 Y2.9685 I0.0473 J-0.0466
G1 X0.7532 Y2.9686
G3 X0.8086 Y3.0494 Z-0.3464 I0 J0.0594
G1 X0.7579 Y3.1804 Z-0.3591
G3 X0.6433 Y3.159 Z-0.374 I-0.0553 J-0.0214
G1 X0.6432 Y3.1386
G3 X0.656 Y3.1258 I0.0128 J0
G1 X0.6966 Y3.1259
G3 X0.7093 Y3.1386 I0 J0.0127
G1 X0.7094 Y3.1937
G3 X0.6966 Y3.2065 I-0.0128 J0
G1 X0.656 Y3.2064
G3 X0.6433 Y3.1937 I0 J-0.0127
G1 X0.6432 Y3.159
G2 X0.616 Y3.1049 I-0.0675 J0
G3 X0.6351 Y3.0474 I0.0191 J-0.0256
G1 X0.7754
G3 X0.7879 Y3.0599 I0 J0.0125
G1 Y3.2724
G3 X0.7754 Y3.2849 I-0.0125 J0
G1 X0.5772
G3 X0.5647 Y3.2724 I0 J-0.0125
G1 Y3.0599
G3 X0.5772 Y3.0474 I0.0125 J0
G1 X0.6351
G2 X0.6942 Y3.008 I0 J-0.064
G3 X0.7532 Y2.9687 I0.059 J0.0246
G1 X0.8256 Y2.9686
G2 X0.8722 Y2.9495 I0 J-0.0665
G3 X0.8867 Y2.9496 I0.0072 J0.0073
X0.8866 Y2.9641 I-0.0073 J0.0072
G2 X0.8666 Y3.0117 I0.0465 J0.0476
G1 Y3.3207
G2 X0.8847 Y3.3663 I0.0665 J0
G3 X0.8703 Y3.3809 I-0.0075 J0.007
G2 X0.8256 Y3.3637 I-0.0447 J0.0493
G1 X0.5273
G2 X0.4795 Y3.384 I0 J0.0665
G3 X0.4646 Y3.3841 I-0.0075 J-0.0072
X0.4649 Y3.3692 I0.0074 J-0.0073
G2 X0.4858 Y3.3209 I-0.0455 J-0.0483
G1 X0.4859 Y3.0082
G2 X0.4682 Y2.9631 I-0.0665 J0
G3 X0.4832 Y2.9487 I0.0076 J-0.0071
G2 X0.5305 Y2.9685 I0.0473 J-0.0466
G1 X0.7532 Y2.9686
X0.7546 Y2.9687
X0.756 Y2.9688 Z-0.3739
X0.7573 Y2.969 Z-0.3737
X0.7587 Y2.9692 Z-0.3734
X0.76 Y2.9696 Z-0.373
X0.7613 Y2.97 Z-0.3726
X0.7625 Y2.9704 Z-0.3721
X0.7637 Y2.9709 Z-0.3715
X0.7648 Y2.9715 Z-0.3709
X0.7658 Y2.9721 Z-0.3702
X0.7668 Y2.9727 Z-0.3694
X0.7678 Y2.9733 Z-0.3686
X0.7686 Y2.974 Z-0.3677
X0.7694 Y2.9746 Z-0.3667
X0.7701 Y2.9753 Z-0.3657
X0.7708 Y2.9759 Z-0.3646
X0.7714 Y2.9765 Z-0.3635
X0.7719 Y2.9771 Z-0.3623
X0.7724 Y2.9776 Z-0.3611
X0.7728 Y2.9781 Z-0.3599
X0.7731 Y2.9786 Z-0.3586
X0.7734 Y2.979 Z-0.3573
X0.7737 Y2.9793 Z-0.3559
X0.7739 Y2.9796 Z-0.3546
X0.774 Y2.9798 Z-0.3532
X0.7741 Y2.98 Z-0.3518
X0.7742 Y2.9801 Z-0.3504
Z-0.349
G0 Z0.2

(Wall Finish)
Z0.2269
X0.8406 Y3.1833
G1 Z-0.174 F70
G18 G2 X0.8506 Z-0.184 I0.01 K0 F67.2
G1 X0.8606
G17 G2 X0.8706 Y3.1733 I0 J-0.01
G1 Y3.0117
G3 X0.8894 Y2.967 I0.0625 J0
G2 X0.8896 Y2.9468 I-0.01 J-0.0102
X0.8694 Y2.9466 I-0.0102 J0.01
G3 X0.8256 Y2.9645 I-0.0438 J-0.0445
G1 X0.5305 Y2.9646
G3 X0.486 Y2.946 I0 J-0.0625
G2 X0.4653 Y2.9657 I-0.0102 J0.01
G3 X0.482 Y3.0082 I-0.0459 J0.0425
G1 X0.4819 Y3.3209
G3 X0.4622 Y3.3664 I-0.0625 J0
G2 X0.4619 Y3.3869 I0.0098 J0.0104
X0.4823 Y3.3867 I0.0101 J-0.0101
G3 X0.5273 Y3.3676 I0.045 J0.0435
G1 X0.8256 Y3.3677
G3 X0.8676 Y3.3839 I0 J0.0625
G2 X0.8876 Y3.3635 I0.0096 J-0.0106
G3 X0.8706 Y3.3207 I0.0455 J-0.0428
G1 Y3.1733
G2 X0.8606 Y3.1633 I-0.01 J0
G1 X0.8506
G18 G3 X0.8406 Z-0.174 I0 K0.01
G1 X0.8405 Y3.02
Z-0.358 F70
X0.8407 Z-0.3602 F67.2
X0.8415 Z-0.3624
X0.8427 Z-0.3643
X0.8442 Y3.0201 Z-0.3658
X0.8461 Z-0.367
X0.8483 Z-0.3678
X0.8505 Y3.0202 Z-0.368
X0.8605 Y3.0204
G17 G2 X0.8707 Y3.0105 I0.0002 J-0.01
G3 X0.8894 Y2.9671 I0.0624 J0.0012
G2 X0.8897 Y2.9468 I-0.01 J-0.0103
X0.8693 Y2.9466 I-0.0103 J0.01
G3 X0.8256 Y2.9645 I-0.0437 J-0.0445
G1 X0.5305 Y2.9646
G3 X0.486 Y2.946 I0 J-0.0625
G2 X0.4653 Y2.9657 I-0.0102 J0.01
G3 X0.482 Y3.0082 I-0.0459 J0.0425
G1 X0.4819 Y3.3209
G3 X0.4622 Y3.3664 I-0.0625 J0
G2 X0.4619 Y3.3869 I0.0098 J0.0104
X0.4823 Y3.3867 I0.0101 J-0.0101
G3 X0.5273 Y3.3676 I0.045 J0.0435
G1 X0.8256 Y3.3677
G3 X0.8676 Y3.3839 I0 J0.0625
G2 X0.8876 Y3.3635 I0.0096 J-0.0106
G3 X0.8706 Y3.3207 I0.0455 J-0.0428
G1 Y3.0117
Y3.0111
X0.8707 Y3.0105
G2 X0.8608 Y3.0004 I-0.01 J-0.0001
G1 X0.8508 Y3.0002
X0.8486 Y3.0001 Z-0.3678
X0.8465 Z-0.367
X0.8446 Z-0.3658
X0.843 Y3 Z-0.3643
X0.8418 Z-0.3624
X0.8411 Z-0.3602
X0.8408 Z-0.358
G0 Z0.2

(Floor Finish)
X0.6837 Y3.2011
Z0.2
Z-0.264
G1 Z-0.314 F96
Z-0.324 F70
X0.6836 Y3.201 Z-0.326
X0.6835 Z-0.3279
X0.6834 Y3.2009 Z-0.3299
X0.6833 Y3.2008 Z-0.3309
X0.6831 Y3.2007 Z-0.3318
X0.683 Y3.2006 Z-0.3328
X0.6829 Y3.2005 Z-0.3338
X0.6827 Y3.2004 Z-0.3344
X0.6826 Z-0.335
X0.6825 Y3.2003 Z-0.3357
X0.6824 Y3.2002 Z-0.3363
X0.6822 Y3.2001 Z-0.337
X0.6821 Y3.2 Z-0.3376
X0.6819 Y3.1999 Z-0.3382
X0.6818 Y3.1998 Z-0.3388
X0.6816 Y3.1997 Z-0.3395
X0.6811 Y3.1993 Z-0.3413
X0.6805 Y3.1989 Z-0.3431
X0.6799 Y3.1984 Z-0.3449
X0.6792 Y3.1979 Z-0.3467
X0.6785 Y3.1973 Z-0.3484
X0.6778 Y3.1966 Z-0.3501
X0.677 Y3.1959 Z-0.3518
X0.6762 Y3.1952 Z-0.3534
X0.6753 Y3.1943 Z-0.355
X0.6744 Y3.1934 Z-0.3565
X0.6736 Y3.1925 Z-0.358
X0.6727 Y3.1915 Z-0.3594
X0.6718 Y3.1904 Z-0.3607
X0.6709 Y3.1892 Z-0.362
X0.67 Y3.188 Z-0.3633
X0.6691 Y3.1867 Z-0.3645
X0.6682 Y3.1854 Z-0.3656
X0.6673 Y3.1839 Z-0.3666
X0.6665 Y3.1825 Z-0.3676
X0.6657 Y3.1809 Z-0.3686
X0.665 Y3.1793 Z-0.3694
X0.6643 Y3.1777 Z-0.3702
X0.6636 Y3.1759 Z-0.3709
X0.663 Y3.1742 Z-0.3716
X0.6625 Y3.1724 Z-0.3721
X0.662 Y3.1705 Z-0.3726
X0.6616 Y3.1687 Z-0.3731
X0.6613 Y3.1668 Z-0.3734
X0.661 Y3.1648 Z-0.3737
X0.6608 Y3.1629 Z-0.3739
X0.6607 Y3.1609 Z-0.374
Y3.159
Y3.1561 F96
G3 X0.6735 Y3.1433 I0.0128 J0
G1 X0.6791 Y3.1434
G3 X0.6918 Y3.1561 I0 J0.0127
G1 X0.6919 Y3.1762
G3 X0.6791 Y3.189 I-0.0128 J0
G1 X0.6735 Y3.1889
G3 X0.6608 Y3.1762 I0 J-0.0127
G1 X0.6607 Y3.159
G2 X0.6403 Y3.124 I-0.0402 J0
G3 X0.6505 Y3.0849 I0.0102 J-0.0182
G1 X0.7376
G3 X0.7503 Y3.0976 I0 J0.0127
G1 X0.7504 Y3.2347
G3 X0.7376 Y3.2475 I-0.0128 J0
G1 X0.615 Y3.2474
G3 X0.6023 Y3.2347 I0 J-0.0127
G1 X0.6022 Y3.0976
G3 X0.615 Y3.0848 I0.0128 J0
G1 X0.6505 Y3.0849
G2 X0.6944 Y3.0556 I0 J-0.0476
G3 X0.7383 Y3.0263 I0.0439 J0.0183
G1 X0.7964 Y3.0264
G3 X0.8089 Y3.0389 I0 J0.0125
G1 Y3.2934
G3 X0.7964 Y3.3059 I-0.0125 J0
G1 X0.5562
G3 X0.5437 Y3.2934 I0 J-0.0125
G1 Y3.0389
G3 X0.5562 Y3.0264 I0.0125 J0
G1 X0.7383
G2 X0.7825 Y2.9972 I0 J-0.048
G3 X0.8264 Y2.9677 I0.0445 J0.0188
G2 X0.8716 Y2.9489 I-0.0008 J-0.0656
G3 X0.8873 Y2.949 I0.0078 J0.0079
X0.8871 Y2.9648 I-0.0079 J0.0078
G2 X0.8674 Y3.0117 I0.046 J0.0469
G1 X0.8676 Y3.3207
G2 X0.8854 Y3.3656 I0.0655 J0
G3 X0.8696 Y3.3816 I-0.0082 J0.0077
G2 X0.8256 Y3.3646 I-0.044 J0.0486
G1 X0.5273 Y3.3647
G2 X0.4802 Y3.3847 I0 J0.0655
G3 X0.4639 Y3.3848 I-0.0082 J-0.0079
X0.4642 Y3.3685 I0.0081 J-0.008
G2 X0.4848 Y3.3209 I-0.0448 J-0.0476
G1 X0.4849 Y3.0082
G2 X0.4675 Y2.9637 I-0.0655 J0
G3 X0.4839 Y2.9481 I0.0083 J-0.0077
G2 X0.5305 Y2.9676 I0.0466 J-0.046
G1 X0.8256
X0.8264
X0.8284
X0.8303 Y2.9675 Z-0.3739
X0.8323 Y2.9673 Z-0.3737
X0.8342 Y2.9671 Z-0.3734
X0.8361 Y2.9668 Z-0.3731
X0.838 Y2.9664 Z-0.3726
X0.8399 Y2.966 Z-0.3721
X0.8417 Y2.9656 Z-0.3716
X0.8435 Y2.9651 Z-0.3709
X0.8452 Y2.9646 Z-0.3702
X0.8469 Y2.964 Z-0.3694
X0.8486 Y2.9634 Z-0.3686
X0.8502 Y2.9628 Z-0.3676
X0.8518 Y2.9621 Z-0.3666
X0.8533 Y2.9615 Z-0.3656
X0.8547 Y2.9608 Z-0.3645
X0.8561 Y2.9601 Z-0.3633
X0.8575 Y2.9593 Z-0.362
X0.8587 Y2.9586 Z-0.3607
X0.8599 Y2.9579 Z-0.3594
X0.8611 Y2.9571 Z-0.358
X0.8622 Y2.9564 Z-0.3565
X0.8632 Y2.9557 Z-0.355
X0.8642 Y2.955 Z-0.3534
X0.8651 Y2.9544 Z-0.3518
X0.8659 Y2.9537 Z-0.3501
X0.8667 Y2.9531 Z-0.3484
X0.8674 Y2.9525 Z-0.3467
X0.8681 Y2.952 Z-0.3449
X0.8687 Y2.9514 Z-0.3431
X0.8692 Y2.951 Z-0.3413
X0.8697 Y2.9505 Z-0.3395
X0.8701 Y2.9502 Z-0.3376
X0.8705 Y2.9498 Z-0.3357
X0.8708 Y2.9495 Z-0.3338
X0.871 Y2.9493 Z-0.3318
X0.8712 Y2.9491 Z-0.3299
X0.8713 Y2.949 Z-0.3279
X0.8714 Y2.9489 Z-0.326
Z-0.324
G0 Z0.2

(Pocketing)
X0.7585 Y3.9264
Z0.2
Z0.055
G1 Z0.0536 F72
Y3.9265 Z0.0523
X0.7586 Y3.9267 Z0.0509
X0.7587 Y3.9269 Z0.0495
Y3.9271 Z0.0489
X0.7588 Y3.9273 Z0.0482
Y3.9275 Z0.0475
X0.7589 Y3.9277 Z0.0469
Y3.9278 Z0.0465
X0.759 Y3.928 Z0.046
Y3.9281 Z0.0456
X0.7591 Y3.9283 Z0.0452
X0.7592 Y3.9285 Z0.0448
Y3.9286 Z0.0443
X0.7593 Y3.9288 Z0.0439
Y3.929 Z0.0435
X0.7594 Y3.9292 Z0.0431
X0.7596 Y3.9299 Z0.0419
X0.7598 Y3.9306 Z0.0408
X0.76 Y3.9314 Z0.0397
X0.7602 Y3.9322 Z0.0386
X0.7604 Y3.9332 Z0.0376
X0.7606 Y3.9341 Z0.0366
X0.7609 Y3.9351 Z0.0357
X0.761 Y3.9362 Z0.0349
X0.7612 Y3.9373 Z0.0341
X0.7614 Y3.9385 Z0.0334
X0.7615 Y3.9397 Z0.0327
X0.7617 Y3.9409 Z0.0321
X0.7618 Y3.9422 Z0.0316
X0.7619 Y3.9435 Z0.0312
Y3.9448 Z0.0308
Y3.9461 Z0.0305
Y3.9475 Z0.0302
G3 X0.6433 Y3.9453 Z0.004 I-0.0593 J-0.0011
X0.7619 Y3.9475 Z-0.0222 I0.0593 J0.0011
X0.6434 Y3.9499 Z-0.0478 I-0.0593 J-0.0011
G1 X0.6432 Y3.9487 Z-0.0479
Y3.9475 Z-0.048
Y3.9464
Y3.926
G3 X0.656 Y3.9132 I0.0128 J0
G1 X0.6966 Y3.9133
G3 X0.7093 Y3.926 I0 J0.0127
G1 X0.7094 Y3.9811
G3 X0.6966 Y3.9939 I-0.0128 J0
G1 X0.656 Y3.9938
G3 X0.6433 Y3.9811 I0 J-0.0127
G1 X0.6432 Y3.9464
G2 X0.616 Y3.8923 I-0.0675 J0
G3 X0.6351 Y3.8348 I0.0191 J-0.0256
G1 X0.7754
G3 X0.7879 Y3.8473 I0 J0.0125
G1 Y4.0598
G3 X0.7754 Y4.0723 I-0.0125 J0
G1 X0.5772
G3 X0.5647 Y4.0598 I0 J-0.0125
G1 Y3.8473
G3 X0.5772 Y3.8348 I0.0125 J0
G1 X0.6351
G2 X0.6942 Y3.7954 I0 J-0.064
G3 X0.7532 Y3.7561 I0.059 J0.0246
G1 X0.8256 Y3.756
G2 X0.8722 Y3.7369 I0 J-0.0665
G3 X0.8867 Y3.737 I0.0072 J0.0074
Y3.7516 I-0.0073 J0.0073
G2 X0.8667 Y3.7991 I0.0464 J0.0475
G1 X0.8666 Y4.1081
G2 X0.8847 Y4.1537 I0.0665 J0
G3 X0.8703 Y4.1683 I-0.0075 J0.007
G2 X0.8256 Y4.1511 I-0.0447 J0.0493
G1 X0.5273
G2 X0.4795 Y4.1714 I0 J0.0665
G3 X0.4646 Y4.1715 I-0.0075 J-0.0072
X0.4649 Y4.1566 I0.0074 J-0.0073
G2 X0.4858 Y4.1083 I-0.0455 J-0.0483
G1 X0.4859 Y3.7956
G2 X0.4682 Y3.7505 I-0.0665 J0
G3 X0.4832 Y3.7361 I0.0076 J-0.0071
G2 X0.5305 Y3.7559 I0.0473 J-0.0466
G1 X0.7532 Y3.756
G3 X0.8086 Y3.8368 Z-0.0612 I0 J0.0594
G1 X0.7579 Y3.9678 Z-0.0772
G3 X0.6433 Y3.9464 Z-0.096 I-0.0553 J-0.0214
G1 X0.6432 Y3.926
G3 X0.656 Y3.9132 I0.0128 J0
G1 X0.6966 Y3.9133
G3 X0.7093 Y3.926 I0 J0.0127
G1 X0.7094 Y3.9811
G3 X0.6966 Y3.9939 I-0.0128 J0
G1 X0.656 Y3.9938
G3 X0.6433 Y3.9811 I0 J-0.0127
G1 X0.6432 Y3.9464
G2 X0.616 Y3.8923 I-0.0675 J0
G3 X0.6351 Y3.8348 I0.0191 J-0.0256
G1 X0.7754
G3 X0.7879 Y3.8473 I0 J0.0125
G1 Y4.0598
G3 X0.7754 Y4.0723 I-0.0125 J0
G1 X0.5772
G3 X0.5647 Y4.0598 I0 J-0.0125
G1 Y3.8473
G3 X0.5772 Y3.8348 I0.0125 J0
G1 X0.6351
G2 X0.6942 Y3.7954 I0 J-0.064
G3 X0.7532 Y3.7561 I0.059 J0.0246
G1 X0.8256 Y3.756
G2 X0.8722 Y3.7369 I0 J-0.0665
G3 X0.8867 Y3.737 I0.0072 J0.0074
Y3.7516 I-0.0073 J0.0073
G2 X0.8667 Y3.7991 I0.0464 J0.0475
G1 X0.8666 Y4.1081
G2 X0.8847 Y4.1537 I0.0665 J0
G3 X0.8703 Y4.1683 I-0.0075 J0.007
G2 X0.8256 Y4.1511 I-0.0447 J0.0493
G1 X0.5273
G2 X0.4795 Y4.1714 I0 J0.0665
G3 X0.4646 Y4.1715 I-0.0075 J-0.0072
X0.4649 Y4.1566 I0.0074 J-0.0073
G2 X0.4858 Y4.1083 I-0.0455 J-0.0483
G1 X0.4859 Y3.7956
G2 X0.4682 Y3.7505 I-0.0665 J0
G3 X0.4832 Y3.7361 I0.0076 J-0.0071
G2 X0.5305 Y3.7559 I0.0473 J-0.0466
G1 X0.7532 Y3.756
G3 X0.8086 Y3.8368 Z-0.1092 I0 J0.0594
G1 X0.7579 Y3.9678 Z-0.1252
G3 X0.6433 Y3.9464 Z-0.144 I-0.0553 J-0.0214
G1 X0.6432 Y3.926
G3 X0.656 Y3.9132 I0.0128 J0
G1 X0.6966 Y3.9133
G3 X0.7093 Y3.926 I0 J0.0127
G1 X0.7094 Y3.9811
G3 X0.6966 Y3.9939 I-0.0128 J0
G1 X0.656 Y3.9938
G3 X0.6433 Y3.9811 I0 J-0.0127
G1 X0.6432 Y3.9464
G2 X0.616 Y3.8923 I-0.0675 J0
G3 X0.6351 Y3.8348 I0.0191 J-0.0256
G1 X0.7754
G3 X0.7879 Y3.8473 I0 J0.0125
G1 Y4.0598
G3 X0.7754 Y4.0723 I-0.0125 J0
G1 X0.5772
G3 X0.5647 Y4.0598 I0 J-0.0125
G1 Y3.8473
G3 X0.5772 Y3.8348 I0.0125 J0
G1 X0.6351
G2 X0.6942 Y3.7954 I0 J-0.064
G3 X0.7532 Y3.7561 I0.059 J0.0246
G1 X0.8256 Y3.756
G2 X0.8722 Y3.7369 I0 J-0.0665
G3 X0.8867 Y3.737 I0.0072 J0.0074
Y3.7516 I-0.0073 J0.0073
G2 X0.8667 Y3.7991 I0.0464 J0.0475
G1 X0.8666 Y4.1081
G2 X0.8847 Y4.1537 I0.0665 J0
G3 X0.8703 Y4.1683 I-0.0075 J0.007
G2 X0.8256 Y4.1511 I-0.0447 J0.0493
G1 X0.5273
G2 X0.4795 Y4.1714 I0 J0.0665
G3 X0.4646 Y4.1715 I-0.0075 J-0.0072
X0.4649 Y4.1566 I0.0074 J-0.0073
G2 X0.4858 Y4.1083 I-0.0455 J-0.0483
G1 X0.4859 Y3.7956
G2 X0.4682 Y3.7505 I-0.0665 J0
G3 X0.4832 Y3.7361 I0.0076 J-0.0071
G2 X0.5305 Y3.7559 I0.0473 J-0.0466
G1 X0.7532 Y3.756
G3 X0.8086 Y3.8368 Z-0.1572 I0 J0.0594
G1 X0.7579 Y3.9678 Z-0.1732
G3 X0.6433 Y3.9464 Z-0.192 I-0.0553 J-0.0214
G1 X0.6432 Y3.926
G3 X0.656 Y3.9132 I0.0128 J0
G1 X0.6966 Y3.9133
G3 X0.7093 Y3.926 I0 J0.0127
G1 X0.7094 Y3.9811
G3 X0.6966 Y3.9939 I-0.0128 J0
G1 X0.656 Y3.9938
G3 X0.6433 Y3.9811 I0 J-0.0127
G1 X0.6432 Y3.9464
G2 X0.616 Y3.8923 I-0.0675 J0
G3 X0.6351 Y3.8348 I0.0191 J-0.0256
G1 X0.7754
G3 X0.7879 Y3.8473 I0 J0.0125
G1 Y4.0598
G3 X0.7754 Y4.0723 I-0.0125 J0
G1 X0.5772
G3 X0.5647 Y4.0598 I0 J-0.0125
G1 Y3.8473
G3 X0.5772 Y3.8348 I0.0125 J0
G1 X0.6351
G2 X0.6942 Y3.7954 I0 J-0.064
G3 X0.7532 Y3.7561 I0.059 J0.0246
G1 X0.8256 Y3.756
G2 X0.8722 Y3.7369 I0 J-0.0665
G3 X0.8867 Y3.737 I0.0072 J0.0074
Y3.7516 I-0.0073 J0.0073
G2 X0.8667 Y3.7991 I0.0464 J0.0475
G1 X0.8666 Y4.1081
G2 X0.8847 Y4.1537 I0.0665 J0
G3 X0.8703 Y4.1683 I-0.0075 J0.007
G2 X0.8256 Y4.1511 I-0.0447 J0.0493
G1 X0.5273
G2 X0.4795 Y4.1714 I0 J0.0665
G3 X0.4646 Y4.1715 I-0.0075 J-0.0072
X0.4649 Y4.1566 I0.0074 J-0.0073
G2 X0.4858 Y4.1083 I-0.0455 J-0.0483
G1 X0.4859 Y3.7956
G2 X0.4682 Y3.7505 I-0.0665 J0
G3 X0.4832 Y3.7361 I0.0076 J-0.0071
G2 X0.5305 Y3.7559 I0.0473 J-0.0466
G1 X0.7532 Y3.756
G3 X0.8086 Y3.8368 Z-0.2052 I0 J0.0594
G1 X0.7579 Y3.9678 Z-0.2212
G3 X0.6433 Y3.9464 Z-0.24 I-0.0553 J-0.0214
G1 X0.6432 Y3.926
G3 X0.656 Y3.9132 I0.0128 J0
G1 X0.6966 Y3.9133
G3 X0.7093 Y3.926 I0 J0.0127
G1 X0.7094 Y3.9811
G3 X0.6966 Y3.9939 I-0.0128 J0
G1 X0.656 Y3.9938
G3 X0.6433 Y3.9811 I0 J-0.0127
G1 X0.6432 Y3.9464
G2 X0.616 Y3.8923 I-0.0675 J0
G3 X0.6351 Y3.8348 I0.0191 J-0.0256
G1 X0.7754
G3 X0.7879 Y3.8473 I0 J0.0125
G1 Y4.0598
G3 X0.7754 Y4.0723 I-0.0125 J0
G1 X0.5772
G3 X0.5647 Y4.0598 I0 J-0.0125
G1 Y3.8473
G3 X0.5772 Y3.8348 I0.0125 J0
G1 X0.6351
G2 X0.6942 Y3.7954 I0 J-0.064
G3 X0.7532 Y3.7561 I0.059 J0.0246
G1 X0.8256 Y3.756
G2 X0.8722 Y3.7369 I0 J-0.0665
G3 X0.8867 Y3.737 I0.0072 J0.0074
Y3.7516 I-0.0073 J0.0073
G2 X0.8667 Y3.7991 I0.0464 J0.0475
G1 X0.8666 Y4.1081
G2 X0.8847 Y4.1537 I0.0665 J0
G3 X0.8703 Y4.1683 I-0.0075 J0.007
G2 X0.8256 Y4.1511 I-0.0447 J0.0493
G1 X0.5273
G2 X0.4795 Y4.1714 I0 J0.0665
G3 X0.4646 Y4.1715 I-0.0075 J-0.0072
X0.4649 Y4.1566 I0.0074 J-0.0073
G2 X0.4858 Y4.1083 I-0.0455 J-0.0483
G1 X0.4859 Y3.7956
G2 X0.4682 Y3.7505 I-0.0665 J0
G3 X0.4832 Y3.7361 I0.0076 J-0.0071
G2 X0.5305 Y3.7559 I0.0473 J-0.0466
G1 X0.7532 Y3.756
G3 X0.8086 Y3.8368 Z-0.2532 I0 J0.0594
G1 X0.7579 Y3.9678 Z-0.2692
G3 X0.6433 Y3.9464 Z-0.288 I-0.0553 J-0.0214
G1 X0.6432 Y3.926
G3 X0.656 Y3.9132 I0.0128 J0
G1 X0.6966 Y3.9133
G3 X0.7093 Y3.926 I0 J0.0127
G1 X0.7094 Y3.9811
G3 X0.6966 Y3.9939 I-0.0128 J0
G1 X0.656 Y3.9938
G3 X0.6433 Y3.9811 I0 J-0.0127
G1 X0.6432 Y3.9464
G2 X0.616 Y3.8923 I-0.0675 J0
G3 X0.6351 Y3.8348 I0.0191 J-0.0256
G1 X0.7754
G3 X0.7879 Y3.8473 I0 J0.0125
G1 Y4.0598
G3 X0.7754 Y4.0723 I-0.0125 J0
G1 X0.5772
G3 X0.5647 Y4.0598 I0 J-0.0125
G1 Y3.8473
G3 X0.5772 Y3.8348 I0.0125 J0
G1 X0.6351
G2 X0.6942 Y3.7954 I0 J-0.064
G3 X0.7532 Y3.7561 I0.059 J0.0246
G1 X0.8256 Y3.756
G2 X0.8722 Y3.7369 I0 J-0.0665
G3 X0.8867 Y3.737 I0.0072 J0.0074
Y3.7516 I-0.0073 J0.0073
G2 X0.8667 Y3.7991 I0.0464 J0.0475
G1 X0.8666 Y4.1081
G2 X0.8847 Y4.1537 I0.0665 J0
G3 X0.8703 Y4.1683 I-0.0075 J0.007
G2 X0.8256 Y4.1511 I-0.0447 J0.0493
G1 X0.5273
G2 X0.4795 Y4.1714 I0 J0.0665
G3 X0.4646 Y4.1715 I-0.0075 J-0.0072
X0.4649 Y4.1566 I0.0074 J-0.0073
G2 X0.4858 Y4.1083 I-0.0455 J-0.0483
G1 X0.4859 Y3.7956
G2 X0.4682 Y3.7505 I-0.0665 J0
G3 X0.4832 Y3.7361 I0.0076 J-0.0071
G2 X0.5305 Y3.7559 I0.0473 J-0.0466
G1 X0.7532 Y3.756
G3 X0.8086 Y3.8368 Z-0.3012 I0 J0.0594
G1 X0.7579 Y3.9678 Z-0.3172
G3 X0.6433 Y3.9464 Z-0.336 I-0.0553 J-0.0214
G1 X0.6432 Y3.926
G3 X0.656 Y3.9132 I0.0128 J0
G1 X0.6966 Y3.9133
G3 X0.7093 Y3.926 I0 J0.0127
G1 X0.7094 Y3.9811
G3 X0.6966 Y3.9939 I-0.0128 J0
G1 X0.656 Y3.9938
G3 X0.6433 Y3.9811 I0 J-0.0127
G1 X0.6432 Y3.9464
G2 X0.616 Y3.8923 I-0.0675 J0
G3 X0.6351 Y3.8348 I0.0191 J-0.0256
G1 X0.7754
G3 X0.7879 Y3.8473 I0 J0.0125
G1 Y4.0598
G3 X0.7754 Y4.0723 I-0.0125 J0
G1 X0.5772
G3 X0.5647 Y4.0598 I0 J-0.0125
G1 Y3.8473
G3 X0.5772 Y3.8348 I0.0125 J0
G1 X0.6351
G2 X0.6942 Y3.7954 I0 J-0.064
G3 X0.7532 Y3.7561 I0.059 J0.0246
G1 X0.8256 Y3.756
G2 X0.8722 Y3.7369 I0 J-0.0665
G3 X0.8867 Y3.737 I0.0072 J0.0074
Y3.7516 I-0.0073 J0.0073
G2 X0.8667 Y3.7991 I0.0464 J0.0475
G1 X0.8666 Y4.1081
G2 X0.8847 Y4.1537 I0.0665 J0
G3 X0.8703 Y4.1683 I-0.0075 J0.007
G2 X0.8256 Y4.1511 I-0.0447 J0.0493
G1 X0.5273
G2 X0.4795 Y4.1714 I0 J0.0665
G3 X0.4646 Y4.1715 I-0.0075 J-0.0072
X0.4649 Y4.1566 I0.0074 J-0.0073
G2 X0.4858 Y4.1083 I-0.0455 J-0.0483
G1 X0.4859 Y3.7956
G2 X0.4682 Y3.7505 I-0.0665 J0
G3 X0.4832 Y3.7361 I0.0076 J-0.0071
G2 X0.5305 Y3.7559 I0.0473 J-0.0466
G1 X0.7532 Y3.756
G3 X0.8086 Y3.8368 Z-0.3464 I0 J0.0594
G1 X0.7579 Y3.9678 Z-0.3591
G3 X0.6433 Y3.9464 Z-0.374 I-0.0553 J-0.0214
G1 X0.6432 Y3.926
G3 X0.656 Y3.9132 I0.0128 J0
G1 X0.6966 Y3.9133
G3 X0.7093 Y3.926 I0 J0.0127
G1 X0.7094 Y3.9811
G3 X0.6966 Y3.9939 I-0.0128 J0
G1 X0.656 Y3.9938
G3 X0.6433 Y3.9811 I0 J-0.0127
G1 X0.6432 Y3.9464
G2 X0.616 Y3.8923 I-0.0675 J0
G3 X0.6351 Y3.8348 I0.0191 J-0.0256
G1 X0.7754
G3 X0.7879 Y3.8473 I0 J0.0125
G1 Y4.0598
G3 X0.7754 Y4.0723 I-0.0125 J0
G1 X0.5772
G3 X0.5647 Y4.0598 I0 J-0.0125
G1 Y3.8473
G3 X0.5772 Y3.8348 I0.0125 J0
G1 X0.6351
G2 X0.6942 Y3.7954 I0 J-0.064
G3 X0.7532 Y3.7561 I0.059 J0.0246
G1 X0.8256 Y3.756
G2 X0.8722 Y3.7369 I0 J-0.0665
G3 X0.8867 Y3.737 I0.0072 J0.0074
Y3.7516 I-0.0073 J0.0073
G2 X0.8667 Y3.7991 I0.0464 J0.0475
G1 X0.8666 Y4.1081
G2 X0.8847 Y4.1537 I0.0665 J0
G3 X0.8703 Y4.1683 I-0.0075 J0.007
G2 X0.8256 Y4.1511 I-0.0447 J0.0493
G1 X0.5273
G2 X0.4795 Y4.1714 I0 J0.0665
G3 X0.4646 Y4.1715 I-0.0075 J-0.0072
X0.4649 Y4.1566 I0.0074 J-0.0073
G2 X0.4858 Y4.1083 I-0.0455 J-0.0483
G1 X0.4859 Y3.7956
G2 X0.4682 Y3.7505 I-0.0665 J0
G3 X0.4832 Y3.7361 I0.0076 J-0.0071
G2 X0.5305 Y3.7559 I0.0473 J-0.0466
G1 X0.7532 Y3.756
X0.7546 Y3.7561
X0.756 Y3.7562 Z-0.3739
X0.7573 Y3.7564 Z-0.3737
X0.7587 Y3.7566 Z-0.3734
X0.76 Y3.757 Z-0.373
X0.7613 Y3.7574 Z-0.3726
X0.7625 Y3.7578 Z-0.3721
X0.7637 Y3.7583 Z-0.3715
X0.7648 Y3.7589 Z-0.3709
X0.7658 Y3.7595 Z-0.3702
X0.7668 Y3.7601 Z-0.3694
X0.7678 Y3.7607 Z-0.3686
X0.7686 Y3.7614 Z-0.3677
X0.7694 Y3.762 Z-0.3667
X0.7701 Y3.7627 Z-0.3657
X0.7708 Y3.7633 Z-0.3646
X0.7714 Y3.7639 Z-0.3635
X0.7719 Y3.7645 Z-0.3623
X0.7724 Y3.765 Z-0.3611
X0.7728 Y3.7655 Z-0.3599
X0.7731 Y3.766 Z-0.3586
X0.7734 Y3.7664 Z-0.3573
X0.7737 Y3.7667 Z-0.3559
X0.7739 Y3.767 Z-0.3546
X0.774 Y3.7672 Z-0.3532
X0.7741 Y3.7674 Z-0.3518
X0.7742 Y3.7675 Z-0.3504
Z-0.349
G0 Z0.2

(Wall Finish)
Z0.2269
X0.8406 Y3.9707
G1 Z-0.174 F70
G18 G2 X0.8506 Z-0.184 I0.01 K0 F67.2
G1 X0.8606
G17 G2 X0.8706 Y3.9607 I0 J-0.01
G1 Y3.7991
G3 X0.8894 Y3.7544 I0.0625 J0
G2 X0.8895 Y3.7343 I-0.01 J-0.0101
X0.8695 Y3.7341 I-0.0101 J0.01
G3 X0.8256 Y3.7521 I-0.0439 J-0.0446
G1 X0.5305 Y3.752
G3 X0.486 Y3.7334 I0 J-0.0625
G2 X0.4653 Y3.7531 I-0.0102 J0.01
G3 X0.482 Y3.7956 I-0.0459 J0.0425
G1 X0.4819 Y4.1083
G3 X0.4622 Y4.1538 I-0.0625 J0
G2 X0.4619 Y4.1743 I0.0098 J0.0104
X0.4823 Y4.1741 I0.0101 J-0.0101
G3 X0.5273 Y4.155 I0.045 J0.0435
G1 X0.8256 Y4.1551
G3 X0.8676 Y4.1713 I0 J0.0625
G2 X0.8876 Y4.1509 I0.0096 J-0.0106
G3 X0.8706 Y4.1081 I0.0455 J-0.0428
G1 Y3.9607
G2 X0.8606 Y3.9507 I-0.01 J0
G1 X0.8506
G18 G3 X0.8406 Z-0.174 I0 K0.01
G1 X0.8405 Y3.8074
Z-0.358 F70
X0.8407 Z-0.3602 F67.2
X0.8415 Z-0.3624
X0.8427 Z-0.3643
X0.8442 Y3.8075 Z-0.3658
X0.8461 Z-0.367
X0.8483 Z-0.3678
X0.8505 Y3.8076 Z-0.368
X0.8605 Y3.8078
G17 G2 X0.8707 Y3.7979 I0.0002 J-0.01
G3 X0.8894 Y3.7545 I0.0624 J0.0012
G2 X0.8896 Y3.7343 I-0.01 J-0.0102
X0.8694 Y3.7341 I-0.0102 J0.01
G3 X0.8256 Y3.752 I-0.0438 J-0.0446
G1 X0.5305
G3 X0.486 Y3.7334 I0 J-0.0625
G2 X0.4653 Y3.7531 I-0.0102 J0.01
G3 X0.482 Y3.7956 I-0.0459 J0.0425
G1 X0.4819 Y4.1083
G3 X0.4622 Y4.1538 I-0.0625 J0
G2 X0.4619 Y4.1743 I0.0098 J0.0104
X0.4823 Y4.1741 I0.0101 J-0.0101
G3 X0.5273 Y4.155 I0.045 J0.0435
G1 X0.8256 Y4.1551
G3 X0.8676 Y4.1713 I0 J0.0625
G2 X0.8876 Y4.1509 I0.0096 J-0.0106
G3 X0.8706 Y4.1081 I0.0455 J-0.0428
G1 Y3.7991
Y3.7985
X0.8707 Y3.7979
G2 X0.8608 Y3.7878 I-0.01 J-0.0001
G1 X0.8508 Y3.7876
X0.8486 Y3.7875 Z-0.3678
X0.8465 Z-0.367
X0.8446 Z-0.3658
X0.843 Y3.7874 Z-0.3643
X0.8418 Z-0.3624
X0.8411 Z-0.3602
X0.8408 Z-0.358
G0 Z0.2

(Floor Finish)
X0.6837 Y3.9885
Z0.2
Z-0.264
G1 Z-0.314 F96
Z-0.324 F70
X0.6836 Y3.9884 Z-0.326
X0.6835 Z-0.3279
X0.6834 Y3.9883 Z-0.3299
X0.6833 Y3.9882 Z-0.3309
X0.6831 Y3.9881 Z-0.3318
X0.683 Y3.988 Z-0.3328
X0.6829 Y3.9879 Z-0.3338
X0.6827 Z-0.3344
X0.6826 Y3.9878 Z-0.335
X0.6825 Y3.9877 Z-0.3357
X0.6824 Y3.9876 Z-0.3363
X0.6822 Y3.9875 Z-0.337
X0.6821 Y3.9874 Z-0.3376
X0.6819 Y3.9873 Z-0.3382
X0.6818 Y3.9872 Z-0.3388
X0.6816 Y3.9871 Z-0.3395
X0.6811 Y3.9867 Z-0.3413
X0.6805 Y3.9863 Z-0.3431
X0.6799 Y3.9858 Z-0.3449
X0.6792 Y3.9853 Z-0.3467
X0.6785 Y3.9847 Z-0.3484
X0.6778 Y3.984 Z-0.3501
X0.677 Y3.9833 Z-0.3518
X0.6762 Y3.9826 Z-0.3534
X0.6753 Y3.9817 Z-0.355
X0.6744 Y3.9808 Z-0.3565
X0.6736 Y3.9799 Z-0.358
X0.6727 Y3.9789 Z-0.3594
X0.6718 Y3.9778 Z-0.3607
X0.6709 Y3.9766 Z-0.362
X0.67 Y3.9754 Z-0.3633
X0.6691 Y3.9741 Z-0.3645
X0.6682 Y3.9728 Z-0.3656
X0.6673 Y3.9713 Z-0.3666
X0.6665 Y3.9699 Z-0.3676
X0.6657 Y3.9683 Z-0.3686
X0.665 Y3.9667 Z-0.3694
X0.6643 Y3.9651 Z-0.3702
X0.6636 Y3.9633 Z-0.3709
X0.663 Y3.9616 Z-0.3716
X0.6625 Y3.9598 Z-0.3721
X0.662 Y3.9579 Z-0.3726
X0.6616 Y3.9561 Z-0.3731
X0.6613 Y3.9542 Z-0.3734
X0.661 Y3.9522 Z-0.3737
X0.6608 Y3.9503 Z-0.3739
X0.6607 Y3.9483 Z-0.374
Y3.9464
Y3.9435 F96
G3 X0.6735 Y3.9307 I0.0128 J0
G1 X0.6791 Y3.9308
G3 X0.6918 Y3.9435 I0 J0.0127
G1 X0.6919 Y3.9636
G3 X0.6791 Y3.9764 I-0.0128 J0
G1 X0.6735 Y3.9763
G3 X0.6608 Y3.9636 I0 J-0.0127
G1 X0.6607 Y3.9464
G2 X0.6403 Y3.9114 I-0.0402 J0
G3 X0.6505 Y3.8723 I0.0102 J-0.0182
G1 X0.7376
G3 X0.7503 Y3.885 I0 J0.0127
G1 X0.7504 Y4.0221
G3 X0.7376 Y4.0349 I-0.0128 J0
G1 X0.615 Y4.0348
G3 X0.6023 Y4.0221 I0 J-0.0127
G1 X0.6022 Y3.885
G3 X0.615 Y3.8722 I0.0128 J0
G1 X0.6505 Y3.8723
G2 X0.6944 Y3.843 I0 J-0.0476
G3 X0.7383 Y3.8137 I0.0439 J0.0183
G1 X0.7964 Y3.8138
G3 X0.8089 Y3.8263 I0 J0.0125
G1 Y4.0808
G3 X0.7964 Y4.0933 I-0.0125 J0
G1 X0.5562
G3 X0.5437 Y4.0808 I0 J-0.0125
G1 Y3.8263
G3 X0.5562 Y3.8138 I0.0125 J0
G1 X0.7383
G2 X0.7825 Y3.7846 I0 J-0.048
G3 X0.8264 Y3.7551 I0.0445 J0.0188
G2 X0.8716 Y3.7363 I-0.0008 J-0.0656
G3 X0.8873 Y3.7364 I0.0078 J0.008
X0.8872 Y3.7523 I-0.0079 J0.0079
G2 X0.8675 Y3.7991 I0.0459 J0.0468
G1 X0.8676 Y4.1081
G2 X0.8854 Y4.153 I0.0655 J0
G3 X0.8696 Y4.169 I-0.0082 J0.0077
G2 X0.8256 Y4.152 I-0.044 J0.0486
G1 X0.5273 Y4.1521
G2 X0.4802 Y4.1721 I0 J0.0655
G3 X0.4639 Y4.1722 I-0.0082 J-0.0079
X0.4642 Y4.1559 I0.0081 J-0.008
G2 X0.4848 Y4.1083 I-0.0448 J-0.0476
G1 X0.4849 Y3.7956
G2 X0.4675 Y3.7511 I-0.0655 J0
G3 X0.4839 Y3.7355 I0.0083 J-0.0077
G2 X0.5305 Y3.755 I0.0466 J-0.046
G1 X0.8256
X0.8264
X0.8284
X0.8303 Y3.7549 Z-0.3739
X0.8323 Y3.7547 Z-0.3737
X0.8342 Y3.7545 Z-0.3734
X0.8361 Y3.7542 Z-0.3731
X0.838 Y3.7538 Z-0.3726
X0.8399 Y3.7534 Z-0.3721
X0.8417 Y3.753 Z-0.3716
X0.8435 Y3.7525 Z-0.3709
X0.8452 Y3.752 Z-0.3702
X0.8469 Y3.7514 Z-0.3694
X0.8486 Y3.7508 Z-0.3686
X0.8502 Y3.7502 Z-0.3676
X0.8518 Y3.7496 Z-0.3666
X0.8533 Y3.7489 Z-0.3656
X0.8547 Y3.7482 Z-0.3645
X0.8561 Y3.7475 Z-0.3633
X0.8575 Y3.7467 Z-0.362
X0.8587 Y3.746 Z-0.3607
X0.8599 Y3.7453 Z-0.3594
X0.8611 Y3.7445 Z-0.358
X0.8622 Y3.7438 Z-0.3565
X0.8632 Y3.7431 Z-0.355
X0.8642 Y3.7424 Z-0.3534
X0.8651 Y3.7418 Z-0.3518
X0.8659 Y3.7411 Z-0.3501
X0.8667 Y3.7405 Z-0.3484
X0.8674 Y3.7399 Z-0.3467
X0.8681 Y3.7394 Z-0.3449
X0.8687 Y3.7388 Z-0.3431
X0.8692 Y3.7384 Z-0.3413
X0.8697 Y3.7379 Z-0.3395
X0.8701 Y3.7376 Z-0.3376
X0.8705 Y3.7372 Z-0.3357
X0.8708 Y3.7369 Z-0.3338
X0.871 Y3.7367 Z-0.3318
X0.8712 Y3.7365 Z-0.3299
X0.8713 Y3.7364 Z-0.3279
X0.8714 Y3.7363 Z-0.326
Z-0.324
G0 Z0.2

(Pocketing)
X0.7585 Y4.7138
Z0.2
Z0.055
G1 Z0.0536 F72
Y4.7139 Z0.0523
X0.7586 Y4.7141 Z0.0509
X0.7587 Y4.7143 Z0.0495
Y4.7145 Z0.0489
X0.7588 Y4.7147 Z0.0482
Y4.7149 Z0.0475
X0.7589 Y4.7151 Z0.0469
Y4.7152 Z0.0465
X0.759 Y4.7154 Z0.046
Y4.7155 Z0.0456
X0.7591 Y4.7157 Z0.0452
X0.7592 Y4.7159 Z0.0448
Y4.716 Z0.0443
X0.7593 Y4.7162 Z0.0439
Y4.7164 Z0.0435
X0.7594 Y4.7166 Z0.0431
X0.7596 Y4.7173 Z0.0419
X0.7598 Y4.718 Z0.0408
X0.76 Y4.7188 Z0.0397
X0.7602 Y4.7197 Z0.0386
X0.7604 Y4.7206 Z0.0376
X0.7606 Y4.7215 Z0.0366
X0.7609 Y4.7225 Z0.0357
X0.761 Y4.7236 Z0.0349
X0.7612 Y4.7247 Z0.0341
X0.7614 Y4.7259 Z0.0334
X0.7615 Y4.7271 Z0.0327
X0.7617 Y4.7283 Z0.0321
X0.7618 Y4.7296 Z0.0316
X0.7619 Y4.7309 Z0.0312
Y4.7322 Z0.0308
Y4.7335 Z0.0305
Y4.7349 Z0.0302
G3 X0.6433 Y4.7327 Z0.004 I-0.0593 J-0.0011
X0.7619 Y4.7349 Z-0.0222 I0.0593 J0.0011
X0.6434 Y4.7373 Z-0.0478 I-0.0593 J-0.0011
G1 X0.6432 Y4.7361 Z-0.0479
Y4.7349 Z-0.048
Y4.7338
Y4.7134
G3 X0.656 Y4.7006 I0.0128 J0
G1 X0.6966 Y4.7007
G3 X0.7093 Y4.7134 I0 J0.0127
G1 X0.7094 Y4.7685
G3 X0.6966 Y4.7813 I-0.0128 J0
G1 X0.656 Y4.7812
G3 X0.6433 Y4.7685 I0 J-0.0127
G1 X0.6432 Y4.7338
G2 X0.616 Y4.6797 I-0.0675 J0
G3 X0.6351 Y4.6222 I0.0191 J-0.0256
G1 X0.7754
G3 X0.7879 Y4.6347 I0 J0.0125
G1 Y4.8472
G3 X0.7754 Y4.8597 I-0.0125 J0
G1 X0.5772
G3 X0.5647 Y4.8472 I0 J-0.0125
G1 Y4.6347
G3 X0.5772 Y4.6222 I0.0125 J0
G1 X0.6351
G2 X0.6942 Y4.5828 I0 J-0.064
G3 X0.7532 Y4.5435 I0.059 J0.0246
G1 X0.8256 Y4.5434
G2 X0.8722 Y4.5243 I0 J-0.0665
G3 X0.8867 Y4.5244 I0.0072 J0.0074
Y4.539 I-0.0073 J0.0073
G2 X0.8667 Y4.5865 I0.0464 J0.0475
G1 X0.8666 Y4.8955
G2 X0.8847 Y4.9411 I0.0665 J0
G3 X0.8703 Y4.9557 I-0.0075 J0.007
G2 X0.8256 Y4.9385 I-0.0447 J0.0493
G1 X0.5273
G2 X0.4795 Y4.9588 I0 J0.0665
G3 X0.4646 Y4.9589 I-0.0075 J-0.0072
X0.4649 Y4.944 I0.0074 J-0.0073
G2 X0.4858 Y4.8957 I-0.0455 J-0.0483
G1 X0.4859 Y4.583
G2 X0.4682 Y4.5379 I-0.0665 J0
G3 X0.4832 Y4.5235 I0.0076 J-0.0071
G2 X0.5305 Y4.5433 I0.0473 J-0.0466
G1 X0.7532 Y4.5434
G3 X0.8086 Y4.6242 Z-0.0612 I0 J0.0594
G1 X0.7579 Y4.7552 Z-0.0772
G3 X0.6433 Y4.7338 Z-0.096 I-0.0553 J-0.0214
G1 X0.6432 Y4.7134
G3 X0.656 Y4.7006 I0.0128 J0
G1 X0.6966 Y4.7007
G3 X0.7093 Y4.7134 I0 J0.0127
G1 X0.7094 Y4.7685
G3 X0.6966 Y4.7813 I-0.0128 J0
G1 X0.656 Y4.7812
G3 X0.6433 Y4.7685 I0 J-0.0127
G1 X0.6432 Y4.7338
G2 X0.616 Y4.6797 I-0.0675 J0
G3 X0.6351 Y4.6222 I0.0191 J-0.0256
G1 X0.7754
G3 X0.7879 Y4.6347 I0 J0.0125
G1 Y4.8472
G3 X0.7754 Y4.8597 I-0.0125 J0
G1 X0.5772
G3 X0.5647 Y4.8472 I0 J-0.0125
G1 Y4.6347
G3 X0.5772 Y4.6222 I0.0125 J0
G1 X0.6351
G2 X0.6942 Y4.5828 I0 J-0.064
G3 X0.7532 Y4.5435 I0.059 J0.0246
G1 X0.8256 Y4.5434
G2 X0.8722 Y4.5243 I0 J-0.0665
G3 X0.8867 Y4.5244 I0.0072 J0.0074
Y4.539 I-0.0073 J0.0073
G2 X0.8667 Y4.5865 I0.0464 J0.0475
G1 X0.8666 Y4.8955
G2 X0.8847 Y4.9411 I0.0665 J0
G3 X0.8703 Y4.9557 I-0.0075 J0.007
G2 X0.8256 Y4.9385 I-0.0447 J0.0493
G1 X0.5273
G2 X0.4795 Y4.9588 I0 J0.0665
G3 X0.4646 Y4.9589 I-0.0075 J-0.0072
X0.4649 Y4.944 I0.0074 J-0.0073
G2 X0.4858 Y4.8957 I-0.0455 J-0.0483
G1 X0.4859 Y4.583
G2 X0.4682 Y4.5379 I-0.0665 J0
G3 X0.4832 Y4.5235 I0.0076 J-0.0071
G2 X0.5305 Y4.5433 I0.0473 J-0.0466
G1 X0.7532 Y4.5434
G3 X0.8086 Y4.6242 Z-0.1092 I0 J0.0594
G1 X0.7579 Y4.7552 Z-0.1252
G3 X0.6433 Y4.7338 Z-0.144 I-0.0553 J-0.0214
G1 X0.6432 Y4.7134
G3 X0.656 Y4.7006 I0.0128 J0
G1 X0.6966 Y4.7007
G3 X0.7093 Y4.7134 I0 J0.0127
G1 X0.7094 Y4.7685
G3 X0.6966 Y4.7813 I-0.0128 J0
G1 X0.656 Y4.7812
G3 X0.6433 Y4.7685 I0 J-0.0127
G1 X0.6432 Y4.7338
G2 X0.616 Y4.6797 I-0.0675 J0
G3 X0.6351 Y4.6222 I0.0191 J-0.0256
G1 X0.7754
G3 X0.7879 Y4.6347 I0 J0.0125
G1 Y4.8472
G3 X0.7754 Y4.8597 I-0.0125 J0
G1 X0.5772
G3 X0.5647 Y4.8472 I0 J-0.0125
G1 Y4.6347
G3 X0.5772 Y4.6222 I0.0125 J0
G1 X0.6351
G2 X0.6942 Y4.5828 I0 J-0.064
G3 X0.7532 Y4.5435 I0.059 J0.0246
G1 X0.8256 Y4.5434
G2 X0.8722 Y4.5243 I0 J-0.0665
G3 X0.8867 Y4.5244 I0.0072 J0.0074
Y4.539 I-0.0073 J0.0073
G2 X0.8667 Y4.5865 I0.0464 J0.0475
G1 X0.8666 Y4.8955
G2 X0.8847 Y4.9411 I0.0665 J0
G3 X0.8703 Y4.9557 I-0.0075 J0.007
G2 X0.8256 Y4.9385 I-0.0447 J0.0493
G1 X0.5273
G2 X0.4795 Y4.9588 I0 J0.0665
G3 X0.4646 Y4.9589 I-0.0075 J-0.0072
X0.4649 Y4.944 I0.0074 J-0.0073
G2 X0.4858 Y4.8957 I-0.0455 J-0.0483
G1 X0.4859 Y4.583
G2 X0.4682 Y4.5379 I-0.0665 J0
G3 X0.4832 Y4.5235 I0.0076 J-0.0071
G2 X0.5305 Y4.5433 I0.0473 J-0.0466
G1 X0.7532 Y4.5434
G3 X0.8086 Y4.6242 Z-0.1572 I0 J0.0594
G1 X0.7579 Y4.7552 Z-0.1732
G3 X0.6433 Y4.7338 Z-0.192 I-0.0553 J-0.0214
G1 X0.6432 Y4.7134
G3 X0.656 Y4.7006 I0.0128 J0
G1 X0.6966 Y4.7007
G3 X0.7093 Y4.7134 I0 J0.0127
G1 X0.7094 Y4.7685
G3 X0.6966 Y4.7813 I-0.0128 J0
G1 X0.656 Y4.7812
G3 X0.6433 Y4.7685 I0 J-0.0127
G1 X0.6432 Y4.7338
G2 X0.616 Y4.6797 I-0.0675 J0
G3 X0.6351 Y4.6222 I0.0191 J-0.0256
G1 X0.7754
G3 X0.7879 Y4.6347 I0 J0.0125
G1 Y4.8472
G3 X0.7754 Y4.8597 I-0.0125 J0
G1 X0.5772
G3 X0.5647 Y4.8472 I0 J-0.0125
G1 Y4.6347
G3 X0.5772 Y4.6222 I0.0125 J0
G1 X0.6351
G2 X0.6942 Y4.5828 I0 J-0.064
G3 X0.7532 Y4.5435 I0.059 J0.0246
G1 X0.8256 Y4.5434
G2 X0.8722 Y4.5243 I0 J-0.0665
G3 X0.8867 Y4.5244 I0.0072 J0.0074
Y4.539 I-0.0073 J0.0073
G2 X0.8667 Y4.5865 I0.0464 J0.0475
G1 X0.8666 Y4.8955
G2 X0.8847 Y4.9411 I0.0665 J0
G3 X0.8703 Y4.9557 I-0.0075 J0.007
G2 X0.8256 Y4.9385 I-0.0447 J0.0493
G1 X0.5273
G2 X0.4795 Y4.9588 I0 J0.0665
G3 X0.4646 Y4.9589 I-0.0075 J-0.0072
X0.4649 Y4.944 I0.0074 J-0.0073
G2 X0.4858 Y4.8957 I-0.0455 J-0.0483
G1 X0.4859 Y4.583
G2 X0.4682 Y4.5379 I-0.0665 J0
G3 X0.4832 Y4.5235 I0.0076 J-0.0071
G2 X0.5305 Y4.5433 I0.0473 J-0.0466
G1 X0.7532 Y4.5434
G3 X0.8086 Y4.6242 Z-0.2052 I0 J0.0594
G1 X0.7579 Y4.7552 Z-0.2212
G3 X0.6433 Y4.7338 Z-0.24 I-0.0553 J-0.0214
G1 X0.6432 Y4.7134
G3 X0.656 Y4.7006 I0.0128 J0
G1 X0.6966 Y4.7007
G3 X0.7093 Y4.7134 I0 J0.0127
G1 X0.7094 Y4.7685
G3 X0.6966 Y4.7813 I-0.0128 J0
G1 X0.656 Y4.7812
G3 X0.6433 Y4.7685 I0 J-0.0127
G1 X0.6432 Y4.7338
G2 X0.616 Y4.6797 I-0.0675 J0
G3 X0.6351 Y4.6222 I0.0191 J-0.0256
G1 X0.7754
G3 X0.7879 Y4.6347 I0 J0.0125
G1 Y4.8472
G3 X0.7754 Y4.8597 I-0.0125 J0
G1 X0.5772
G3 X0.5647 Y4.8472 I0 J-0.0125
G1 Y4.6347
G3 X0.5772 Y4.6222 I0.0125 J0
G1 X0.6351
G2 X0.6942 Y4.5828 I0 J-0.064
G3 X0.7532 Y4.5435 I0.059 J0.0246
G1 X0.8256 Y4.5434
G2 X0.8722 Y4.5243 I0 J-0.0665
G3 X0.8867 Y4.5244 I0.0072 J0.0074
Y4.539 I-0.0073 J0.0073
G2 X0.8667 Y4.5865 I0.0464 J0.0475
G1 X0.8666 Y4.8955
G2 X0.8847 Y4.9411 I0.0665 J0
G3 X0.8703 Y4.9557 I-0.0075 J0.007
G2 X0.8256 Y4.9385 I-0.0447 J0.0493
G1 X0.5273
G2 X0.4795 Y4.9588 I0 J0.0665
G3 X0.4646 Y4.9589 I-0.0075 J-0.0072
X0.4649 Y4.944 I0.0074 J-0.0073
G2 X0.4858 Y4.8957 I-0.0455 J-0.0483
G1 X0.4859 Y4.583
G2 X0.4682 Y4.5379 I-0.0665 J0
G3 X0.4832 Y4.5235 I0.0076 J-0.0071
G2 X0.5305 Y4.5433 I0.0473 J-0.0466
G1 X0.7532 Y4.5434
G3 X0.8086 Y4.6242 Z-0.2532 I0 J0.0594
G1 X0.7579 Y4.7552 Z-0.2692
G3 X0.6433 Y4.7338 Z-0.288 I-0.0553 J-0.0214
G1 X0.6432 Y4.7134
G3 X0.656 Y4.7006 I0.0128 J0
G1 X0.6966 Y4.7007
G3 X0.7093 Y4.7134 I0 J0.0127
G1 X0.7094 Y4.7685
G3 X0.6966 Y4.7813 I-0.0128 J0
G1 X0.656 Y4.7812
G3 X0.6433 Y4.7685 I0 J-0.0127
G1 X0.6432 Y4.7338
G2 X0.616 Y4.6797 I-0.0675 J0
G3 X0.6351 Y4.6222 I0.0191 J-0.0256
G1 X0.7754
G3 X0.7879 Y4.6347 I0 J0.0125
G1 Y4.8472
G3 X0.7754 Y4.8597 I-0.0125 J0
G1 X0.5772
G3 X0.5647 Y4.8472 I0 J-0.0125
G1 Y4.6347
G3 X0.5772 Y4.6222 I0.0125 J0
G1 X0.6351
G2 X0.6942 Y4.5828 I0 J-0.064
G3 X0.7532 Y4.5435 I0.059 J0.0246
G1 X0.8256 Y4.5434
G2 X0.8722 Y4.5243 I0 J-0.0665
G3 X0.8867 Y4.5244 I0.0072 J0.0074
Y4.539 I-0.0073 J0.0073
G2 X0.8667 Y4.5865 I0.0464 J0.0475
G1 X0.8666 Y4.8955
G2 X0.8847 Y4.9411 I0.0665 J0
G3 X0.8703 Y4.9557 I-0.0075 J0.007
G2 X0.8256 Y4.9385 I-0.0447 J0.0493
G1 X0.5273
G2 X0.4795 Y4.9588 I0 J0.0665
G3 X0.4646 Y4.9589 I-0.0075 J-0.0072
X0.4649 Y4.944 I0.0074 J-0.0073
G2 X0.4858 Y4.8957 I-0.0455 J-0.0483
G1 X0.4859 Y4.583
G2 X0.4682 Y4.5379 I-0.0665 J0
G3 X0.4832 Y4.5235 I0.0076 J-0.0071
G2 X0.5305 Y4.5433 I0.0473 J-0.0466
G1 X0.7532 Y4.5434
G3 X0.8086 Y4.6242 Z-0.3012 I0 J0.0594
G1 X0.7579 Y4.7552 Z-0.3172
G3 X0.6433 Y4.7338 Z-0.336 I-0.0553 J-0.0214
G1 X0.6432 Y4.7134
G3 X0.656 Y4.7006 I0.0128 J0
G1 X0.6966 Y4.7007
G3 X0.7093 Y4.7134 I0 J0.0127
G1 X0.7094 Y4.7685
G3 X0.6966 Y4.7813 I-0.0128 J0
G1 X0.656 Y4.7812
G3 X0.6433 Y4.7685 I0 J-0.0127
G1 X0.6432 Y4.7338
G2 X0.616 Y4.6797 I-0.0675 J0
G3 X0.6351 Y4.6222 I0.0191 J-0.0256
G1 X0.7754
G3 X0.7879 Y4.6347 I0 J0.0125
G1 Y4.8472
G3 X0.7754 Y4.8597 I-0.0125 J0
G1 X0.5772
G3 X0.5647 Y4.8472 I0 J-0.0125
G1 Y4.6347
G3 X0.5772 Y4.6222 I0.0125 J0
G1 X0.6351
G2 X0.6942 Y4.5828 I0 J-0.064
G3 X0.7532 Y4.5435 I0.059 J0.0246
G1 X0.8256 Y4.5434
G2 X0.8722 Y4.5243 I0 J-0.0665
G3 X0.8867 Y4.5244 I0.0072 J0.0074
Y4.539 I-0.0073 J0.0073
G2 X0.8667 Y4.5865 I0.0464 J0.0475
G1 X0.8666 Y4.8955
G2 X0.8847 Y4.9411 I0.0665 J0
G3 X0.8703 Y4.9557 I-0.0075 J0.007
G2 X0.8256 Y4.9385 I-0.0447 J0.0493
G1 X0.5273
G2 X0.4795 Y4.9588 I0 J0.0665
G3 X0.4646 Y4.9589 I-0.0075 J-0.0072
X0.4649 Y4.944 I0.0074 J-0.0073
G2 X0.4858 Y4.8957 I-0.0455 J-0.0483
G1 X0.4859 Y4.583
G2 X0.4682 Y4.5379 I-0.0665 J0
G3 X0.4832 Y4.5235 I0.0076 J-0.0071
G2 X0.5305 Y4.5433 I0.0473 J-0.0466
G1 X0.7532 Y4.5434
G3 X0.8086 Y4.6242 Z-0.3464 I0 J0.0594
G1 X0.7579 Y4.7552 Z-0.3591
G3 X0.6433 Y4.7338 Z-0.374 I-0.0553 J-0.0214
G1 X0.6432 Y4.7134
G3 X0.656 Y4.7006 I0.0128 J0
G1 X0.6966 Y4.7007
G3 X0.7093 Y4.7134 I0 J0.0127
G1 X0.7094 Y4.7685
G3 X0.6966 Y4.7813 I-0.0128 J0
G1 X0.656 Y4.7812
G3 X0.6433 Y4.7685 I0 J-0.0127
G1 X0.6432 Y4.7338
G2 X0.616 Y4.6797 I-0.0675 J0
G3 X0.6351 Y4.6222 I0.0191 J-0.0256
G1 X0.7754
G3 X0.7879 Y4.6347 I0 J0.0125
G1 Y4.8472
G3 X0.7754 Y4.8597 I-0.0125 J0
G1 X0.5772
G3 X0.5647 Y4.8472 I0 J-0.0125
G1 Y4.6347
G3 X0.5772 Y4.6222 I0.0125 J0
G1 X0.6351
G2 X0.6942 Y4.5828 I0 J-0.064
G3 X0.7532 Y4.5435 I0.059 J0.0246
G1 X0.8256 Y4.5434
G2 X0.8722 Y4.5243 I0 J-0.0665
G3 X0.8867 Y4.5244 I0.0072 J0.0074
Y4.539 I-0.0073 J0.0073
G2 X0.8667 Y4.5865 I0.0464 J0.0475
G1 X0.8666 Y4.8955
G2 X0.8847 Y4.9411 I0.0665 J0
G3 X0.8703 Y4.9557 I-0.0075 J0.007
G2 X0.8256 Y4.9385 I-0.0447 J0.0493
G1 X0.5273
G2 X0.4795 Y4.9588 I0 J0.0665
G3 X0.4646 Y4.9589 I-0.0075 J-0.0072
X0.4649 Y4.944 I0.0074 J-0.0073
G2 X0.4858 Y4.8957 I-0.0455 J-0.0483
G1 X0.4859 Y4.583
G2 X0.4682 Y4.5379 I-0.0665 J0
G3 X0.4832 Y4.5235 I0.0076 J-0.0071
G2 X0.5305 Y4.5433 I0.0473 J-0.0466
G1 X0.7532 Y4.5434
X0.7546 Y4.5435
X0.756 Y4.5436 Z-0.3739
X0.7573 Y4.5438 Z-0.3737
X0.7587 Y4.544 Z-0.3734
X0.76 Y4.5444 Z-0.373
X0.7613 Y4.5448 Z-0.3726
X0.7625 Y4.5452 Z-0.3721
X0.7637 Y4.5457 Z-0.3715
X0.7648 Y4.5463 Z-0.3709
X0.7658 Y4.5469 Z-0.3702
X0.7668 Y4.5475 Z-0.3694
X0.7678 Y4.5481 Z-0.3686
X0.7686 Y4.5488 Z-0.3677
X0.7694 Y4.5494 Z-0.3667
X0.7701 Y4.5501 Z-0.3657
X0.7708 Y4.5507 Z-0.3646
X0.7714 Y4.5513 Z-0.3635
X0.7719 Y4.5519 Z-0.3623
X0.7724 Y4.5524 Z-0.3611
X0.7728 Y4.5529 Z-0.3599
X0.7731 Y4.5534 Z-0.3586
X0.7734 Y4.5538 Z-0.3573
X0.7737 Y4.5541 Z-0.3559
X0.7739 Y4.5544 Z-0.3546
X0.774 Y4.5546 Z-0.3532
X0.7741 Y4.5548 Z-0.3518
X0.7742 Y4.5549 Z-0.3504
Z-0.349
G0 Z0.2

(Wall Finish)
Z0.2269
X0.8406 Y4.7581
G1 Z-0.174 F70
G18 G2 X0.8506 Z-0.184 I0.01 K0 F67.2
G1 X0.8606
G17 G2 X0.8706 Y4.7481 I0 J-0.01
G1 Y4.5865
G3 X0.8894 Y4.5418 I0.0625 J0
G2 X0.8895 Y4.5217 I-0.01 J-0.0101
X0.8695 Y4.5215 I-0.0101 J0.01
G3 X0.8256 Y4.5395 I-0.0439 J-0.0446
G1 X0.5305 Y4.5394
G3 X0.486 Y4.5208 I0 J-0.0625
G2 X0.4653 Y4.5405 I-0.0102 J0.01
G3 X0.482 Y4.583 I-0.0459 J0.0425
G1 X0.4819 Y4.8957
G3 X0.4622 Y4.9412 I-0.0625 J0
G2 X0.4619 Y4.9617 I0.0098 J0.0104
X0.4823 Y4.9615 I0.0101 J-0.0101
G3 X0.5273 Y4.9424 I0.045 J0.0435
G1 X0.8256 Y4.9425
G3 X0.8676 Y4.9587 I0 J0.0625
G2 X0.8876 Y4.9383 I0.0096 J-0.0106
G3 X0.8706 Y4.8955 I0.0455 J-0.0428
G1 Y4.7481
G2 X0.8606 Y4.7381 I-0.01 J0
G1 X0.8506
G18 G3 X0.8406 Z-0.174 I0 K0.01
G1 X0.8405 Y4.5948
Z-0.358 F70
X0.8407 Z-0.3602 F67.2
X0.8415 Z-0.3624
X0.8427 Z-0.3643
X0.8442 Y4.5949 Z-0.3658
X0.8461 Z-0.367
X0.8483 Z-0.3678
X0.8505 Y4.595 Z-0.368
X0.8605 Y4.5952
G17 G2 X0.8707 Y4.5853 I0.0002 J-0.01
G3 X0.8894 Y4.5419 I0.0624 J0.0012
G2 X0.8896 Y4.5217 I-0.01 J-0.0102
X0.8694 Y4.5215 I-0.0102 J0.01
G3 X0.8256 Y4.5394 I-0.0438 J-0.0446
G1 X0.5305
G3 X0.486 Y4.5208 I0 J-0.0625
G2 X0.4653 Y4.5405 I-0.0102 J0.01
G3 X0.482 Y4.583 I-0.0459 J0.0425
G1 X0.4819 Y4.8957
G3 X0.4622 Y4.9412 I-0.0625 J0
G2 X0.4619 Y4.9617 I0.0098 J0.0104
X0.4823 Y4.9615 I0.0101 J-0.0101
G3 X0.5273 Y4.9424 I0.045 J0.0435
G1 X0.8256 Y4.9425
G3 X0.8676 Y4.9587 I0 J0.0625
G2 X0.8876 Y4.9383 I0.0096 J-0.0106
G3 X0.8706 Y4.8955 I0.0455 J-0.0428
G1 Y4.5865
Y4.5859
X0.8707 Y4.5853
G2 X0.8608 Y4.5752 I-0.01 J-0.0001
G1 X0.8508 Y4.575
X0.8486 Z-0.3678
X0.8465 Y4.5749 Z-0.367
X0.8446 Z-0.3658
X0.843 Y4.5748 Z-0.3643
X0.8418 Z-0.3624
X0.8411 Z-0.3602
X0.8408 Z-0.358
G0 Z0.2

(Floor Finish)
X0.6837 Y4.7759
Z0.2
Z-0.264
G1 Z-0.314 F96
Z-0.324 F70
X0.6836 Y4.7758 Z-0.326
X0.6835 Z-0.3279
X0.6834 Y4.7757 Z-0.3299
X0.6833 Y4.7756 Z-0.3309
X0.6831 Y4.7755 Z-0.3318
X0.683 Y4.7754 Z-0.3328
X0.6829 Y4.7753 Z-0.3338
X0.6827 Z-0.3344
X0.6826 Y4.7752 Z-0.335
X0.6825 Y4.7751 Z-0.3357
X0.6824 Y4.775 Z-0.3363
X0.6822 Y4.7749 Z-0.337
X0.6821 Y4.7748 Z-0.3376
X0.6819 Y4.7747 Z-0.3382
X0.6818 Y4.7746 Z-0.3388
X0.6816 Y4.7745 Z-0.3395
X0.6811 Y4.7741 Z-0.3413
X0.6805 Y4.7737 Z-0.3431
X0.6799 Y4.7732 Z-0.3449
X0.6792 Y4.7727 Z-0.3467
X0.6785 Y4.7721 Z-0.3484
X0.6778 Y4.7714 Z-0.3501
X0.677 Y4.7707 Z-0.3518
X0.6762 Y4.77 Z-0.3534
X0.6753 Y4.7691 Z-0.355
X0.6744 Y4.7682 Z-0.3565
X0.6736 Y4.7673 Z-0.358
X0.6727 Y4.7663 Z-0.3594
X0.6718 Y4.7652 Z-0.3607
X0.6709 Y4.764 Z-0.362
X0.67 Y4.7628 Z-0.3633
X0.6691 Y4.7615 Z-0.3645
X0.6682 Y4.7602 Z-0.3656
X0.6673 Y4.7587 Z-0.3666
X0.6665 Y4.7573 Z-0.3676
X0.6657 Y4.7557 Z-0.3686
X0.665 Y4.7541 Z-0.3694
X0.6643 Y4.7525 Z-0.3702
X0.6636 Y4.7507 Z-0.3709
X0.663 Y4.749 Z-0.3716
X0.6625 Y4.7472 Z-0.3721
X0.662 Y4.7453 Z-0.3726
X0.6616 Y4.7435 Z-0.3731
X0.6613 Y4.7416 Z-0.3734
X0.661 Y4.7396 Z-0.3737
X0.6608 Y4.7377 Z-0.3739
X0.6607 Y4.7357 Z-0.374
Y4.7338
Y4.7309 F96
G3 X0.6735 Y4.7181 I0.0128 J0
G1 X0.6791 Y4.7182
G3 X0.6918 Y4.7309 I0 J0.0127
G1 X0.6919 Y4.751
G3 X0.6791 Y4.7638 I-0.0128 J0
G1 X0.6735 Y4.7637
G3 X0.6608 Y4.751 I0 J-0.0127
G1 X0.6607 Y4.7338
G2 X0.6403 Y4.6988 I-0.0402 J0
G3 X0.6505 Y4.6597 I0.0102 J-0.0182
G1 X0.7376
G3 X0.7503 Y4.6724 I0 J0.0127
G1 X0.7504 Y4.8095
G3 X0.7376 Y4.8223 I-0.0128 J0
G1 X0.615 Y4.8222
G3 X0.6023 Y4.8095 I0 J-0.0127
G1 X0.6022 Y4.6724
G3 X0.615 Y4.6596 I0.0128 J0
G1 X0.6505 Y4.6597
G2 X0.6944 Y4.6304 I0 J-0.0476
G3 X0.7383 Y4.6011 I0.0439 J0.0183
G1 X0.7964 Y4.6012
G3 X0.8089 Y4.6137 I0 J0.0125
G1 Y4.8682
G3 X0.7964 Y4.8807 I-0.0125 J0
G1 X0.5562
G3 X0.5437 Y4.8682 I0 J-0.0125
G1 Y4.6137
G3 X0.5562 Y4.6012 I0.0125 J0
G1 X0.7383
G2 X0.7825 Y4.572 I0 J-0.048
G3 X0.8264 Y4.5426 I0.0445 J0.0189
G2 X0.8716 Y4.5238 I-0.0008 J-0.0657
G3 X0.8873 Y4.5239 I0.0078 J0.0079
X0.8872 Y4.5396 I-0.0079 J0.0078
G2 X0.8675 Y4.5865 I0.0459 J0.0469
G1 X0.8676 Y4.8955
G2 X0.8854 Y4.9404 I0.0655 J0
G3 X0.8696 Y4.9564 I-0.0082 J0.0077
G2 X0.8256 Y4.9394 I-0.044 J0.0486
G1 X0.5273 Y4.9395
G2 X0.4802 Y4.9595 I0 J0.0655
G3 X0.4639 Y4.9596 I-0.0082 J-0.0079
X0.4642 Y4.9433 I0.0081 J-0.008
G2 X0.4848 Y4.8957 I-0.0448 J-0.0476
G1 X0.4849 Y4.583
G2 X0.4675 Y4.5385 I-0.0655 J0
G3 X0.4839 Y4.5229 I0.0083 J-0.0077
G2 X0.5305 Y4.5424 I0.0466 J-0.046
G1 X0.8256
X0.8264
X0.8284
X0.8303 Y4.5423 Z-0.3739
X0.8323 Y4.5421 Z-0.3737
X0.8342 Y4.5419 Z-0.3734
X0.8361 Y4.5416 Z-0.3731
X0.838 Y4.5412 Z-0.3726
X0.8399 Y4.5408 Z-0.3721
X0.8417 Y4.5404 Z-0.3716
X0.8435 Y4.5399 Z-0.3709
X0.8452 Y4.5394 Z-0.3702
X0.8469 Y4.5388 Z-0.3694
X0.8486 Y4.5382 Z-0.3686
X0.8502 Y4.5376 Z-0.3676
X0.8518 Y4.537 Z-0.3666
X0.8533 Y4.5363 Z-0.3656
X0.8547 Y4.5356 Z-0.3645
X0.8561 Y4.5349 Z-0.3633
X0.8575 Y4.5341 Z-0.362
X0.8587 Y4.5334 Z-0.3607
X0.8599 Y4.5327 Z-0.3594
X0.8611 Y4.5319 Z-0.358
X0.8622 Y4.5312 Z-0.3565
X0.8632 Y4.5305 Z-0.355
X0.8642 Y4.5298 Z-0.3534
X0.8651 Y4.5292 Z-0.3518
X0.8659 Y4.5285 Z-0.3501
X0.8667 Y4.5279 Z-0.3484
X0.8674 Y4.5273 Z-0.3467
X0.8681 Y4.5268 Z-0.3449
X0.8687 Y4.5262 Z-0.3431
X0.8692 Y4.5258 Z-0.3413
X0.8697 Y4.5253 Z-0.3395
X0.8701 Y4.525 Z-0.3376
X0.8705 Y4.5246 Z-0.3357
X0.8708 Y4.5243 Z-0.3338
X0.871 Y4.5241 Z-0.3318
X0.8712 Y4.5239 Z-0.3299
X0.8713 Y4.5238 Z-0.3279
X0.8714 Y4.5237 Z-0.326
Z-0.324
G0 Z0.2

(Pocketing)
X0.7585 Y5.5012
Z0.2
Z0.055
G1 Z0.0536 F72
Y5.5013 Z0.0523
X0.7586 Y5.5015 Z0.0509
X0.7587 Y5.5018 Z0.0495
Y5.5019 Z0.0489
X0.7588 Y5.5021 Z0.0482
Y5.5023 Z0.0475
X0.7589 Y5.5025 Z0.0469
Y5.5026 Z0.0465
X0.759 Y5.5028 Z0.046
Y5.5029 Z0.0456
X0.7591 Y5.5031 Z0.0452
X0.7592 Y5.5033 Z0.0448
Y5.5034 Z0.0443
X0.7593 Y5.5036 Z0.0439
Y5.5038 Z0.0435
X0.7594 Y5.504 Z0.0431
X0.7596 Y5.5047 Z0.0419
X0.7598 Y5.5054 Z0.0408
X0.76 Y5.5062 Z0.0397
X0.7602 Y5.5071 Z0.0386
X0.7604 Y5.508 Z0.0376
X0.7606 Y5.5089 Z0.0366
X0.7609 Y5.5099 Z0.0357
X0.761 Y5.511 Z0.0349
X0.7612 Y5.5121 Z0.0341
X0.7614 Y5.5133 Z0.0334
X0.7615 Y5.5145 Z0.0327
X0.7617 Y5.5157 Z0.0321
X0.7618 Y5.517 Z0.0316
X0.7619 Y5.5183 Z0.0312
Y5.5196 Z0.0308
Y5.5209 Z0.0305
Y5.5223 Z0.0302
G3 X0.6433 Y5.5201 Z0.004 I-0.0593 J-0.0011
X0.7619 Y5.5223 Z-0.0222 I0.0593 J0.0011
X0.6434 Y5.5247 Z-0.0478 I-0.0593 J-0.0011
G1 X0.6432 Y5.5235 Z-0.0479
Y5.5223 Z-0.048
Y5.5212
Y5.5008
G3 X0.656 Y5.488 I0.0128 J0
G1 X0.6966 Y5.4881
G3 X0.7093 Y5.5008 I0 J0.0127
G1 X0.7094 Y5.5559
G3 X0.6966 Y5.5687 I-0.0128 J0
G1 X0.656 Y5.5686
G3 X0.6433 Y5.5559 I0 J-0.0127
G1 X0.6432 Y5.5212
G2 X0.616 Y5.4671 I-0.0675 J0
G3 X0.6351 Y5.4096 I0.0191 J-0.0256
G1 X0.7754
G3 X0.7879 Y5.4221 I0 J0.0125
G1 Y5.6346
G3 X0.7754 Y5.6471 I-0.0125 J0
G1 X0.5772
G3 X0.5647 Y5.6346 I0 J-0.0125
G1 Y5.4221
G3 X0.5772 Y5.4096 I0.0125 J0
G1 X0.6351
G2 X0.6942 Y5.3702 I0 J-0.064
G3 X0.7532 Y5.3309 I0.059 J0.0246
G1 X0.8256 Y5.3308
G2 X0.8722 Y5.3117 I0 J-0.0665
G3 X0.8867 Y5.3118 I0.0072 J0.0074
Y5.3264 I-0.0073 J0.0073
G2 X0.8667 Y5.3739 I0.0464 J0.0475
G1 X0.8666 Y5.6829
G2 X0.8847 Y5.7285 I0.0665 J0
G3 X0.8703 Y5.7431 I-0.0075 J0.007
G2 X0.8256 Y5.7259 I-0.0447 J0.0493
G1 X0.5273
G2 X0.4795 Y5.7462 I0 J0.0665
G3 X0.4646 Y5.7463 I-0.0075 J-0.0072
X0.4649 Y5.7314 I0.0074 J-0.0073
G2 X0.4858 Y5.6831 I-0.0455 J-0.0483
G1 X0.4859 Y5.3704
G2 X0.4682 Y5.3253 I-0.0665 J0
G3 X0.4832 Y5.3109 I0.0076 J-0.0071
G2 X0.5305 Y5.3307 I0.0473 J-0.0466
G1 X0.7532 Y5.3308
G3 X0.8086 Y5.4116 Z-0.0612 I0 J0.0594
G1 X0.7579 Y5.5426 Z-0.0772
G3 X0.6433 Y5.5212 Z-0.096 I-0.0553 J-0.0214
G1 X0.6432 Y5.5008
G3 X0.656 Y5.488 I0.0128 J0
G1 X0.6966 Y5.4881
G3 X0.7093 Y5.5008 I0 J0.0127
G1 X0.7094 Y5.5559
G3 X0.6966 Y5.5687 I-0.0128 J0
G1 X0.656 Y5.5686
G3 X0.6433 Y5.5559 I0 J-0.0127
G1 X0.6432 Y5.5212
G2 X0.616 Y5.4671 I-0.0675 J0
G3 X0.6351 Y5.4096 I0.0191 J-0.0256
G1 X0.7754
G3 X0.7879 Y5.4221 I0 J0.0125
G1 Y5.6346
G3 X0.7754 Y5.6471 I-0.0125 J0
G1 X0.5772
G3 X0.5647 Y5.6346 I0 J-0.0125
G1 Y5.4221
G3 X0.5772 Y5.4096 I0.0125 J0
G1 X0.6351
G2 X0.6942 Y5.3702 I0 J-0.064
G3 X0.7532 Y5.3309 I0.059 J0.0246
G1 X0.8256 Y5.3308
G2 X0.8722 Y5.3117 I0 J-0.0665
G3 X0.8867 Y5.3118 I0.0072 J0.0074
Y5.3264 I-0.0073 J0.0073
G2 X0.8667 Y5.3739 I0.0464 J0.0475
G1 X0.8666 Y5.6829
G2 X0.8847 Y5.7285 I0.0665 J0
G3 X0.8703 Y5.7431 I-0.0075 J0.007
G2 X0.8256 Y5.7259 I-0.0447 J0.0493
G1 X0.5273
G2 X0.4795 Y5.7462 I0 J0.0665
G3 X0.4646 Y5.7463 I-0.0075 J-0.0072
X0.4649 Y5.7314 I0.0074 J-0.0073
G2 X0.4858 Y5.6831 I-0.0455 J-0.0483
G1 X0.4859 Y5.3704
G2 X0.4682 Y5.3253 I-0.0665 J0
G3 X0.4832 Y5.3109 I0.0076 J-0.0071
G2 X0.5305 Y5.3307 I0.0473 J-0.0466
G1 X0.7532 Y5.3308
G3 X0.8086 Y5.4116 Z-0.1092 I0 J0.0594
G1 X0.7579 Y5.5426 Z-0.1252
G3 X0.6433 Y5.5212 Z-0.144 I-0.0553 J-0.0214
G1 X0.6432 Y5.5008
G3 X0.656 Y5.488 I0.0128 J0
G1 X0.6966 Y5.4881
G3 X0.7093 Y5.5008 I0 J0.0127
G1 X0.7094 Y5.5559
G3 X0.6966 Y5.5687 I-0.0128 J0
G1 X0.656 Y5.5686
G3 X0.6433 Y5.5559 I0 J-0.0127
G1 X0.6432 Y5.5212
G2 X0.616 Y5.4671 I-0.0675 J0
G3 X0.6351 Y5.4096 I0.0191 J-0.0256
G1 X0.7754
G3 X0.7879 Y5.4221 I0 J0.0125
G1 Y5.6346
G3 X0.7754 Y5.6471 I-0.0125 J0
G1 X0.5772
G3 X0.5647 Y5.6346 I0 J-0.0125
G1 Y5.4221
G3 X0.5772 Y5.4096 I0.0125 J0
G1 X0.6351
G2 X0.6942 Y5.3702 I0 J-0.064
G3 X0.7532 Y5.3309 I0.059 J0.0246
G1 X0.8256 Y5.3308
G2 X0.8722 Y5.3117 I0 J-0.0665
G3 X0.8867 Y5.3118 I0.0072 J0.0074
Y5.3264 I-0.0073 J0.0073
G2 X0.8667 Y5.3739 I0.0464 J0.0475
G1 X0.8666 Y5.6829
G2 X0.8847 Y5.7285 I0.0665 J0
G3 X0.8703 Y5.7431 I-0.0075 J0.007
G2 X0.8256 Y5.7259 I-0.0447 J0.0493
G1 X0.5273
G2 X0.4795 Y5.7462 I0 J0.0665
G3 X0.4646 Y5.7463 I-0.0075 J-0.0072
X0.4649 Y5.7314 I0.0074 J-0.0073
G2 X0.4858 Y5.6831 I-0.0455 J-0.0483
G1 X0.4859 Y5.3704
G2 X0.4682 Y5.3253 I-0.0665 J0
G3 X0.4832 Y5.3109 I0.0076 J-0.0071
G2 X0.5305 Y5.3307 I0.0473 J-0.0466
G1 X0.7532 Y5.3308
G3 X0.8086 Y5.4116 Z-0.1572 I0 J0.0594
G1 X0.7579 Y5.5426 Z-0.1732
G3 X0.6433 Y5.5212 Z-0.192 I-0.0553 J-0.0214
G1 X0.6432 Y5.5008
G3 X0.656 Y5.488 I0.0128 J0
G1 X0.6966 Y5.4881
G3 X0.7093 Y5.5008 I0 J0.0127
G1 X0.7094 Y5.5559
G3 X0.6966 Y5.5687 I-0.0128 J0
G1 X0.656 Y5.5686
G3 X0.6433 Y5.5559 I0 J-0.0127
G1 X0.6432 Y5.5212
G2 X0.616 Y5.4671 I-0.0675 J0
G3 X0.6351 Y5.4096 I0.0191 J-0.0256
G1 X0.7754
G3 X0.7879 Y5.4221 I0 J0.0125
G1 Y5.6346
G3 X0.7754 Y5.6471 I-0.0125 J0
G1 X0.5772
G3 X0.5647 Y5.6346 I0 J-0.0125
G1 Y5.4221
G3 X0.5772 Y5.4096 I0.0125 J0
G1 X0.6351
G2 X0.6942 Y5.3702 I0 J-0.064
G3 X0.7532 Y5.3309 I0.059 J0.0246
G1 X0.8256 Y5.3308
G2 X0.8722 Y5.3117 I0 J-0.0665
G3 X0.8867 Y5.3118 I0.0072 J0.0074
Y5.3264 I-0.0073 J0.0073
G2 X0.8667 Y5.3739 I0.0464 J0.0475
G1 X0.8666 Y5.6829
G2 X0.8847 Y5.7285 I0.0665 J0
G3 X0.8703 Y5.7431 I-0.0075 J0.007
G2 X0.8256 Y5.7259 I-0.0447 J0.0493
G1 X0.5273
G2 X0.4795 Y5.7462 I0 J0.0665
G3 X0.4646 Y5.7463 I-0.0075 J-0.0072
X0.4649 Y5.7314 I0.0074 J-0.0073
G2 X0.4858 Y5.6831 I-0.0455 J-0.0483
G1 X0.4859 Y5.3704
G2 X0.4682 Y5.3253 I-0.0665 J0
G3 X0.4832 Y5.3109 I0.0076 J-0.0071
G2 X0.5305 Y5.3307 I0.0473 J-0.0466
G1 X0.7532 Y5.3308
G3 X0.8086 Y5.4116 Z-0.2052 I0 J0.0594
G1 X0.7579 Y5.5426 Z-0.2212
G3 X0.6433 Y5.5212 Z-0.24 I-0.0553 J-0.0214
G1 X0.6432 Y5.5008
G3 X0.656 Y5.488 I0.0128 J0
G1 X0.6966 Y5.4881
G3 X0.7093 Y5.5008 I0 J0.0127
G1 X0.7094 Y5.5559
G3 X0.6966 Y5.5687 I-0.0128 J0
G1 X0.656 Y5.5686
G3 X0.6433 Y5.5559 I0 J-0.0127
G1 X0.6432 Y5.5212
G2 X0.616 Y5.4671 I-0.0675 J0
G3 X0.6351 Y5.4096 I0.0191 J-0.0256
G1 X0.7754
G3 X0.7879 Y5.4221 I0 J0.0125
G1 Y5.6346
G3 X0.7754 Y5.6471 I-0.0125 J0
G1 X0.5772
G3 X0.5647 Y5.6346 I0 J-0.0125
G1 Y5.4221
G3 X0.5772 Y5.4096 I0.0125 J0
G1 X0.6351
G2 X0.6942 Y5.3702 I0 J-0.064
G3 X0.7532 Y5.3309 I0.059 J0.0246
G1 X0.8256 Y5.3308
G2 X0.8722 Y5.3117 I0 J-0.0665
G3 X0.8867 Y5.3118 I0.0072 J0.0074
Y5.3264 I-0.0073 J0.0073
G2 X0.8667 Y5.3739 I0.0464 J0.0475
G1 X0.8666 Y5.6829
G2 X0.8847 Y5.7285 I0.0665 J0
G3 X0.8703 Y5.7431 I-0.0075 J0.007
G2 X0.8256 Y5.7259 I-0.0447 J0.0493
G1 X0.5273
G2 X0.4795 Y5.7462 I0 J0.0665
G3 X0.4646 Y5.7463 I-0.0075 J-0.0072
X0.4649 Y5.7314 I0.0074 J-0.0073
G2 X0.4858 Y5.6831 I-0.0455 J-0.0483
G1 X0.4859 Y5.3704
G2 X0.4682 Y5.3253 I-0.0665 J0
G3 X0.4832 Y5.3109 I0.0076 J-0.0071
G2 X0.5305 Y5.3307 I0.0473 J-0.0466
G1 X0.7532 Y5.3308
G3 X0.8086 Y5.4116 Z-0.2532 I0 J0.0594
G1 X0.7579 Y5.5426 Z-0.2692
G3 X0.6433 Y5.5212 Z-0.288 I-0.0553 J-0.0214
G1 X0.6432 Y5.5008
G3 X0.656 Y5.488 I0.0128 J0
G1 X0.6966 Y5.4881
G3 X0.7093 Y5.5008 I0 J0.0127
G1 X0.7094 Y5.5559
G3 X0.6966 Y5.5687 I-0.0128 J0
G1 X0.656 Y5.5686
G3 X0.6433 Y5.5559 I0 J-0.0127
G1 X0.6432 Y5.5212
G2 X0.616 Y5.4671 I-0.0675 J0
G3 X0.6351 Y5.4096 I0.0191 J-0.0256
G1 X0.7754
G3 X0.7879 Y5.4221 I0 J0.0125
G1 Y5.6346
G3 X0.7754 Y5.6471 I-0.0125 J0
G1 X0.5772
G3 X0.5647 Y5.6346 I0 J-0.0125
G1 Y5.4221
G3 X0.5772 Y5.4096 I0.0125 J0
G1 X0.6351
G2 X0.6942 Y5.3702 I0 J-0.064
G3 X0.7532 Y5.3309 I0.059 J0.0246
G1 X0.8256 Y5.3308
G2 X0.8722 Y5.3117 I0 J-0.0665
G3 X0.8867 Y5.3118 I0.0072 J0.0074
Y5.3264 I-0.0073 J0.0073
G2 X0.8667 Y5.3739 I0.0464 J0.0475
G1 X0.8666 Y5.6829
G2 X0.8847 Y5.7285 I0.0665 J0
G3 X0.8703 Y5.7431 I-0.0075 J0.007
G2 X0.8256 Y5.7259 I-0.0447 J0.0493
G1 X0.5273
G2 X0.4795 Y5.7462 I0 J0.0665
G3 X0.4646 Y5.7463 I-0.0075 J-0.0072
X0.4649 Y5.7314 I0.0074 J-0.0073
G2 X0.4858 Y5.6831 I-0.0455 J-0.0483
G1 X0.4859 Y5.3704
G2 X0.4682 Y5.3253 I-0.0665 J0
G3 X0.4832 Y5.3109 I0.0076 J-0.0071
G2 X0.5305 Y5.3307 I0.0473 J-0.0466
G1 X0.7532 Y5.3308
G3 X0.8086 Y5.4116 Z-0.3012 I0 J0.0594
G1 X0.7579 Y5.5426 Z-0.3172
G3 X0.6433 Y5.5212 Z-0.336 I-0.0553 J-0.0214
G1 X0.6432 Y5.5008
G3 X0.656 Y5.488 I0.0128 J0
G1 X0.6966 Y5.4881
G3 X0.7093 Y5.5008 I0 J0.0127
G1 X0.7094 Y5.5559
G3 X0.6966 Y5.5687 I-0.0128 J0
G1 X0.656 Y5.5686
G3 X0.6433 Y5.5559 I0 J-0.0127
G1 X0.6432 Y5.5212
G2 X0.616 Y5.4671 I-0.0675 J0
G3 X0.6351 Y5.4096 I0.0191 J-0.0256
G1 X0.7754
G3 X0.7879 Y5.4221 I0 J0.0125
G1 Y5.6346
G3 X0.7754 Y5.6471 I-0.0125 J0
G1 X0.5772
G3 X0.5647 Y5.6346 I0 J-0.0125
G1 Y5.4221
G3 X0.5772 Y5.4096 I0.0125 J0
G1 X0.6351
G2 X0.6942 Y5.3702 I0 J-0.064
G3 X0.7532 Y5.3309 I0.059 J0.0246
G1 X0.8256 Y5.3308
G2 X0.8722 Y5.3117 I0 J-0.0665
G3 X0.8867 Y5.3118 I0.0072 J0.0074
Y5.3264 I-0.0073 J0.0073
G2 X0.8667 Y5.3739 I0.0464 J0.0475
G1 X0.8666 Y5.6829
G2 X0.8847 Y5.7285 I0.0665 J0
G3 X0.8703 Y5.7431 I-0.0075 J0.007
G2 X0.8256 Y5.7259 I-0.0447 J0.0493
G1 X0.5273
G2 X0.4795 Y5.7462 I0 J0.0665
G3 X0.4646 Y5.7463 I-0.0075 J-0.0072
X0.4649 Y5.7314 I0.0074 J-0.0073
G2 X0.4858 Y5.6831 I-0.0455 J-0.0483
G1 X0.4859 Y5.3704
G2 X0.4682 Y5.3253 I-0.0665 J0
G3 X0.4832 Y5.3109 I0.0076 J-0.0071
G2 X0.5305 Y5.3307 I0.0473 J-0.0466
G1 X0.7532 Y5.3308
G3 X0.8086 Y5.4116 Z-0.3464 I0 J0.0594
G1 X0.7579 Y5.5426 Z-0.3591
G3 X0.6433 Y5.5212 Z-0.374 I-0.0553 J-0.0214
G1 X0.6432 Y5.5008
G3 X0.656 Y5.488 I0.0128 J0
G1 X0.6966 Y5.4881
G3 X0.7093 Y5.5008 I0 J0.0127
G1 X0.7094 Y5.5559
G3 X0.6966 Y5.5687 I-0.0128 J0
G1 X0.656 Y5.5686
G3 X0.6433 Y5.5559 I0 J-0.0127
G1 X0.6432 Y5.5212
G2 X0.616 Y5.4671 I-0.0675 J0
G3 X0.6351 Y5.4096 I0.0191 J-0.0256
G1 X0.7754
G3 X0.7879 Y5.4221 I0 J0.0125
G1 Y5.6346
G3 X0.7754 Y5.6471 I-0.0125 J0
G1 X0.5772
G3 X0.5647 Y5.6346 I0 J-0.0125
G1 Y5.4221
G3 X0.5772 Y5.4096 I0.0125 J0
G1 X0.6351
G2 X0.6942 Y5.3702 I0 J-0.064
G3 X0.7532 Y5.3309 I0.059 J0.0246
G1 X0.8256 Y5.3308
G2 X0.8722 Y5.3117 I0 J-0.0665
G3 X0.8867 Y5.3118 I0.0072 J0.0074
Y5.3264 I-0.0073 J0.0073
G2 X0.8667 Y5.3739 I0.0464 J0.0475
G1 X0.8666 Y5.6829
G2 X0.8847 Y5.7285 I0.0665 J0
G3 X0.8703 Y5.7431 I-0.0075 J0.007
G2 X0.8256 Y5.7259 I-0.0447 J0.0493
G1 X0.5273
G2 X0.4795 Y5.7462 I0 J0.0665
G3 X0.4646 Y5.7463 I-0.0075 J-0.0072
X0.4649 Y5.7314 I0.0074 J-0.0073
G2 X0.4858 Y5.6831 I-0.0455 J-0.0483
G1 X0.4859 Y5.3704
G2 X0.4682 Y5.3253 I-0.0665 J0
G3 X0.4832 Y5.3109 I0.0076 J-0.0071
G2 X0.5305 Y5.3307 I0.0473 J-0.0466
G1 X0.7532 Y5.3308
X0.7546 Y5.3309
X0.756 Y5.331 Z-0.3739
X0.7573 Y5.3312 Z-0.3737
X0.7587 Y5.3314 Z-0.3734
X0.76 Y5.3318 Z-0.373
X0.7613 Y5.3322 Z-0.3726
X0.7625 Y5.3326 Z-0.3721
X0.7637 Y5.3331 Z-0.3715
X0.7648 Y5.3337 Z-0.3709
X0.7658 Y5.3343 Z-0.3702
X0.7668 Y5.3349 Z-0.3694
X0.7678 Y5.3355 Z-0.3686
X0.7686 Y5.3362 Z-0.3677
X0.7694 Y5.3368 Z-0.3667
X0.7701 Y5.3375 Z-0.3657
X0.7708 Y5.3381 Z-0.3646
X0.7714 Y5.3387 Z-0.3635
X0.7719 Y5.3393 Z-0.3623
X0.7724 Y5.3398 Z-0.3611
X0.7728 Y5.3403 Z-0.3599
X0.7731 Y5.3408 Z-0.3586
X0.7734 Y5.3412 Z-0.3573
X0.7737 Y5.3415 Z-0.3559
X0.7739 Y5.3418 Z-0.3546
X0.774 Y5.342 Z-0.3532
X0.7741 Y5.3422 Z-0.3518
X0.7742 Y5.3423 Z-0.3504
Z-0.349
G0 Z0.2

(Wall Finish)
Z0.2269
X0.8406 Y5.5455
G1 Z-0.174 F70
G18 G2 X0.8506 Z-0.184 I0.01 K0 F67.2
G1 X0.8606
G17 G2 X0.8706 Y5.5355 I0 J-0.01
G1 Y5.3739
G3 X0.8894 Y5.3292 I0.0625 J0
G2 X0.8895 Y5.3091 I-0.01 J-0.0101
X0.8695 Y5.3089 I-0.0101 J0.01
G3 X0.8256 Y5.3269 I-0.0439 J-0.0446
G1 X0.5305 Y5.3268
G3 X0.486 Y5.3082 I0 J-0.0625
G2 X0.4653 Y5.3279 I-0.0102 J0.01
G3 X0.482 Y5.3704 I-0.0459 J0.0425
G1 X0.4819 Y5.6831
G3 X0.4622 Y5.7286 I-0.0625 J0
G2 X0.4619 Y5.7491 I0.0098 J0.0104
X0.4823 Y5.7489 I0.0101 J-0.0101
G3 X0.5273 Y5.7298 I0.045 J0.0435
G1 X0.8256 Y5.7299
G3 X0.8676 Y5.7461 I0 J0.0625
G2 X0.8876 Y5.7257 I0.0096 J-0.0106
G3 X0.8706 Y5.6829 I0.0455 J-0.0428
G1 Y5.5355
G2 X0.8606 Y5.5255 I-0.01 J0
G1 X0.8506
G18 G3 X0.8406 Z-0.174 I0 K0.01
G1 X0.8405 Y5.3822
Z-0.358 F70
X0.8407 Z-0.3602 F67.2
X0.8415 Z-0.3624
X0.8427 Z-0.3643
X0.8442 Y5.3823 Z-0.3658
X0.8461 Z-0.367
X0.8483 Z-0.3678
X0.8505 Y5.3824 Z-0.368
X0.8605 Y5.3826
G17 G2 X0.8707 Y5.3728 I0.0002 J-0.01
G3 X0.8894 Y5.3293 I0.0624 J0.0011
G2 X0.8896 Y5.3091 I-0.01 J-0.0102
X0.8694 Y5.3089 I-0.0102 J0.01
G3 X0.8256 Y5.3268 I-0.0438 J-0.0446
G1 X0.5305
G3 X0.486 Y5.3082 I0 J-0.0625
G2 X0.4653 Y5.3279 I-0.0102 J0.01
G3 X0.482 Y5.3704 I-0.0459 J0.0425
G1 X0.4819 Y5.6831
G3 X0.4622 Y5.7286 I-0.0625 J0
G2 X0.4619 Y5.7491 I0.0098 J0.0104
X0.4823 Y5.7489 I0.0101 J-0.0101
G3 X0.5273 Y5.7298 I0.045 J0.0435
G1 X0.8256 Y5.7299
G3 X0.8676 Y5.7461 I0 J0.0625
G2 X0.8876 Y5.7257 I0.0096 J-0.0106
G3 X0.8706 Y5.6829 I0.0455 J-0.0428
G1 Y5.3739
Y5.3733
X0.8707 Y5.3727
G2 X0.8608 Y5.3626 I-0.01 J-0.0001
G1 X0.8508 Y5.3624
X0.8486 Z-0.3678
X0.8465 Y5.3623 Z-0.367
X0.8446 Z-0.3658
X0.843 Z-0.3643
X0.8418 Y5.3622 Z-0.3624
X0.8411 Z-0.3602
X0.8408 Z-0.358
G0 Z0.2

(Floor Finish)
X0.6837 Y5.5633
Z0.2
Z-0.264
G1 Z-0.314 F96
Z-0.324 F70
X0.6836 Y5.5632 Z-0.326
X0.6835 Z-0.3279
X0.6834 Y5.5631 Z-0.3299
X0.6833 Y5.563 Z-0.3309
X0.6831 Y5.5629 Z-0.3318
X0.683 Y5.5628 Z-0.3328
X0.6829 Y5.5627 Z-0.3338
X0.6827 Z-0.3344
X0.6826 Y5.5626 Z-0.335
X0.6825 Y5.5625 Z-0.3357
X0.6824 Y5.5624 Z-0.3363
X0.6822 Y5.5623 Z-0.337
X0.6821 Y5.5622 Z-0.3376
X0.6819 Y5.5621 Z-0.3382
X0.6818 Y5.562 Z-0.3388
X0.6816 Y5.5619 Z-0.3395
X0.6811 Y5.5615 Z-0.3413
X0.6805 Y5.5611 Z-0.3431
X0.6799 Y5.5606 Z-0.3449
X0.6792 Y5.5601 Z-0.3467
X0.6785 Y5.5595 Z-0.3484
X0.6778 Y5.5588 Z-0.3501
X0.677 Y5.5581 Z-0.3518
X0.6762 Y5.5574 Z-0.3534
X0.6753 Y5.5565 Z-0.355
X0.6744 Y5.5556 Z-0.3565
X0.6736 Y5.5547 Z-0.358
X0.6727 Y5.5537 Z-0.3594
X0.6718 Y5.5526 Z-0.3607
X0.6709 Y5.5514 Z-0.362
X0.67 Y5.5502 Z-0.3633
X0.6691 Y5.5489 Z-0.3645
X0.6682 Y5.5476 Z-0.3656
X0.6673 Y5.5461 Z-0.3666
X0.6665 Y5.5447 Z-0.3676
X0.6657 Y5.5431 Z-0.3686
X0.665 Y5.5415 Z-0.3694
X0.6643 Y5.5399 Z-0.3702
X0.6636 Y5.5381 Z-0.3709
X0.663 Y5.5364 Z-0.3716
X0.6625 Y5.5346 Z-0.3721
X0.662 Y5.5328 Z-0.3726
X0.6616 Y5.5309 Z-0.3731
X0.6613 Y5.529 Z-0.3734
X0.661 Y5.527 Z-0.3737
X0.6608 Y5.5251 Z-0.3739
X0.6607 Y5.5231 Z-0.374
Y5.5212
Y5.5183 F96
G3 X0.6735 Y5.5055 I0.0128 J0
G1 X0.6791 Y5.5056
G3 X0.6918 Y5.5183 I0 J0.0127
G1 X0.6919 Y5.5384
G3 X0.6791 Y5.5512 I-0.0128 J0
G1 X0.6735 Y5.5511
G3 X0.6608 Y5.5384 I0 J-0.0127
G1 X0.6607 Y5.5212
G2 X0.6403 Y5.4862 I-0.0402 J0
G3 X0.6505 Y5.4471 I0.0102 J-0.0182
G1 X0.7376
G3 X0.7503 Y5.4598 I0 J0.0127
G1 X0.7504 Y5.5969
G3 X0.7376 Y5.6097 I-0.0128 J0
G1 X0.615 Y5.6096
G3 X0.6023 Y5.5969 I0 J-0.0127
G1 X0.6022 Y5.4598
G3 X0.615 Y5.447 I0.0128 J0
G1 X0.6505 Y5.4471
G2 X0.6944 Y5.4178 I0 J-0.0476
G3 X0.7383 Y5.3885 I0.0439 J0.0183
G1 X0.7964 Y5.3886
G3 X0.8089 Y5.4011 I0 J0.0125
G1 Y5.6556
G3 X0.7964 Y5.6681 I-0.0125 J0
G1 X0.5562
G3 X0.5437 Y5.6556 I0 J-0.0125
G1 Y5.4011
G3 X0.5562 Y5.3886 I0.0125 J0
G1 X0.7383
G2 X0.7825 Y5.3594 I0 J-0.048
G3 X0.8264 Y5.33 I0.0445 J0.0189
G2 X0.8716 Y5.3112 I-0.0008 J-0.0657
G3 X0.8873 Y5.3113 I0.0078 J0.0079
X0.8872 Y5.327 I-0.0079 J0.0078
G2 X0.8675 Y5.3739 I0.0459 J0.0469
G1 X0.8676 Y5.6829
G2 X0.8854 Y5.7278 I0.0655 J0
G3 X0.8696 Y5.7438 I-0.0082 J0.0077
G2 X0.8256 Y5.7268 I-0.044 J0.0486
G1 X0.5273 Y5.7269
G2 X0.4802 Y5.7469 I0 J0.0655
G3 X0.4639 Y5.747 I-0.0082 J-0.0079
X0.4642 Y5.7307 I0.0081 J-0.008
G2 X0.4848 Y5.6831 I-0.0448 J-0.0476
G1 X0.4849 Y5.3704
G2 X0.4675 Y5.3259 I-0.0655 J0
G3 X0.4839 Y5.3103 I0.0083 J-0.0077
G2 X0.5305 Y5.3298 I0.0466 J-0.046
G1 X0.8256
X0.8264
X0.8284
X0.8303 Y5.3297 Z-0.3739
X0.8323 Y5.3295 Z-0.3737
X0.8342 Y5.3293 Z-0.3734
X0.8361 Y5.329 Z-0.3731
X0.838 Y5.3286 Z-0.3726
X0.8399 Y5.3282 Z-0.3721
X0.8417 Y5.3278 Z-0.3716
X0.8435 Y5.3273 Z-0.3709
X0.8452 Y5.3268 Z-0.3702
X0.8469 Y5.3262 Z-0.3694
X0.8486 Y5.3256 Z-0.3686
X0.8502 Y5.325 Z-0.3676
X0.8518 Y5.3244 Z-0.3666
X0.8533 Y5.3237 Z-0.3656
X0.8547 Y5.323 Z-0.3645
X0.8561 Y5.3223 Z-0.3633
X0.8575 Y5.3215 Z-0.362
X0.8587 Y5.3208 Z-0.3607
X0.8599 Y5.3201 Z-0.3594
X0.8611 Y5.3193 Z-0.358
X0.8622 Y5.3186 Z-0.3565
X0.8632 Y5.3179 Z-0.355
X0.8642 Y5.3172 Z-0.3534
X0.8651 Y5.3166 Z-0.3518
X0.8659 Y5.3159 Z-0.3501
X0.8667 Y5.3153 Z-0.3484
X0.8674 Y5.3147 Z-0.3467
X0.8681 Y5.3142 Z-0.3449
X0.8687 Y5.3137 Z-0.3431
X0.8692 Y5.3132 Z-0.3413
X0.8697 Y5.3127 Z-0.3395
X0.8701 Y5.3124 Z-0.3376
X0.8705 Y5.312 Z-0.3357
X0.8708 Y5.3117 Z-0.3338
X0.871 Y5.3115 Z-0.3318
X0.8712 Y5.3113 Z-0.3299
X0.8713 Y5.3112 Z-0.3279
X0.8714 Y5.3111 Z-0.326
Z-0.324
G0 Z0.2

(Pocketing)
X0.7585 Y6.2886
Z0.2
Z0.055
G1 Z0.0536 F72
Y6.2887 Z0.0523
X0.7586 Y6.2889 Z0.0509
X0.7587 Y6.2892 Z0.0495
Y6.2893 Z0.0489
X0.7588 Y6.2895 Z0.0482
Y6.2897 Z0.0475
X0.7589 Y6.2899 Z0.0469
Y6.29 Z0.0465
X0.759 Y6.2902 Z0.046
Y6.2903 Z0.0456
X0.7591 Y6.2905 Z0.0452
X0.7592 Y6.2907 Z0.0448
Y6.2908 Z0.0443
X0.7593 Y6.291 Z0.0439
Y6.2912 Z0.0435
X0.7594 Y6.2914 Z0.0431
X0.7596 Y6.2921 Z0.0419
X0.7598 Y6.2928 Z0.0408
X0.76 Y6.2936 Z0.0397
X0.7602 Y6.2945 Z0.0386
X0.7604 Y6.2954 Z0.0376
X0.7606 Y6.2963 Z0.0366
X0.7609 Y6.2973 Z0.0357
X0.761 Y6.2984 Z0.0349
X0.7612 Y6.2995 Z0.0341
X0.7614 Y6.3007 Z0.0334
X0.7615 Y6.3019 Z0.0327
X0.7617 Y6.3031 Z0.0321
X0.7618 Y6.3044 Z0.0316
X0.7619 Y6.3057 Z0.0312
Y6.307 Z0.0308
Y6.3083 Z0.0305
Y6.3097 Z0.0302
G3 X0.6433 Y6.3075 Z0.004 I-0.0593 J-0.0011
X0.7619 Y6.3097 Z-0.0222 I0.0593 J0.0011
X0.6434 Y6.3121 Z-0.0478 I-0.0593 J-0.0011
G1 X0.6432 Y6.3109 Z-0.0479
Y6.3097 Z-0.048
Y6.3086
Y6.2882
G3 X0.656 Y6.2754 I0.0128 J0
G1 X0.6966 Y6.2755
G3 X0.7093 Y6.2882 I0 J0.0127
G1 X0.7094 Y6.3433
G3 X0.6966 Y6.3561 I-0.0128 J0
G1 X0.656 Y6.356
G3 X0.6433 Y6.3433 I0 J-0.0127
G1 X0.6432 Y6.3086
G2 X0.616 Y6.2545 I-0.0675 J0
G3 X0.6351 Y6.197 I0.0191 J-0.0256
G1 X0.7754
G3 X0.7879 Y6.2095 I0 J0.0125
G1 Y6.422
G3 X0.7754 Y6.4345 I-0.0125 J0
G1 X0.5772
G3 X0.5647 Y6.422 I0 J-0.0125
G1 Y6.2095
G3 X0.5772 Y6.197 I0.0125 J0
G1 X0.6351
G2 X0.6942 Y6.1576 I0 J-0.064
G3 X0.7532 Y6.1183 I0.059 J0.0246
G1 X0.8256 Y6.1182
G2 X0.8722 Y6.0991 I0 J-0.0665
G3 X0.8867 Y6.0992 I0.0072 J0.0074
Y6.1138 I-0.0073 J0.0073
G2 X0.8667 Y6.1613 I0.0464 J0.0475
G1 X0.8666 Y6.4703
G2 X0.8847 Y6.5159 I0.0665 J0
G3 X0.8703 Y6.5305 I-0.0075 J0.007
G2 X0.8256 Y6.5133 I-0.0447 J0.0493
G1 X0.5273
G2 X0.4795 Y6.5336 I0 J0.0665
G3 X0.4646 Y6.5337 I-0.0075 J-0.0072
X0.4649 Y6.5188 I0.0074 J-0.0073
G2 X0.4858 Y6.4705 I-0.0455 J-0.0483
G1 X0.4859 Y6.1578
G2 X0.4682 Y6.1127 I-0.0665 J0
G3 X0.4832 Y6.0983 I0.0076 J-0.0071
G2 X0.5305 Y6.1181 I0.0473 J-0.0466
G1 X0.7532 Y6.1182
G3 X0.8086 Y6.199 Z-0.0612 I0 J0.0594
G1 X0.7579 Y6.33 Z-0.0772
G3 X0.6433 Y6.3086 Z-0.096 I-0.0553 J-0.0214
G1 X0.6432 Y6.2882
G3 X0.656 Y6.2754 I0.0128 J0
G1 X0.6966 Y6.2755
G3 X0.7093 Y6.2882 I0 J0.0127
G1 X0.7094 Y6.3433
G3 X0.6966 Y6.3561 I-0.0128 J0
G1 X0.656 Y6.356
G3 X0.6433 Y6.3433 I0 J-0.0127
G1 X0.6432 Y6.3086
G2 X0.616 Y6.2545 I-0.0675 J0
G3 X0.6351 Y6.197 I0.0191 J-0.0256
G1 X0.7754
G3 X0.7879 Y6.2095 I0 J0.0125
G1 Y6.422
G3 X0.7754 Y6.4345 I-0.0125 J0
G1 X0.5772
G3 X0.5647 Y6.422 I0 J-0.0125
G1 Y6.2095
G3 X0.5772 Y6.197 I0.0125 J0
G1 X0.6351
G2 X0.6942 Y6.1576 I0 J-0.064
G3 X0.7532 Y6.1183 I0.059 J0.0246
G1 X0.8256 Y6.1182
G2 X0.8722 Y6.0991 I0 J-0.0665
G3 X0.8867 Y6.0992 I0.0072 J0.0074
Y6.1138 I-0.0073 J0.0073
G2 X0.8667 Y6.1613 I0.0464 J0.0475
G1 X0.8666 Y6.4703
G2 X0.8847 Y6.5159 I0.0665 J0
G3 X0.8703 Y6.5305 I-0.0075 J0.007
G2 X0.8256 Y6.5133 I-0.0447 J0.0493
G1 X0.5273
G2 X0.4795 Y6.5336 I0 J0.0665
G3 X0.4646 Y6.5337 I-0.0075 J-0.0072
X0.4649 Y6.5188 I0.0074 J-0.0073
G2 X0.4858 Y6.4705 I-0.0455 J-0.0483
G1 X0.4859 Y6.1578
G2 X0.4682 Y6.1127 I-0.0665 J0
G3 X0.4832 Y6.0983 I0.0076 J-0.0071
G2 X0.5305 Y6.1181 I0.0473 J-0.0466
G1 X0.7532 Y6.1182
G3 X0.8086 Y6.199 Z-0.1092 I0 J0.0594
G1 X0.7579 Y6.33 Z-0.1252
G3 X0.6433 Y6.3086 Z-0.144 I-0.0553 J-0.0214
G1 X0.6432 Y6.2882
G3 X0.656 Y6.2754 I0.0128 J0
G1 X0.6966 Y6.2755
G3 X0.7093 Y6.2882 I0 J0.0127
G1 X0.7094 Y6.3433
G3 X0.6966 Y6.3561 I-0.0128 J0
G1 X0.656 Y6.356
G3 X0.6433 Y6.3433 I0 J-0.0127
G1 X0.6432 Y6.3086
G2 X0.616 Y6.2545 I-0.0675 J0
G3 X0.6351 Y6.197 I0.0191 J-0.0256
G1 X0.7754
G3 X0.7879 Y6.2095 I0 J0.0125
G1 Y6.422
G3 X0.7754 Y6.4345 I-0.0125 J0
G1 X0.5772
G3 X0.5647 Y6.422 I0 J-0.0125
G1 Y6.2095
G3 X0.5772 Y6.197 I0.0125 J0
G1 X0.6351
G2 X0.6942 Y6.1576 I0 J-0.064
G3 X0.7532 Y6.1183 I0.059 J0.0246
G1 X0.8256 Y6.1182
G2 X0.8722 Y6.0991 I0 J-0.0665
G3 X0.8867 Y6.0992 I0.0072 J0.0074
Y6.1138 I-0.0073 J0.0073
G2 X0.8667 Y6.1613 I0.0464 J0.0475
G1 X0.8666 Y6.4703
G2 X0.8847 Y6.5159 I0.0665 J0
G3 X0.8703 Y6.5305 I-0.0075 J0.007
G2 X0.8256 Y6.5133 I-0.0447 J0.0493
G1 X0.5273
G2 X0.4795 Y6.5336 I0 J0.0665
G3 X0.4646 Y6.5337 I-0.0075 J-0.0072
X0.4649 Y6.5188 I0.0074 J-0.0073
G2 X0.4858 Y6.4705 I-0.0455 J-0.0483
G1 X0.4859 Y6.1578
G2 X0.4682 Y6.1127 I-0.0665 J0
G3 X0.4832 Y6.0983 I0.0076 J-0.0071
G2 X0.5305 Y6.1181 I0.0473 J-0.0466
G1 X0.7532 Y6.1182
G3 X0.8086 Y6.199 Z-0.1572 I0 J0.0594
G1 X0.7579 Y6.33 Z-0.1732
G3 X0.6433 Y6.3086 Z-0.192 I-0.0553 J-0.0214
G1 X0.6432 Y6.2882
G3 X0.656 Y6.2754 I0.0128 J0
G1 X0.6966 Y6.2755
G3 X0.7093 Y6.2882 I0 J0.0127
G1 X0.7094 Y6.3433
G3 X0.6966 Y6.3561 I-0.0128 J0
G1 X0.656 Y6.356
G3 X0.6433 Y6.3433 I0 J-0.0127
G1 X0.6432 Y6.3086
G2 X0.616 Y6.2545 I-0.0675 J0
G3 X0.6351 Y6.197 I0.0191 J-0.0256
G1 X0.7754
G3 X0.7879 Y6.2095 I0 J0.0125
G1 Y6.422
G3 X0.7754 Y6.4345 I-0.0125 J0
G1 X0.5772
G3 X0.5647 Y6.422 I0 J-0.0125
G1 Y6.2095
G3 X0.5772 Y6.197 I0.0125 J0
G1 X0.6351
G2 X0.6942 Y6.1576 I0 J-0.064
G3 X0.7532 Y6.1183 I0.059 J0.0246
G1 X0.8256 Y6.1182
G2 X0.8722 Y6.0991 I0 J-0.0665
G3 X0.8867 Y6.0992 I0.0072 J0.0074
Y6.1138 I-0.0073 J0.0073
G2 X0.8667 Y6.1613 I0.0464 J0.0475
G1 X0.8666 Y6.4703
G2 X0.8847 Y6.5159 I0.0665 J0
G3 X0.8703 Y6.5305 I-0.0075 J0.007
G2 X0.8256 Y6.5133 I-0.0447 J0.0493
G1 X0.5273
G2 X0.4795 Y6.5336 I0 J0.0665
G3 X0.4646 Y6.5337 I-0.0075 J-0.0072
X0.4649 Y6.5188 I0.0074 J-0.0073
G2 X0.4858 Y6.4705 I-0.0455 J-0.0483
G1 X0.4859 Y6.1578
G2 X0.4682 Y6.1127 I-0.0665 J0
G3 X0.4832 Y6.0983 I0.0076 J-0.0071
G2 X0.5305 Y6.1181 I0.0473 J-0.0466
G1 X0.7532 Y6.1182
G3 X0.8086 Y6.199 Z-0.2052 I0 J0.0594
G1 X0.7579 Y6.33 Z-0.2212
G3 X0.6433 Y6.3086 Z-0.24 I-0.0553 J-0.0214
G1 X0.6432 Y6.2882
G3 X0.656 Y6.2754 I0.0128 J0
G1 X0.6966 Y6.2755
G3 X0.7093 Y6.2882 I0 J0.0127
G1 X0.7094 Y6.3433
G3 X0.6966 Y6.3561 I-0.0128 J0
G1 X0.656 Y6.356
G3 X0.6433 Y6.3433 I0 J-0.0127
G1 X0.6432 Y6.3086
G2 X0.616 Y6.2545 I-0.0675 J0
G3 X0.6351 Y6.197 I0.0191 J-0.0256
G1 X0.7754
G3 X0.7879 Y6.2095 I0 J0.0125
G1 Y6.422
G3 X0.7754 Y6.4345 I-0.0125 J0
G1 X0.5772
G3 X0.5647 Y6.422 I0 J-0.0125
G1 Y6.2095
G3 X0.5772 Y6.197 I0.0125 J0
G1 X0.6351
G2 X0.6942 Y6.1576 I0 J-0.064
G3 X0.7532 Y6.1183 I0.059 J0.0246
G1 X0.8256 Y6.1182
G2 X0.8722 Y6.0991 I0 J-0.0665
G3 X0.8867 Y6.0992 I0.0072 J0.0074
Y6.1138 I-0.0073 J0.0073
G2 X0.8667 Y6.1613 I0.0464 J0.0475
G1 X0.8666 Y6.4703
G2 X0.8847 Y6.5159 I0.0665 J0
G3 X0.8703 Y6.5305 I-0.0075 J0.007
G2 X0.8256 Y6.5133 I-0.0447 J0.0493
G1 X0.5273
G2 X0.4795 Y6.5336 I0 J0.0665
G3 X0.4646 Y6.5337 I-0.0075 J-0.0072
X0.4649 Y6.5188 I0.0074 J-0.0073
G2 X0.4858 Y6.4705 I-0.0455 J-0.0483
G1 X0.4859 Y6.1578
G2 X0.4682 Y6.1127 I-0.0665 J0
G3 X0.4832 Y6.0983 I0.0076 J-0.0071
G2 X0.5305 Y6.1181 I0.0473 J-0.0466
G1 X0.7532 Y6.1182
G3 X0.8086 Y6.199 Z-0.2532 I0 J0.0594
G1 X0.7579 Y6.33 Z-0.2692
G3 X0.6433 Y6.3086 Z-0.288 I-0.0553 J-0.0214
G1 X0.6432 Y6.2882
G3 X0.656 Y6.2754 I0.0128 J0
G1 X0.6966 Y6.2755
G3 X0.7093 Y6.2882 I0 J0.0127
G1 X0.7094 Y6.3433
G3 X0.6966 Y6.3561 I-0.0128 J0
G1 X0.656 Y6.356
G3 X0.6433 Y6.3433 I0 J-0.0127
G1 X0.6432 Y6.3086
G2 X0.616 Y6.2545 I-0.0675 J0
G3 X0.6351 Y6.197 I0.0191 J-0.0256
G1 X0.7754
G3 X0.7879 Y6.2095 I0 J0.0125
G1 Y6.422
G3 X0.7754 Y6.4345 I-0.0125 J0
G1 X0.5772
G3 X0.5647 Y6.422 I0 J-0.0125
G1 Y6.2095
G3 X0.5772 Y6.197 I0.0125 J0
G1 X0.6351
G2 X0.6942 Y6.1576 I0 J-0.064
G3 X0.7532 Y6.1183 I0.059 J0.0246
G1 X0.8256 Y6.1182
G2 X0.8722 Y6.0991 I0 J-0.0665
G3 X0.8867 Y6.0992 I0.0072 J0.0074
Y6.1138 I-0.0073 J0.0073
G2 X0.8667 Y6.1613 I0.0464 J0.0475
G1 X0.8666 Y6.4703
G2 X0.8847 Y6.5159 I0.0665 J0
G3 X0.8703 Y6.5305 I-0.0075 J0.007
G2 X0.8256 Y6.5133 I-0.0447 J0.0493
G1 X0.5273
G2 X0.4795 Y6.5336 I0 J0.0665
G3 X0.4646 Y6.5337 I-0.0075 J-0.0072
X0.4649 Y6.5188 I0.0074 J-0.0073
G2 X0.4858 Y6.4705 I-0.0455 J-0.0483
G1 X0.4859 Y6.1578
G2 X0.4682 Y6.1127 I-0.0665 J0
G3 X0.4832 Y6.0983 I0.0076 J-0.0071
G2 X0.5305 Y6.1181 I0.0473 J-0.0466
G1 X0.7532 Y6.1182
G3 X0.8086 Y6.199 Z-0.3012 I0 J0.0594
G1 X0.7579 Y6.33 Z-0.3172
G3 X0.6433 Y6.3086 Z-0.336 I-0.0553 J-0.0214
G1 X0.6432 Y6.2882
G3 X0.656 Y6.2754 I0.0128 J0
G1 X0.6966 Y6.2755
G3 X0.7093 Y6.2882 I0 J0.0127
G1 X0.7094 Y6.3433
G3 X0.6966 Y6.3561 I-0.0128 J0
G1 X0.656 Y6.356
G3 X0.6433 Y6.3433 I0 J-0.0127
G1 X0.6432 Y6.3086
G2 X0.616 Y6.2545 I-0.0675 J0
G3 X0.6351 Y6.197 I0.0191 J-0.0256
G1 X0.7754
G3 X0.7879 Y6.2095 I0 J0.0125
G1 Y6.422
G3 X0.7754 Y6.4345 I-0.0125 J0
G1 X0.5772
G3 X0.5647 Y6.422 I0 J-0.0125
G1 Y6.2095
G3 X0.5772 Y6.197 I0.0125 J0
G1 X0.6351
G2 X0.6942 Y6.1576 I0 J-0.064
G3 X0.7532 Y6.1183 I0.059 J0.0246
G1 X0.8256 Y6.1182
G2 X0.8722 Y6.0991 I0 J-0.0665
G3 X0.8867 Y6.0992 I0.0072 J0.0074
Y6.1138 I-0.0073 J0.0073
G2 X0.8667 Y6.1613 I0.0464 J0.0475
G1 X0.8666 Y6.4703
G2 X0.8847 Y6.5159 I0.0665 J0
G3 X0.8703 Y6.5305 I-0.0075 J0.007
G2 X0.8256 Y6.5133 I-0.0447 J0.0493
G1 X0.5273
G2 X0.4795 Y6.5336 I0 J0.0665
G3 X0.4646 Y6.5337 I-0.0075 J-0.0072
X0.4649 Y6.5188 I0.0074 J-0.0073
G2 X0.4858 Y6.4705 I-0.0455 J-0.0483
G1 X0.4859 Y6.1578
G2 X0.4682 Y6.1127 I-0.0665 J0
G3 X0.4832 Y6.0983 I0.0076 J-0.0071
G2 X0.5305 Y6.1181 I0.0473 J-0.0466
G1 X0.7532 Y6.1182
G3 X0.8086 Y6.199 Z-0.3464 I0 J0.0594
G1 X0.7579 Y6.33 Z-0.3591
G3 X0.6433 Y6.3086 Z-0.374 I-0.0553 J-0.0214
G1 X0.6432 Y6.2882
G3 X0.656 Y6.2754 I0.0128 J0
G1 X0.6966 Y6.2755
G3 X0.7093 Y6.2882 I0 J0.0127
G1 X0.7094 Y6.3433
G3 X0.6966 Y6.3561 I-0.0128 J0
G1 X0.656 Y6.356
G3 X0.6433 Y6.3433 I0 J-0.0127
G1 X0.6432 Y6.3086
G2 X0.616 Y6.2545 I-0.0675 J0
G3 X0.6351 Y6.197 I0.0191 J-0.0256
G1 X0.7754
G3 X0.7879 Y6.2095 I0 J0.0125
G1 Y6.422
G3 X0.7754 Y6.4345 I-0.0125 J0
G1 X0.5772
G3 X0.5647 Y6.422 I0 J-0.0125
G1 Y6.2095
G3 X0.5772 Y6.197 I0.0125 J0
G1 X0.6351
G2 X0.6942 Y6.1576 I0 J-0.064
G3 X0.7532 Y6.1183 I0.059 J0.0246
G1 X0.8256 Y6.1182
G2 X0.8722 Y6.0991 I0 J-0.0665
G3 X0.8867 Y6.0992 I0.0072 J0.0074
Y6.1138 I-0.0073 J0.0073
G2 X0.8667 Y6.1613 I0.0464 J0.0475
G1 X0.8666 Y6.4703
G2 X0.8847 Y6.5159 I0.0665 J0
G3 X0.8703 Y6.5305 I-0.0075 J0.007
G2 X0.8256 Y6.5133 I-0.0447 J0.0493
G1 X0.5273
G2 X0.4795 Y6.5336 I0 J0.0665
G3 X0.4646 Y6.5337 I-0.0075 J-0.0072
X0.4649 Y6.5188 I0.0074 J-0.0073
G2 X0.4858 Y6.4705 I-0.0455 J-0.0483
G1 X0.4859 Y6.1578
G2 X0.4682 Y6.1127 I-0.0665 J0
G3 X0.4832 Y6.0983 I0.0076 J-0.0071
G2 X0.5305 Y6.1181 I0.0473 J-0.0466
G1 X0.7532 Y6.1182
X0.7546 Y6.1183
X0.756 Y6.1184 Z-0.3739
X0.7573 Y6.1186 Z-0.3737
X0.7587 Y6.1188 Z-0.3734
X0.76 Y6.1192 Z-0.373
X0.7613 Y6.1196 Z-0.3726
X0.7625 Y6.12 Z-0.3721
X0.7637 Y6.1205 Z-0.3715
X0.7648 Y6.1211 Z-0.3709
X0.7658 Y6.1217 Z-0.3702
X0.7668 Y6.1223 Z-0.3694
X0.7678 Y6.1229 Z-0.3686
X0.7686 Y6.1236 Z-0.3677
X0.7694 Y6.1242 Z-0.3667
X0.7701 Y6.1249 Z-0.3657
X0.7708 Y6.1255 Z-0.3646
X0.7714 Y6.1261 Z-0.3635
X0.7719 Y6.1267 Z-0.3623
X0.7724 Y6.1272 Z-0.3611
X0.7728 Y6.1277 Z-0.3599
X0.7731 Y6.1282 Z-0.3586
X0.7734 Y6.1286 Z-0.3573
X0.7737 Y6.1289 Z-0.3559
X0.7739 Y6.1292 Z-0.3546
X0.774 Y6.1294 Z-0.3532
X0.7741 Y6.1296 Z-0.3518
X0.7742 Y6.1297 Z-0.3504
Z-0.349
G0 Z0.2

(Wall Finish)
Z0.2269
X0.8406 Y6.3329
G1 Z-0.174 F70
G18 G2 X0.8506 Z-0.184 I0.01 K0 F67.2
G1 X0.8606
G17 G2 X0.8706 Y6.3229 I0 J-0.01
G1 Y6.1613
G3 X0.8894 Y6.1166 I0.0625 J0
G2 X0.8895 Y6.0965 I-0.01 J-0.0101
X0.8695 Y6.0963 I-0.0101 J0.01
G3 X0.8256 Y6.1143 I-0.0439 J-0.0446
G1 X0.5305 Y6.1142
G3 X0.486 Y6.0956 I0 J-0.0625
G2 X0.4653 Y6.1153 I-0.0102 J0.01
G3 X0.482 Y6.1578 I-0.0459 J0.0425
G1 X0.4819 Y6.4705
G3 X0.4622 Y6.516 I-0.0625 J0
G2 X0.4619 Y6.5365 I0.0098 J0.0104
X0.4823 Y6.5363 I0.0101 J-0.0101
G3 X0.5273 Y6.5172 I0.045 J0.0435
G1 X0.8256 Y6.5173
G3 X0.8676 Y6.5335 I0 J0.0625
G2 X0.8876 Y6.5131 I0.0096 J-0.0106
G3 X0.8706 Y6.4703 I0.0455 J-0.0428
G1 Y6.3229
G2 X0.8606 Y6.3129 I-0.01 J0
G1 X0.8506
G18 G3 X0.8406 Z-0.174 I0 K0.01
G1 X0.8405 Y6.1696
Z-0.358 F70
X0.8407 Z-0.3602 F67.2
X0.8415 Z-0.3624
X0.8427 Z-0.3643
X0.8442 Y6.1697 Z-0.3658
X0.8461 Z-0.367
X0.8483 Y6.1698 Z-0.3678
X0.8505 Z-0.368
X0.8605 Y6.17
G17 G2 X0.8707 Y6.1602 I0.0002 J-0.01
G3 X0.8894 Y6.1167 I0.0624 J0.0011
G2 X0.8896 Y6.0965 I-0.01 J-0.0102
X0.8694 Y6.0963 I-0.0102 J0.01
G3 X0.8256 Y6.1142 I-0.0438 J-0.0446
G1 X0.5305
G3 X0.486 Y6.0956 I0 J-0.0625
G2 X0.4653 Y6.1153 I-0.0102 J0.01
G3 X0.482 Y6.1578 I-0.0459 J0.0425
G1 X0.4819 Y6.4705
G3 X0.4622 Y6.516 I-0.0625 J0
G2 X0.4619 Y6.5365 I0.0098 J0.0104
X0.4823 Y6.5363 I0.0101 J-0.0101
G3 X0.5273 Y6.5172 I0.045 J0.0435
G1 X0.8256 Y6.5173
G3 X0.8676 Y6.5335 I0 J0.0625
G2 X0.8876 Y6.5131 I0.0096 J-0.0106
G3 X0.8706 Y6.4703 I0.0455 J-0.0428
G1 Y6.1613
Y6.1607
X0.8707 Y6.1602
G2 X0.8608 Y6.15 I-0.01 J-0.0002
G1 X0.8508 Y6.1498
X0.8486 Z-0.3678
X0.8465 Y6.1497 Z-0.367
X0.8446 Z-0.3658
X0.843 Z-0.3643
X0.8418 Y6.1496 Z-0.3624
X0.8411 Z-0.3602
X0.8408 Z-0.358
G0 Z0.2

(Floor Finish)
X0.6837 Y6.3507
Z0.2
Z-0.264
G1 Z-0.314 F96
Z-0.324 F70
X0.6836 Y6.3506 Z-0.326
X0.6835 Z-0.3279
X0.6834 Y6.3505 Z-0.3299
X0.6833 Y6.3504 Z-0.3309
X0.6831 Y6.3503 Z-0.3318
X0.683 Y6.3502 Z-0.3328
X0.6829 Y6.3501 Z-0.3338
X0.6827 Z-0.3344
X0.6826 Y6.35 Z-0.335
X0.6825 Y6.3499 Z-0.3357
X0.6824 Y6.3498 Z-0.3363
X0.6822 Y6.3497 Z-0.337
X0.6821 Y6.3496 Z-0.3376
X0.6819 Y6.3495 Z-0.3382
X0.6818 Y6.3494 Z-0.3388
X0.6816 Y6.3493 Z-0.3395
X0.6811 Y6.3489 Z-0.3413
X0.6805 Y6.3485 Z-0.3431
X0.6799 Y6.348 Z-0.3449
X0.6792 Y6.3475 Z-0.3467
X0.6785 Y6.3469 Z-0.3484
X0.6778 Y6.3462 Z-0.3501
X0.677 Y6.3455 Z-0.3518
X0.6762 Y6.3448 Z-0.3534
X0.6753 Y6.3439 Z-0.355
X0.6744 Y6.343 Z-0.3565
X0.6736 Y6.3421 Z-0.358
X0.6727 Y6.3411 Z-0.3594
X0.6718 Y6.34 Z-0.3607
X0.6709 Y6.3388 Z-0.362
X0.67 Y6.3376 Z-0.3633
X0.6691 Y6.3363 Z-0.3645
X0.6682 Y6.335 Z-0.3656
X0.6673 Y6.3335 Z-0.3666
X0.6665 Y6.3321 Z-0.3676
X0.6657 Y6.3305 Z-0.3686
X0.665 Y6.3289 Z-0.3694
X0.6643 Y6.3273 Z-0.3702
X0.6636 Y6.3255 Z-0.3709
X0.663 Y6.3238 Z-0.3716
X0.6625 Y6.322 Z-0.3721
X0.662 Y6.3202 Z-0.3726
X0.6616 Y6.3183 Z-0.3731
X0.6613 Y6.3164 Z-0.3734
X0.661 Y6.3145 Z-0.3737
X0.6608 Y6.3125 Z-0.3739
X0.6607 Y6.3105 Z-0.374
Y6.3086
Y6.3057 F96
G3 X0.6735 Y6.2929 I0.0128 J0
G1 X0.6791 Y6.293
G3 X0.6918 Y6.3057 I0 J0.0127
G1 X0.6919 Y6.3258
G3 X0.6791 Y6.3386 I-0.0128 J0
G1 X0.6735 Y6.3385
G3 X0.6608 Y6.3258 I0 J-0.0127
G1 X0.6607 Y6.3086
G2 X0.6403 Y6.2736 I-0.0402 J0
G3 X0.6505 Y6.2345 I0.0102 J-0.0182
G1 X0.7376
G3 X0.7503 Y6.2472 I0 J0.0127
G1 X0.7504 Y6.3843
G3 X0.7376 Y6.3971 I-0.0128 J0
G1 X0.615 Y6.397
G3 X0.6023 Y6.3843 I0 J-0.0127
G1 X0.6022 Y6.2472
G3 X0.615 Y6.2344 I0.0128 J0
G1 X0.6505 Y6.2345
G2 X0.6944 Y6.2052 I0 J-0.0476
G3 X0.7383 Y6.1759 I0.0439 J0.0183
G1 X0.7964 Y6.176
G3 X0.8089 Y6.1885 I0 J0.0125
G1 Y6.443
G3 X0.7964 Y6.4555 I-0.0125 J0
G1 X0.5562
G3 X0.5437 Y6.443 I0 J-0.0125
G1 Y6.1885
G3 X0.5562 Y6.176 I0.0125 J0
G1 X0.7383
G2 X0.7825 Y6.1468 I0 J-0.048
G3 X0.8264 Y6.1174 I0.0445 J0.0189
G2 X0.8716 Y6.0986 I-0.0008 J-0.0657
G3 X0.8873 Y6.0987 I0.0078 J0.0079
X0.8872 Y6.1144 I-0.0079 J0.0078
G2 X0.8675 Y6.1613 I0.0459 J0.0469
G1 X0.8676 Y6.4703
G2 X0.8854 Y6.5152 I0.0655 J0
G3 X0.8696 Y6.5312 I-0.0082 J0.0077
G2 X0.8256 Y6.5142 I-0.044 J0.0486
G1 X0.5273 Y6.5143
G2 X0.4802 Y6.5343 I0 J0.0655
G3 X0.4639 Y6.5344 I-0.0082 J-0.0079
X0.4642 Y6.5181 I0.0081 J-0.008
G2 X0.4848 Y6.4705 I-0.0448 J-0.0476
G1 X0.4849 Y6.1578
G2 X0.4675 Y6.1133 I-0.0655 J0
G3 X0.4839 Y6.0977 I0.0083 J-0.0077
G2 X0.5305 Y6.1172 I0.0466 J-0.046
G1 X0.8256
X0.8264
X0.8284
X0.8303 Y6.1171 Z-0.3739
X0.8323 Y6.1169 Z-0.3737
X0.8342 Y6.1167 Z-0.3734
X0.8361 Y6.1164 Z-0.3731
X0.838 Y6.116 Z-0.3726
X0.8399 Y6.1157 Z-0.3721
X0.8417 Y6.1152 Z-0.3716
X0.8435 Y6.1147 Z-0.3709
X0.8452 Y6.1142 Z-0.3702
X0.8469 Y6.1136 Z-0.3694
X0.8486 Y6.113 Z-0.3686
X0.8502 Y6.1124 Z-0.3676
X0.8518 Y6.1118 Z-0.3666
X0.8533 Y6.1111 Z-0.3656
X0.8547 Y6.1104 Z-0.3645
X0.8561 Y6.1097 Z-0.3633
X0.8575 Y6.1089 Z-0.362
X0.8587 Y6.1082 Z-0.3607
X0.8599 Y6.1075 Z-0.3594
X0.8611 Y6.1068 Z-0.358
X0.8622 Y6.106 Z-0.3565
X0.8632 Y6.1053 Z-0.355
X0.8642 Y6.1046 Z-0.3534
X0.8651 Y6.104 Z-0.3518
X0.8659 Y6.1033 Z-0.3501
X0.8667 Y6.1027 Z-0.3484
X0.8674 Y6.1021 Z-0.3467
X0.8681 Y6.1016 Z-0.3449
X0.8687 Y6.1011 Z-0.3431
X0.8692 Y6.1006 Z-0.3413
X0.8697 Y6.1001 Z-0.3395
X0.8701 Y6.0998 Z-0.3376
X0.8705 Y6.0994 Z-0.3357
X0.8708 Y6.0991 Z-0.3338
X0.871 Y6.0989 Z-0.3318
X0.8712 Y6.0987 Z-0.3299
X0.8713 Y6.0986 Z-0.3279
X0.8714 Y6.0985 Z-0.326
Z-0.324
G0 Z0.2

(Pocketing)
X1.5459 Y3.139
Z0.2
Z0.055
G1 Z0.0536 F72
Y3.1391 Z0.0523
X1.546 Y3.1393 Z0.0509
X1.5461 Y3.1395 Z0.0495
Y3.1397 Z0.0489
X1.5462 Y3.1399 Z0.0482
Y3.1401 Z0.0475
X1.5463 Y3.1403 Z0.0469
Y3.1404 Z0.0465
X1.5464 Y3.1406 Z0.046
Y3.1407 Z0.0456
X1.5465 Y3.1409 Z0.0452
X1.5466 Y3.1411 Z0.0448
Y3.1412 Z0.0443
X1.5467 Y3.1414 Z0.0439
Y3.1416 Z0.0435
X1.5468 Y3.1418 Z0.0431
X1.547 Y3.1425 Z0.0419
X1.5472 Y3.1432 Z0.0408
X1.5474 Y3.144 Z0.0397
X1.5476 Y3.1448 Z0.0386
X1.5478 Y3.1458 Z0.0376
X1.548 Y3.1467 Z0.0366
X1.5483 Y3.1477 Z0.0357
X1.5484 Y3.1488 Z0.0349
X1.5486 Y3.1499 Z0.0341
X1.5488 Y3.1511 Z0.0334
X1.5489 Y3.1523 Z0.0327
X1.5491 Y3.1535 Z0.0321
X1.5492 Y3.1548 Z0.0316
X1.5493 Y3.1561 Z0.0312
Y3.1574 Z0.0308
Y3.1587 Z0.0305
Y3.1601 Z0.0302
G3 X1.4307 Y3.1579 Z0.004 I-0.0593 J-0.0011
X1.5493 Y3.1601 Z-0.0222 I0.0593 J0.0011
X1.4308 Y3.1625 Z-0.0478 I-0.0593 J-0.0011
G1 X1.4306 Y3.1613 Z-0.0479
Y3.1601 Z-0.048
Y3.159
Y3.1386
G3 X1.4434 Y3.1258 I0.0128 J0
G1 X1.484 Y3.1259
G3 X1.4967 Y3.1386 I0 J0.0127
G1 X1.4968 Y3.1937
G3 X1.484 Y3.2065 I-0.0128 J0
G1 X1.4434 Y3.2064
G3 X1.4307 Y3.1937 I0 J-0.0127
G1 X1.4306 Y3.159
G2 X1.4034 Y3.1049 I-0.0675 J0
G3 X1.4225 Y3.0474 I0.0191 J-0.0256
G1 X1.5628
G3 X1.5753 Y3.0599 I0 J0.0125
G1 Y3.2724
G3 X1.5628 Y3.2849 I-0.0125 J0
G1 X1.3646
G3 X1.3521 Y3.2724 I0 J-0.0125
G1 Y3.0599
G3 X1.3646 Y3.0474 I0.0125 J0
G1 X1.4225
G2 X1.4816 Y3.008 I0 J-0.064
G3 X1.5406 Y2.9687 I0.059 J0.0246
G1 X1.613 Y2.9686
G2 X1.6596 Y2.9495 I0 J-0.0665
G3 X1.6741 Y2.9496 I0.0072 J0.0073
X1.674 Y2.9641 I-0.0073 J0.0072
G2 X1.654 Y3.0117 I0.0465 J0.0476
G1 Y3.3207
G2 X1.6721 Y3.3663 I0.0665 J0
G3 X1.6577 Y3.3809 I-0.0075 J0.007
G2 X1.613 Y3.3637 I-0.0447 J0.0493
G1 X1.3147
G2 X1.2669 Y3.384 I0 J0.0665
G3 X1.252 Y3.3841 I-0.0075 J-0.0072
X1.2523 Y3.3692 I0.0074 J-0.0073
G2 X1.2732 Y3.3209 I-0.0455 J-0.0483
G1 X1.2733 Y3.0082
G2 X1.2556 Y2.9631 I-0.0665 J0
G3 X1.2706 Y2.9487 I0.0076 J-0.0071
G2 X1.3179 Y2.9685 I0.0473 J-0.0466
G1 X1.5406 Y2.9686
G3 X1.596 Y3.0494 Z-0.0612 I0 J0.0594
G1 X1.5453 Y3.1804 Z-0.0772
G3 X1.4307 Y3.159 Z-0.096 I-0.0553 J-0.0214
G1 X1.4306 Y3.1386
G3 X1.4434 Y3.1258 I0.0128 J0
G1 X1.484 Y3.1259
G3 X1.4967 Y3.1386 I0 J0.0127
G1 X1.4968 Y3.1937
G3 X1.484 Y3.2065 I-0.0128 J0
G1 X1.4434 Y3.2064
G3 X1.4307 Y3.1937 I0 J-0.0127
G1 X1.4306 Y3.159
G2 X1.4034 Y3.1049 I-0.0675 J0
G3 X1.4225 Y3.0474 I0.0191 J-0.0256
G1 X1.5628
G3 X1.5753 Y3.0599 I0 J0.0125
G1 Y3.2724
G3 X1.5628 Y3.2849 I-0.0125 J0
G1 X1.3646
G3 X1.3521 Y3.2724 I0 J-0.0125
G1 Y3.0599
G3 X1.3646 Y3.0474 I0.0125 J0
G1 X1.4225
G2 X1.4816 Y3.008 I0 J-0.064
G3 X1.5406 Y2.9687 I0.059 J0.0246
G1 X1.613 Y2.9686
G2 X1.6596 Y2.9495 I0 J-0.0665
G3 X1.6741 Y2.9496 I0.0072 J0.0073
X1.674 Y2.9641 I-0.0073 J0.0072
G2 X1.654 Y3.0117 I0.0465 J0.0476
G1 Y3.3207
G2 X1.6721 Y3.3663 I0.0665 J0
G3 X1.6577 Y3.3809 I-0.0075 J0.007
G2 X1.613 Y3.3637 I-0.0447 J0.0493
G1 X1.3147
G2 X1.2669 Y3.384 I0 J0.0665
G3 X1.252 Y3.3841 I-0.0075 J-0.0072
X1.2523 Y3.3692 I0.0074 J-0.0073
G2 X1.2732 Y3.3209 I-0.0455 J-0.0483
G1 X1.2733 Y3.0082
G2 X1.2556 Y2.9631 I-0.0665 J0
G3 X1.2706 Y2.9487 I0.0076 J-0.0071
G2 X1.3179 Y2.9685 I0.0473 J-0.0466
G1 X1.5406 Y2.9686
G3 X1.596 Y3.0494 Z-0.1092 I0 J0.0594
G1 X1.5453 Y3.1804 Z-0.1252
G3 X1.4307 Y3.159 Z-0.144 I-0.0553 J-0.0214
G1 X1.4306 Y3.1386
G3 X1.4434 Y3.1258 I0.0128 J0
G1 X1.484 Y3.1259
G3 X1.4967 Y3.1386 I0 J0.0127
G1 X1.4968 Y3.1937
G3 X1.484 Y3.2065 I-0.0128 J0
G1 X1.4434 Y3.2064
G3 X1.4307 Y3.1937 I0 J-0.0127
G1 X1.4306 Y3.159
G2 X1.4034 Y3.1049 I-0.0675 J0
G3 X1.4225 Y3.0474 I0.0191 J-0.0256
G1 X1.5628
G3 X1.5753 Y3.0599 I0 J0.0125
G1 Y3.2724
G3 X1.5628 Y3.2849 I-0.0125 J0
G1 X1.3646
G3 X1.3521 Y3.2724 I0 J-0.0125
G1 Y3.0599
G3 X1.3646 Y3.0474 I0.0125 J0
G1 X1.4225
G2 X1.4816 Y3.008 I0 J-0.064
G3 X1.5406 Y2.9687 I0.059 J0.0246
G1 X1.613 Y2.9686
G2 X1.6596 Y2.9495 I0 J-0.0665
G3 X1.6741 Y2.9496 I0.0072 J0.0073
X1.674 Y2.9641 I-0.0073 J0.0072
G2 X1.654 Y3.0117 I0.0465 J0.0476
G1 Y3.3207
G2 X1.6721 Y3.3663 I0.0665 J0
G3 X1.6577 Y3.3809 I-0.0075 J0.007
G2 X1.613 Y3.3637 I-0.0447 J0.0493
G1 X1.3147
G2 X1.2669 Y3.384 I0 J0.0665
G3 X1.252 Y3.3841 I-0.0075 J-0.0072
X1.2523 Y3.3692 I0.0074 J-0.0073
G2 X1.2732 Y3.3209 I-0.0455 J-0.0483
G1 X1.2733 Y3.0082
G2 X1.2556 Y2.9631 I-0.0665 J0
G3 X1.2706 Y2.9487 I0.0076 J-0.0071
G2 X1.3179 Y2.9685 I0.0473 J-0.0466
G1 X1.5406 Y2.9686
G3 X1.596 Y3.0494 Z-0.1572 I0 J0.0594
G1 X1.5453 Y3.1804 Z-0.1732
G3 X1.4307 Y3.159 Z-0.192 I-0.0553 J-0.0214
G1 X1.4306 Y3.1386
G3 X1.4434 Y3.1258 I0.0128 J0
G1 X1.484 Y3.1259
G3 X1.4967 Y3.1386 I0 J0.0127
G1 X1.4968 Y3.1937
G3 X1.484 Y3.2065 I-0.0128 J0
G1 X1.4434 Y3.2064
G3 X1.4307 Y3.1937 I0 J-0.0127
G1 X1.4306 Y3.159
G2 X1.4034 Y3.1049 I-0.0675 J0
G3 X1.4225 Y3.0474 I0.0191 J-0.0256
G1 X1.5628
G3 X1.5753 Y3.0599 I0 J0.0125
G1 Y3.2724
G3 X1.5628 Y3.2849 I-0.0125 J0
G1 X1.3646
G3 X1.3521 Y3.2724 I0 J-0.0125
G1 Y3.0599
G3 X1.3646 Y3.0474 I0.0125 J0
G1 X1.4225
G2 X1.4816 Y3.008 I0 J-0.064
G3 X1.5406 Y2.9687 I0.059 J0.0246
G1 X1.613 Y2.9686
G2 X1.6596 Y2.9495 I0 J-0.0665
G3 X1.6741 Y2.9496 I0.0072 J0.0073
X1.674 Y2.9641 I-0.0073 J0.0072
G2 X1.654 Y3.0117 I0.0465 J0.0476
G1 Y3.3207
G2 X1.6721 Y3.3663 I0.0665 J0
G3 X1.6577 Y3.3809 I-0.0075 J0.007
G2 X1.613 Y3.3637 I-0.0447 J0.0493
G1 X1.3147
G2 X1.2669 Y3.384 I0 J0.0665
G3 X1.252 Y3.3841 I-0.0075 J-0.0072
X1.2523 Y3.3692 I0.0074 J-0.0073
G2 X1.2732 Y3.3209 I-0.0455 J-0.0483
G1 X1.2733 Y3.0082
G2 X1.2556 Y2.9631 I-0.0665 J0
G3 X1.2706 Y2.9487 I0.0076 J-0.0071
G2 X1.3179 Y2.9685 I0.0473 J-0.0466
G1 X1.5406 Y2.9686
G3 X1.596 Y3.0494 Z-0.2052 I0 J0.0594
G1 X1.5453 Y3.1804 Z-0.2212
G3 X1.4307 Y3.159 Z-0.24 I-0.0553 J-0.0214
G1 X1.4306 Y3.1386
G3 X1.4434 Y3.1258 I0.0128 J0
G1 X1.484 Y3.1259
G3 X1.4967 Y3.1386 I0 J0.0127
G1 X1.4968 Y3.1937
G3 X1.484 Y3.2065 I-0.0128 J0
G1 X1.4434 Y3.2064
G3 X1.4307 Y3.1937 I0 J-0.0127
G1 X1.4306 Y3.159
G2 X1.4034 Y3.1049 I-0.0675 J0
G3 X1.4225 Y3.0474 I0.0191 J-0.0256
G1 X1.5628
G3 X1.5753 Y3.0599 I0 J0.0125
G1 Y3.2724
G3 X1.5628 Y3.2849 I-0.0125 J0
G1 X1.3646
G3 X1.3521 Y3.2724 I0 J-0.0125
G1 Y3.0599
G3 X1.3646 Y3.0474 I0.0125 J0
G1 X1.4225
G2 X1.4816 Y3.008 I0 J-0.064
G3 X1.5406 Y2.9687 I0.059 J0.0246
G1 X1.613 Y2.9686
G2 X1.6596 Y2.9495 I0 J-0.0665
G3 X1.6741 Y2.9496 I0.0072 J0.0073
X1.674 Y2.9641 I-0.0073 J0.0072
G2 X1.654 Y3.0117 I0.0465 J0.0476
G1 Y3.3207
G2 X1.6721 Y3.3663 I0.0665 J0
G3 X1.6577 Y3.3809 I-0.0075 J0.007
G2 X1.613 Y3.3637 I-0.0447 J0.0493
G1 X1.3147
G2 X1.2669 Y3.384 I0 J0.0665
G3 X1.252 Y3.3841 I-0.0075 J-0.0072
X1.2523 Y3.3692 I0.0074 J-0.0073
G2 X1.2732 Y3.3209 I-0.0455 J-0.0483
G1 X1.2733 Y3.0082
G2 X1.2556 Y2.9631 I-0.0665 J0
G3 X1.2706 Y2.9487 I0.0076 J-0.0071
G2 X1.3179 Y2.9685 I0.0473 J-0.0466
G1 X1.5406 Y2.9686
G3 X1.596 Y3.0494 Z-0.2532 I0 J0.0594
G1 X1.5453 Y3.1804 Z-0.2692
G3 X1.4307 Y3.159 Z-0.288 I-0.0553 J-0.0214
G1 X1.4306 Y3.1386
G3 X1.4434 Y3.1258 I0.0128 J0
G1 X1.484 Y3.1259
G3 X1.4967 Y3.1386 I0 J0.0127
G1 X1.4968 Y3.1937
G3 X1.484 Y3.2065 I-0.0128 J0
G1 X1.4434 Y3.2064
G3 X1.4307 Y3.1937 I0 J-0.0127
G1 X1.4306 Y3.159
G2 X1.4034 Y3.1049 I-0.0675 J0
G3 X1.4225 Y3.0474 I0.0191 J-0.0256
G1 X1.5628
G3 X1.5753 Y3.0599 I0 J0.0125
G1 Y3.2724
G3 X1.5628 Y3.2849 I-0.0125 J0
G1 X1.3646
G3 X1.3521 Y3.2724 I0 J-0.0125
G1 Y3.0599
G3 X1.3646 Y3.0474 I0.0125 J0
G1 X1.4225
G2 X1.4816 Y3.008 I0 J-0.064
G3 X1.5406 Y2.9687 I0.059 J0.0246
G1 X1.613 Y2.9686
G2 X1.6596 Y2.9495 I0 J-0.0665
G3 X1.6741 Y2.9496 I0.0072 J0.0073
X1.674 Y2.9641 I-0.0073 J0.0072
G2 X1.654 Y3.0117 I0.0465 J0.0476
G1 Y3.3207
G2 X1.6721 Y3.3663 I0.0665 J0
G3 X1.6577 Y3.3809 I-0.0075 J0.007
G2 X1.613 Y3.3637 I-0.0447 J0.0493
G1 X1.3147
G2 X1.2669 Y3.384 I0 J0.0665
G3 X1.252 Y3.3841 I-0.0075 J-0.0072
X1.2523 Y3.3692 I0.0074 J-0.0073
G2 X1.2732 Y3.3209 I-0.0455 J-0.0483
G1 X1.2733 Y3.0082
G2 X1.2556 Y2.9631 I-0.0665 J0
G3 X1.2706 Y2.9487 I0.0076 J-0.0071
G2 X1.3179 Y2.9685 I0.0473 J-0.0466
G1 X1.5406 Y2.9686
G3 X1.596 Y3.0494 Z-0.3012 I0 J0.0594
G1 X1.5453 Y3.1804 Z-0.3172
G3 X1.4307 Y3.159 Z-0.336 I-0.0553 J-0.0214
G1 X1.4306 Y3.1386
G3 X1.4434 Y3.1258 I0.0128 J0
G1 X1.484 Y3.1259
G3 X1.4967 Y3.1386 I0 J0.0127
G1 X1.4968 Y3.1937
G3 X1.484 Y3.2065 I-0.0128 J0
G1 X1.4434 Y3.2064
G3 X1.4307 Y3.1937 I0 J-0.0127
G1 X1.4306 Y3.159
G2 X1.4034 Y3.1049 I-0.0675 J0
G3 X1.4225 Y3.0474 I0.0191 J-0.0256
G1 X1.5628
G3 X1.5753 Y3.0599 I0 J0.0125
G1 Y3.2724
G3 X1.5628 Y3.2849 I-0.0125 J0
G1 X1.3646
G3 X1.3521 Y3.2724 I0 J-0.0125
G1 Y3.0599
G3 X1.3646 Y3.0474 I0.0125 J0
G1 X1.4225
G2 X1.4816 Y3.008 I0 J-0.064
G3 X1.5406 Y2.9687 I0.059 J0.0246
G1 X1.613 Y2.9686
G2 X1.6596 Y2.9495 I0 J-0.0665
G3 X1.6741 Y2.9496 I0.0072 J0.0073
X1.674 Y2.9641 I-0.0073 J0.0072
G2 X1.654 Y3.0117 I0.0465 J0.0476
G1 Y3.3207
G2 X1.6721 Y3.3663 I0.0665 J0
G3 X1.6577 Y3.3809 I-0.0075 J0.007
G2 X1.613 Y3.3637 I-0.0447 J0.0493
G1 X1.3147
G2 X1.2669 Y3.384 I0 J0.0665
G3 X1.252 Y3.3841 I-0.0075 J-0.0072
X1.2523 Y3.3692 I0.0074 J-0.0073
G2 X1.2732 Y3.3209 I-0.0455 J-0.0483
G1 X1.2733 Y3.0082
G2 X1.2556 Y2.9631 I-0.0665 J0
G3 X1.2706 Y2.9487 I0.0076 J-0.0071
G2 X1.3179 Y2.9685 I0.0473 J-0.0466
G1 X1.5406 Y2.9686
G3 X1.596 Y3.0494 Z-0.3464 I0 J0.0594
G1 X1.5453 Y3.1804 Z-0.3591
G3 X1.4307 Y3.159 Z-0.374 I-0.0553 J-0.0214
G1 X1.4306 Y3.1386
G3 X1.4434 Y3.1258 I0.0128 J0
G1 X1.484 Y3.1259
G3 X1.4967 Y3.1386 I0 J0.0127
G1 X1.4968 Y3.1937
G3 X1.484 Y3.2065 I-0.0128 J0
G1 X1.4434 Y3.2064
G3 X1.4307 Y3.1937 I0 J-0.0127
G1 X1.4306 Y3.159
G2 X1.4034 Y3.1049 I-0.0675 J0
G3 X1.4225 Y3.0474 I0.0191 J-0.0256
G1 X1.5628
G3 X1.5753 Y3.0599 I0 J0.0125
G1 Y3.2724
G3 X1.5628 Y3.2849 I-0.0125 J0
G1 X1.3646
G3 X1.3521 Y3.2724 I0 J-0.0125
G1 Y3.0599
G3 X1.3646 Y3.0474 I0.0125 J0
G1 X1.4225
G2 X1.4816 Y3.008 I0 J-0.064
G3 X1.5406 Y2.9687 I0.059 J0.0246
G1 X1.613 Y2.9686
G2 X1.6596 Y2.9495 I0 J-0.0665
G3 X1.6741 Y2.9496 I0.0072 J0.0073
X1.674 Y2.9641 I-0.0073 J0.0072
G2 X1.654 Y3.0117 I0.0465 J0.0476
G1 Y3.3207
G2 X1.6721 Y3.3663 I0.0665 J0
G3 X1.6577 Y3.3809 I-0.0075 J0.007
G2 X1.613 Y3.3637 I-0.0447 J0.0493
G1 X1.3147
G2 X1.2669 Y3.384 I0 J0.0665
G3 X1.252 Y3.3841 I-0.0075 J-0.0072
X1.2523 Y3.3692 I0.0074 J-0.0073
G2 X1.2732 Y3.3209 I-0.0455 J-0.0483
G1 X1.2733 Y3.0082
G2 X1.2556 Y2.9631 I-0.0665 J0
G3 X1.2706 Y2.9487 I0.0076 J-0.0071
G2 X1.3179 Y2.9685 I0.0473 J-0.0466
G1 X1.5406 Y2.9686
X1.542 Y2.9687
X1.5434 Y2.9688 Z-0.3739
X1.5447 Y2.969 Z-0.3737
X1.5461 Y2.9692 Z-0.3734
X1.5474 Y2.9696 Z-0.373
X1.5487 Y2.97 Z-0.3726
X1.5499 Y2.9704 Z-0.3721
X1.5511 Y2.9709 Z-0.3715
X1.5522 Y2.9715 Z-0.3709
X1.5532 Y2.9721 Z-0.3702
X1.5542 Y2.9727 Z-0.3694
X1.5552 Y2.9733 Z-0.3686
X1.556 Y2.974 Z-0.3677
X1.5568 Y2.9746 Z-0.3667
X1.5575 Y2.9753 Z-0.3657
X1.5582 Y2.9759 Z-0.3646
X1.5588 Y2.9765 Z-0.3635
X1.5593 Y2.9771 Z-0.3623
X1.5598 Y2.9776 Z-0.3611
X1.5602 Y2.9781 Z-0.3599
X1.5605 Y2.9786 Z-0.3586
X1.5608 Y2.979 Z-0.3573
X1.5611 Y2.9793 Z-0.3559
X1.5613 Y2.9796 Z-0.3546
X1.5614 Y2.9798 Z-0.3532
X1.5615 Y2.98 Z-0.3518
X1.5616 Y2.9801 Z-0.3504
Z-0.349
G0 Z0.2

(Wall Finish)
Z0.2269
X1.628 Y3.1833
G1 Z-0.174 F70
G18 G2 X1.638 Z-0.184 I0.01 K0 F67.2
G1 X1.648
G17 G2 X1.658 Y3.1733 I0 J-0.01
G1 Y3.0117
G3 X1.6768 Y2.967 I0.0625 J0
G2 X1.677 Y2.9468 I-0.01 J-0.0102
X1.6568 Y2.9466 I-0.0102 J0.01
G3 X1.613 Y2.9645 I-0.0438 J-0.0445
G1 X1.3179 Y2.9646
G3 X1.2734 Y2.946 I0 J-0.0625
G2 X1.2527 Y2.9657 I-0.0102 J0.01
G3 X1.2694 Y3.0082 I-0.0459 J0.0425
G1 X1.2693 Y3.3209
G3 X1.2496 Y3.3664 I-0.0625 J0
G2 X1.2493 Y3.3869 I0.0098 J0.0104
X1.2697 Y3.3867 I0.0101 J-0.0101
G3 X1.3147 Y3.3676 I0.045 J0.0435
G1 X1.613 Y3.3677
G3 X1.655 Y3.3839 I0 J0.0625
G2 X1.675 Y3.3635 I0.0096 J-0.0106
G3 X1.658 Y3.3207 I0.0455 J-0.0428
G1 Y3.1733
G2 X1.648 Y3.1633 I-0.01 J0
G1 X1.638
G18 G3 X1.628 Z-0.174 I0 K0.01
G1 X1.6279 Y3.02
Z-0.358 F70
X1.6281 Z-0.3602 F67.2
X1.6289 Z-0.3624
X1.6301 Z-0.3643
X1.6316 Y3.0201 Z-0.3658
X1.6335 Z-0.367
X1.6357 Z-0.3678
X1.6379 Y3.0202 Z-0.368
X1.6479 Y3.0204
G17 G2 X1.6581 Y3.0105 I0.0002 J-0.01
G3 X1.6768 Y2.9671 I0.0624 J0.0012
G2 X1.6771 Y2.9468 I-0.01 J-0.0103
X1.6567 Y2.9466 I-0.0103 J0.01
G3 X1.613 Y2.9645 I-0.0437 J-0.0445
G1 X1.3179 Y2.9646
G3 X1.2734 Y2.946 I0 J-0.0625
G2 X1.2527 Y2.9657 I-0.0102 J0.01
G3 X1.2694 Y3.0082 I-0.0459 J0.0425
G1 X1.2693 Y3.3209
G3 X1.2496 Y3.3664 I-0.0625 J0
G2 X1.2493 Y3.3869 I0.0098 J0.0104
X1.2697 Y3.3867 I0.0101 J-0.0101
G3 X1.3147 Y3.3676 I0.045 J0.0435
G1 X1.613 Y3.3677
G3 X1.655 Y3.3839 I0 J0.0625
G2 X1.675 Y3.3635 I0.0096 J-0.0106
G3 X1.658 Y3.3207 I0.0455 J-0.0428
G1 Y3.0117
Y3.0111
X1.6581 Y3.0105
G2 X1.6482 Y3.0004 I-0.01 J-0.0001
G1 X1.6382 Y3.0002
X1.636 Y3.0001 Z-0.3678
X1.6339 Z-0.367
X1.632 Z-0.3658
X1.6304 Y3 Z-0.3643
X1.6292 Z-0.3624
X1.6285 Z-0.3602
X1.6282 Z-0.358
G0 Z0.2

(Floor Finish)
X1.4711 Y3.2011
Z0.2
Z-0.264
G1 Z-0.314 F96
Z-0.324 F70
X1.471 Y3.201 Z-0.326
X1.4709 Z-0.3279
X1.4708 Y3.2009 Z-0.3299
X1.4707 Y3.2008 Z-0.3309
X1.4705 Y3.2007 Z-0.3318
X1.4704 Y3.2006 Z-0.3328
X1.4703 Y3.2005 Z-0.3338
X1.4701 Y3.2004 Z-0.3344
X1.47 Z-0.335
X1.4699 Y3.2003 Z-0.3357
X1.4698 Y3.2002 Z-0.3363
X1.4696 Y3.2001 Z-0.337
X1.4695 Y3.2 Z-0.3376
X1.4693 Y3.1999 Z-0.3382
X1.4692 Y3.1998 Z-0.3388
X1.469 Y3.1997 Z-0.3395
X1.4685 Y3.1993 Z-0.3413
X1.4679 Y3.1989 Z-0.3431
X1.4673 Y3.1984 Z-0.3449
X1.4666 Y3.1979 Z-0.3467
X1.4659 Y3.1973 Z-0.3484
X1.4652 Y3.1966 Z-0.3501
X1.4644 Y3.1959 Z-0.3518
X1.4636 Y3.1952 Z-0.3534
X1.4627 Y3.1943 Z-0.355
X1.4619 Y3.1934 Z-0.3565
X1.461 Y3.1925 Z-0.358
X1.4601 Y3.1915 Z-0.3594
X1.4592 Y3.1904 Z-0.3607
X1.4583 Y3.1892 Z-0.362
X1.4574 Y3.188 Z-0.3633
X1.4565 Y3.1867 Z-0.3645
X1.4556 Y3.1854 Z-0.3656
X1.4547 Y3.1839 Z-0.3666
X1.4539 Y3.1825 Z-0.3676
X1.4531 Y3.1809 Z-0.3686
X1.4524 Y3.1793 Z-0.3694
X1.4517 Y3.1777 Z-0.3702
X1.451 Y3.1759 Z-0.3709
X1.4504 Y3.1742 Z-0.3716
X1.4499 Y3.1724 Z-0.3721
X1.4494 Y3.1705 Z-0.3726
X1.449 Y3.1687 Z-0.3731
X1.4487 Y3.1668 Z-0.3734
X1.4484 Y3.1648 Z-0.3737
X1.4482 Y3.1629 Z-0.3739
X1.4481 Y3.1609 Z-0.374
Y3.159
Y3.1561 F96
G3 X1.4609 Y3.1433 I0.0128 J0
G1 X1.4665 Y3.1434
G3 X1.4792 Y3.1561 I0 J0.0127
G1 X1.4793 Y3.1762
G3 X1.4665 Y3.189 I-0.0128 J0
G1 X1.4609 Y3.1889
G3 X1.4482 Y3.1762 I0 J-0.0127
G1 X1.4481 Y3.159
G2 X1.4277 Y3.124 I-0.0402 J0
G3 X1.4379 Y3.0849 I0.0102 J-0.0182
G1 X1.525
G3 X1.5377 Y3.0976 I0 J0.0127
G1 X1.5378 Y3.2347
G3 X1.525 Y3.2475 I-0.0128 J0
G1 X1.4024 Y3.2474
G3 X1.3897 Y3.2347 I0 J-0.0127
G1 X1.3896 Y3.0976
G3 X1.4024 Y3.0848 I0.0128 J0
G1 X1.4379 Y3.0849
G2 X1.4818 Y3.0556 I0 J-0.0476
G3 X1.5257 Y3.0263 I0.0439 J0.0183
G1 X1.5838 Y3.0264
G3 X1.5963 Y3.0389 I0 J0.0125
G1 Y3.2934
G3 X1.5838 Y3.3059 I-0.0125 J0
G1 X1.3436
G3 X1.3311 Y3.2934 I0 J-0.0125
G1 Y3.0389
G3 X1.3436 Y3.0264 I0.0125 J0
G1 X1.5257
G2 X1.5699 Y2.9971 I0 J-0.048
G3 X1.6138 Y2.9677 I0.0445 J0.0189
G2 X1.659 Y2.9489 I-0.0008 J-0.0656
G3 X1.6747 Y2.949 I0.0078 J0.0079
X1.6745 Y2.9648 I-0.0079 J0.0078
G2 X1.6548 Y3.0117 I0.046 J0.0469
G1 X1.655 Y3.3207
G2 X1.6728 Y3.3656 I0.0655 J0
G3 X1.657 Y3.3816 I-0.0082 J0.0077
G2 X1.613 Y3.3646 I-0.044 J0.0486
G1 X1.3147 Y3.3647
G2 X1.2676 Y3.3847 I0 J0.0655
G3 X1.2513 Y3.3848 I-0.0082 J-0.0079
X1.2516 Y3.3685 I0.0081 J-0.008
G2 X1.2722 Y3.3209 I-0.0448 J-0.0476
G1 X1.2723 Y3.0082
G2 X1.2549 Y2.9637 I-0.0655 J0
G3 X1.2713 Y2.9481 I0.0083 J-0.0077
G2 X1.3179 Y2.9676 I0.0466 J-0.046
G1 X1.613
X1.6138
X1.6158
X1.6177 Y2.9675 Z-0.3739
X1.6197 Y2.9673 Z-0.3737
X1.6216 Y2.9671 Z-0.3734
X1.6235 Y2.9668 Z-0.3731
X1.6254 Y2.9664 Z-0.3726
X1.6273 Y2.966 Z-0.3721
X1.6291 Y2.9656 Z-0.3716
X1.6309 Y2.9651 Z-0.3709
X1.6326 Y2.9646 Z-0.3702
X1.6343 Y2.964 Z-0.3694
X1.636 Y2.9634 Z-0.3686
X1.6376 Y2.9628 Z-0.3676
X1.6392 Y2.9621 Z-0.3666
X1.6407 Y2.9615 Z-0.3656
X1.6421 Y2.9608 Z-0.3645
X1.6435 Y2.9601 Z-0.3633
X1.6449 Y2.9593 Z-0.362
X1.6461 Y2.9586 Z-0.3607
X1.6473 Y2.9579 Z-0.3594
X1.6485 Y2.9571 Z-0.358
X1.6496 Y2.9564 Z-0.3565
X1.6506 Y2.9557 Z-0.355
X1.6516 Y2.955 Z-0.3534
X1.6525 Y2.9544 Z-0.3518
X1.6533 Y2.9537 Z-0.3501
X1.6541 Y2.9531 Z-0.3484
X1.6548 Y2.9525 Z-0.3467
X1.6555 Y2.952 Z-0.3449
X1.6561 Y2.9514 Z-0.3431
X1.6566 Y2.951 Z-0.3413
X1.6571 Y2.9505 Z-0.3395
X1.6575 Y2.9502 Z-0.3376
X1.6579 Y2.9498 Z-0.3357
X1.6582 Y2.9495 Z-0.3338
X1.6584 Y2.9493 Z-0.3318
X1.6586 Y2.9491 Z-0.3299
X1.6587 Y2.949 Z-0.3279
X1.6588 Y2.9489 Z-0.326
X1.6589 Z-0.324
G0 Z0.2

(Pocketing)
X1.5459 Y3.9264
Z0.2
Z0.055
G1 Z0.0536 F72
Y3.9265 Z0.0523
X1.546 Y3.9267 Z0.0509
X1.5461 Y3.9269 Z0.0495
Y3.9271 Z0.0489
X1.5462 Y3.9273 Z0.0482
Y3.9275 Z0.0475
X1.5463 Y3.9277 Z0.0469
Y3.9278 Z0.0465
X1.5464 Y3.928 Z0.046
Y3.9281 Z0.0456
X1.5465 Y3.9283 Z0.0452
X1.5466 Y3.9285 Z0.0448
Y3.9286 Z0.0443
X1.5467 Y3.9288 Z0.0439
Y3.929 Z0.0435
X1.5468 Y3.9292 Z0.0431
X1.547 Y3.9299 Z0.0419
X1.5472 Y3.9306 Z0.0408
X1.5474 Y3.9314 Z0.0397
X1.5476 Y3.9322 Z0.0386
X1.5478 Y3.9332 Z0.0376
X1.548 Y3.9341 Z0.0366
X1.5483 Y3.9351 Z0.0357
X1.5484 Y3.9362 Z0.0349
X1.5486 Y3.9373 Z0.0341
X1.5488 Y3.9385 Z0.0334
X1.5489 Y3.9397 Z0.0327
X1.5491 Y3.9409 Z0.0321
X1.5492 Y3.9422 Z0.0316
X1.5493 Y3.9435 Z0.0312
Y3.9448 Z0.0308
Y3.9461 Z0.0305
Y3.9475 Z0.0302
G3 X1.4307 Y3.9453 Z0.004 I-0.0593 J-0.0011
X1.5493 Y3.9475 Z-0.0222 I0.0593 J0.0011
X1.4308 Y3.9499 Z-0.0478 I-0.0593 J-0.0011
G1 X1.4306 Y3.9487 Z-0.0479
Y3.9475 Z-0.048
Y3.9464
Y3.926
G3 X1.4434 Y3.9132 I0.0128 J0
G1 X1.484 Y3.9133
G3 X1.4967 Y3.926 I0 J0.0127
G1 X1.4968 Y3.9811
G3 X1.484 Y3.9939 I-0.0128 J0
G1 X1.4434 Y3.9938
G3 X1.4307 Y3.9811 I0 J-0.0127
G1 X1.4306 Y3.9464
G2 X1.4034 Y3.8923 I-0.0675 J0
G3 X1.4225 Y3.8348 I0.0191 J-0.0256
G1 X1.5628
G3 X1.5753 Y3.8473 I0 J0.0125
G1 Y4.0598
G3 X1.5628 Y4.0723 I-0.0125 J0
G1 X1.3646
G3 X1.3521 Y4.0598 I0 J-0.0125
G1 Y3.8473
G3 X1.3646 Y3.8348 I0.0125 J0
G1 X1.4225
G2 X1.4816 Y3.7954 I0 J-0.064
G3 X1.5406 Y3.7561 I0.059 J0.0246
G1 X1.613 Y3.756
G2 X1.6596 Y3.7369 I0 J-0.0665
G3 X1.6741 Y3.737 I0.0072 J0.0074
Y3.7516 I-0.0073 J0.0073
G2 X1.6541 Y3.7991 I0.0464 J0.0475
G1 X1.654 Y4.1081
G2 X1.6721 Y4.1537 I0.0665 J0
G3 X1.6577 Y4.1683 I-0.0075 J0.007
G2 X1.613 Y4.1511 I-0.0447 J0.0493
G1 X1.3147
G2 X1.2669 Y4.1714 I0 J0.0665
G3 X1.252 Y4.1715 I-0.0075 J-0.0072
X1.2523 Y4.1566 I0.0074 J-0.0073
G2 X1.2732 Y4.1083 I-0.0455 J-0.0483
G1 X1.2733 Y3.7956
G2 X1.2556 Y3.7505 I-0.0665 J0
G3 X1.2706 Y3.7361 I0.0076 J-0.0071
G2 X1.3179 Y3.7559 I0.0473 J-0.0466
G1 X1.5406 Y3.756
G3 X1.596 Y3.8368 Z-0.0612 I0 J0.0594
G1 X1.5453 Y3.9678 Z-0.0772
G3 X1.4307 Y3.9464 Z-0.096 I-0.0553 J-0.0214
G1 X1.4306 Y3.926
G3 X1.4434 Y3.9132 I0.0128 J0
G1 X1.484 Y3.9133
G3 X1.4967 Y3.926 I0 J0.0127
G1 X1.4968 Y3.9811
G3 X1.484 Y3.9939 I-0.0128 J0
G1 X1.4434 Y3.9938
G3 X1.4307 Y3.9811 I0 J-0.0127
G1 X1.4306 Y3.9464
G2 X1.4034 Y3.8923 I-0.0675 J0
G3 X1.4225 Y3.8348 I0.0191 J-0.0256
G1 X1.5628
G3 X1.5753 Y3.8473 I0 J0.0125
G1 Y4.0598
G3 X1.5628 Y4.0723 I-0.0125 J0
G1 X1.3646
G3 X1.3521 Y4.0598 I0 J-0.0125
G1 Y3.8473
G3 X1.3646 Y3.8348 I0.0125 J0
G1 X1.4225
G2 X1.4816 Y3.7954 I0 J-0.064
